%
O02987 (Fase1)
(Using G0 which travels along dogleg path.)
(T1 D=20. CR=0.4 - ZMIN=-0.9 - fresa)
(T2 D=12. CR=0. - ZMIN=-18. - Fresa cilindrica)
(T3 D=4. CR=0. TAPER=30deg - ZMIN=-1.05 - utensile per smusso)
(T4 D=6.8 CR=0. TAPER=118deg - ZMIN=-19.043 - Punta)
(T7 D=8. CR=0. TAPER=45deg - ZMIN=-2.5 - utensile per smusso)
(T8 D=8. CR=0. - ZMIN=-12. - right hand tap)
N10 G90 G94 G17
N15 G21
N20 G53 G0 Z0.

(Piana3 4)
N25 T1 M6
N30 S5000 M3
N35 G17 G90 G94
N40 G54
N45 M8
N50 G0 X63. Y-36.43
N55 G43 Z15. H1
N60 T2
N65 G0 Z5.
N70 G1 Z1.1 F333.33
N75 G18 G3 X61. Z-0.9 I-2. K0. F1000.
N80 G1 X60.01
N85 X-60.01
N90 G17 G2 Y-22.995 I0. J6.718
N95 G1 X60.01
N100 G3 Y-9.56 I0. J6.718
N105 G1 X-60.01
N110 G2 Y3.875 I0. J6.718
N115 G1 X60.01
N120 G3 Y17.31 I0. J6.718
N125 G1 X-60.01
N130 G2 Y30.746 I0. J6.718
N135 G1 X60.01
N140 G18 G2 X62.01 Z1.1 I0. K2.
N145 G0 Z15.
N150 M9
N155 M5
N160 G53 G0 Z0.

(Piana3 5)
N165 M1
N170 T2 M6
N175 S6000 M3
N180 G17 G90 G94
N185 G54
N190 M8
N195 G0 X-50.939 Y-52.668
N200 G43 Z15. H2
N205 T4
N210 G0 Z5.
N215 Z-7.8
N220 G1 Z-9. F550.
N225 Z-11.
N230 G3 X-50. Y-46.135 I-29.678 J7.602
N235 G1 Y-45.896
N240 X-50.251 Y-44.665
N245 X-50.451 Y-43.425
N250 X-50.609 Y-42.18
N255 X-50.727 Y-41.001
N260 X-50.793 Y-40.615
N265 X-50.912 Y-40.242
N270 X-51.082 Y-39.889
N275 X-51.3 Y-39.564
N280 X-51.441 Y-39.382
N285 X-51.695 Y-39.022
N290 X-51.929 Y-38.683
N295 X-52.393 Y-37.943
N300 X-52.593 Y-37.583
N305 X-52.786 Y-37.224
N310 X-52.96 Y-36.864
N315 X-53.007 Y-36.75
N320 X-53.096 Y-36.504
N325 X-53.223 Y-36.145
N330 X-53.474 Y-35.425
N335 X-53.582 Y-35.066
N340 X-53.725 Y-34.513
N345 X-53.758 Y-34.347
N350 X-53.853 Y-33.627
N355 X-53.895 Y-33.268
N360 X-53.936 Y-32.908
N365 X-53.967 Y-32.548
N370 X-53.998 Y-31.829
N375 X-54. Y-31.469
N380 Y31.469
N385 X-53.998 Y31.829
N390 X-53.967 Y32.548
N395 X-53.936 Y32.908
N400 X-53.895 Y33.268
N405 X-53.853 Y33.627
N410 X-53.758 Y34.347
N415 X-53.725 Y34.513
N420 X-53.582 Y35.066
N425 X-53.474 Y35.425
N430 X-53.223 Y36.145
N435 X-53.096 Y36.504
N440 X-53.007 Y36.75
N445 X-52.96 Y36.864
N450 X-52.786 Y37.224
N455 X-52.593 Y37.583
N460 X-52.393 Y37.943
N465 X-51.929 Y38.683
N470 X-51.695 Y39.022
N475 X-51.441 Y39.382
N480 X-51.21 Y39.68
N485 X-51.154 Y39.741
N490 X-50.85 Y40.067
N495 X-50.097 Y40.82
N500 X-49.772 Y41.125
N505 X-49.712 Y41.18
N510 X-49.413 Y41.42
N515 X-48.73 Y41.899
N520 X-47.976 Y42.373
N525 X-47.616 Y42.576
N530 X-47.257 Y42.768
N535 X-46.897 Y42.946
N540 X-46.819 Y42.978
N545 X-46.538 Y43.085
N550 X-45.816 Y43.338
N555 X-45.46 Y43.462
N560 X-45.101 Y43.573
N565 X-44.619 Y43.697
N570 X-44.382 Y43.753
N575 X-43.663 Y43.848
N580 X-43.304 Y43.891
N585 X-42.944 Y43.932
N590 X-42.585 Y43.967
N595 X-41.866 Y43.996
N600 X-41.507 Y44.
N605 X41.507
N610 X41.866 Y43.996
N615 X42.585 Y43.967
N620 X42.944 Y43.932
N625 X43.304 Y43.891
N630 X43.663 Y43.848
N635 X44.382 Y43.753
N640 X44.619 Y43.697
N645 X45.101 Y43.573
N650 X45.46 Y43.462
N655 X46.179 Y43.211
N660 X46.538 Y43.085
N665 X46.819 Y42.978
N670 X46.897 Y42.946
N675 X47.257 Y42.768
N680 X47.616 Y42.576
N685 X47.976 Y42.373
N690 X48.73 Y41.899
N695 X49.413 Y41.42
N700 X49.712 Y41.18
N705 X49.772 Y41.125
N710 X50.097 Y40.82
N715 X50.85 Y40.067
N720 X51.154 Y39.741
N725 X51.21 Y39.68
N730 X51.441 Y39.382
N735 X51.695 Y39.022
N740 X51.929 Y38.683
N745 X52.393 Y37.943
N750 X52.593 Y37.583
N755 X52.786 Y37.224
N760 X52.96 Y36.864
N765 X53.007 Y36.75
N770 X53.096 Y36.504
N775 X53.223 Y36.145
N780 X53.474 Y35.425
N785 X53.582 Y35.066
N790 X53.725 Y34.513
N795 X53.758 Y34.347
N800 X53.853 Y33.627
N805 X53.895 Y33.268
N810 X53.936 Y32.908
N815 X53.967 Y32.548
N820 X53.998 Y31.829
N825 X54. Y31.469
N830 Y-31.469
N835 X53.998 Y-31.829
N840 X53.967 Y-32.548
N845 X53.936 Y-32.908
N850 X53.895 Y-33.268
N855 X53.853 Y-33.627
N860 X53.758 Y-34.347
N865 X53.725 Y-34.513
N870 X53.582 Y-35.066
N875 X53.474 Y-35.425
N880 X53.223 Y-36.145
N885 X53.096 Y-36.504
N890 X53.007 Y-36.75
N895 X52.96 Y-36.864
N900 X52.786 Y-37.224
N905 X52.593 Y-37.583
N910 X52.393 Y-37.943
N915 X51.929 Y-38.683
N920 X51.695 Y-39.022
N925 X51.441 Y-39.382
N930 X51.21 Y-39.68
N935 X51.154 Y-39.741
N940 X50.85 Y-40.067
N945 X50.097 Y-40.82
N950 X49.772 Y-41.125
N955 X49.712 Y-41.18
N960 X49.413 Y-41.42
N965 X48.73 Y-41.899
N970 X47.976 Y-42.373
N975 X47.616 Y-42.576
N980 X47.257 Y-42.768
N985 X46.897 Y-42.946
N990 X46.819 Y-42.978
N995 X46.538 Y-43.085
N1000 X45.816 Y-43.338
N1005 X45.46 Y-43.462
N1010 X45.101 Y-43.573
N1015 X44.619 Y-43.697
N1020 X44.382 Y-43.753
N1025 X43.663 Y-43.848
N1030 X43.304 Y-43.891
N1035 X42.944 Y-43.932
N1040 X42.585 Y-43.967
N1045 X41.866 Y-43.996
N1050 X41.507 Y-44.
N1055 X-41.507
N1060 X-41.866 Y-43.996
N1065 X-42.585 Y-43.967
N1070 X-42.944 Y-43.932
N1075 X-43.304 Y-43.891
N1080 X-43.663 Y-43.848
N1085 X-44.382 Y-43.753
N1090 X-44.619 Y-43.697
N1095 X-45.101 Y-43.573
N1100 X-45.46 Y-43.462
N1105 X-46.179 Y-43.211
N1110 X-46.538 Y-43.085
N1115 X-46.819 Y-42.978
N1120 X-46.897 Y-42.946
N1125 X-47.257 Y-42.768
N1130 X-47.616 Y-42.576
N1135 X-47.976 Y-42.373
N1140 X-48.73 Y-41.899
N1145 X-49.413 Y-41.42
N1150 X-49.712 Y-41.18
N1155 X-49.772 Y-41.125
N1160 X-50.097 Y-40.82
N1165 X-50.85 Y-40.067
N1170 X-51.185 Y-39.708
N1175 X-51.21 Y-39.68
N1180 X-51.3 Y-39.564
N1185 G3 X-51.958 Y-39.161 I-0.922 J-0.768
N1190 G1 X-52.089 Y-39.132 Z-10.992
N1195 X-52.218 Y-39.102 Z-10.97
N1200 X-52.345 Y-39.074 Z-10.933
N1205 X-52.466 Y-39.047 Z-10.881
N1210 X-52.581 Y-39.021 Z-10.816
N1215 X-52.688 Y-38.996 Z-10.738
N1220 X-52.786 Y-38.974 Z-10.649
N1225 X-52.873 Y-38.955 Z-10.548
N1230 X-52.949 Y-38.938 Z-10.438
N1235 X-53.013 Y-38.923 Z-10.321
N1240 X-53.063 Y-38.912 Z-10.196
N1245 X-53.099 Y-38.904 Z-10.067
N1250 X-53.121 Y-38.899 Z-9.934
N1255 X-53.129 Y-38.897 Z-9.8
N1260 G0 Z15.

(Piana3 6)
N1265 G0 X-55.237 Y-52.185
N1270 G0 Z15.
N1275 Z5.
N1280 Z-15.6
N1285 G1 Z-16.8 F550.
N1290 X-55.235 Y-52.177 Z-16.934
N1295 X-55.23 Y-52.156 Z-17.067
N1300 X-55.221 Y-52.12 Z-17.196
N1305 X-55.208 Y-52.07 Z-17.321
N1310 X-55.192 Y-52.007 Z-17.438
N1315 X-55.172 Y-51.931 Z-17.548
N1320 X-55.15 Y-51.844 Z-17.649
N1325 X-55.125 Y-51.747 Z-17.738
N1330 X-55.098 Y-51.641 Z-17.816
N1335 X-55.069 Y-51.527 Z-17.881
N1340 X-55.038 Y-51.406 Z-17.933
N1345 X-55.006 Y-51.281 Z-17.97
N1350 X-54.973 Y-51.152 Z-17.992
N1355 X-54.939 Y-51.022 Z-18.
N1360 G3 X-54. Y-44.49 I-29.678 J7.602
N1365 G1 Y-42.978
N1370 X-54.007 Y-42.828
N1375 X-54.252 Y-41.597
N1380 X-54.427 Y-40.353
N1385 X-54.549 Y-39.103
N1390 X-54.633 Y-37.85
N1395 X-54.689 Y-36.596
N1400 X-54.727 Y-35.34
N1405 X-54.752 Y-34.085
N1410 X-54.769 Y-32.829
N1415 X-54.78 Y-31.573
N1420 X-54.787 Y-30.318
N1425 X-54.791 Y-29.062
N1430 X-54.794 Y-27.806
N1435 X-54.798 Y-25.294
N1440 X-54.8 Y-20.271
N1445 Y7.356
N1450 Y37.495
N1455 X-54.535 Y38.723
N1460 X-54.299 Y39.238
N1465 X-54.134 Y39.68
N1470 X-54.034 Y40.14
N1475 X-54. Y40.611
N1480 G3 X-54.273 Y41.332 I-1.199 J-0.042
N1485 G1 X-54.359 Y41.436 Z-17.992
N1490 X-54.443 Y41.538 Z-17.97
N1495 X-54.525 Y41.638 Z-17.933
N1500 X-54.605 Y41.734 Z-17.881
N1505 X-54.679 Y41.825 Z-17.816
N1510 X-54.749 Y41.909 Z-17.738
N1515 X-54.813 Y41.987 Z-17.649
N1520 X-54.87 Y42.056 Z-17.548
N1525 X-54.92 Y42.116 Z-17.438
N1530 X-54.961 Y42.166 Z-17.321
N1535 X-54.994 Y42.206 Z-17.196
N1540 X-55.017 Y42.235 Z-17.067
N1545 X-55.032 Y42.252 Z-16.934
N1550 X-55.037 Y42.258 Z-16.8
N1555 G0 Z5.
N1560 X-54.835 Y-44.763
N1565 Z-15.6
N1570 G1 Z-16.8 F550.
N1575 X-54.831 Y-44.757 Z-16.934
N1580 X-54.819 Y-44.737 Z-17.067
N1585 X-54.8 Y-44.705 Z-17.196
N1590 X-54.774 Y-44.661 Z-17.321
N1595 X-54.741 Y-44.605 Z-17.438
N1600 X-54.701 Y-44.538 Z-17.548
N1605 X-54.655 Y-44.461 Z-17.649
N1610 X-54.604 Y-44.375 Z-17.738
N1615 X-54.548 Y-44.28 Z-17.816
N1620 X-54.487 Y-44.179 Z-17.881
N1625 X-54.424 Y-44.072 Z-17.933
N1630 X-54.358 Y-43.961 Z-17.97
N1635 X-54.29 Y-43.847 Z-17.992
N1640 X-54.221 Y-43.732 Z-18.
N1645 G3 X-54. Y-42.978 I-1.36 J0.809
N1650 G1 Y40.611
N1655 X-54.017 Y40.715 Z-17.993
N1660 X-54.034 Y40.817 Z-17.972
N1665 X-54.05 Y40.915 Z-17.937
N1670 X-54.086 Y40.995 Z-17.892
N1675 X-54.119 Y41.069 Z-17.837
N1680 X-54.15 Y41.137 Z-17.772
N1685 X-54.176 Y41.196 Z-17.699
N1690 X-54.21 Y41.244 Z-17.613
N1695 X-54.238 Y41.282 Z-17.519
N1700 X-54.257 Y41.31 Z-17.421
N1705 X-54.269 Y41.326 Z-17.319
N1710 X-54.273 Y41.332 Z-17.215
N1715 G0 Z5.
N1720 X55.237 Y52.185
N1725 Z-15.6
N1730 G1 Z-16.8 F550.
N1735 X55.235 Y52.177 Z-16.934
N1740 X55.23 Y52.156 Z-17.067
N1745 X55.221 Y52.12 Z-17.196
N1750 X55.208 Y52.07 Z-17.321
N1755 X55.192 Y52.007 Z-17.438
N1760 X55.172 Y51.931 Z-17.548
N1765 X55.15 Y51.844 Z-17.649
N1770 X55.125 Y51.747 Z-17.738
N1775 X55.098 Y51.641 Z-17.816
N1780 X55.069 Y51.527 Z-17.881
N1785 X55.038 Y51.406 Z-17.933
N1790 X55.006 Y51.281 Z-17.97
N1795 X54.973 Y51.152 Z-17.992
N1800 X54.939 Y51.022 Z-18.
N1805 G3 X54. Y44.49 I29.678 J-7.602
N1810 G1 Y42.978
N1815 X54.007 Y42.828
N1820 X54.252 Y41.597
N1825 X54.427 Y40.353
N1830 X54.549 Y39.103
N1835 X54.633 Y37.85
N1840 X54.689 Y36.596
N1845 X54.727 Y35.34
N1850 X54.752 Y34.085
N1855 X54.769 Y32.829
N1860 X54.78 Y31.573
N1865 X54.787 Y30.318
N1870 X54.791 Y29.062
N1875 X54.794 Y27.806
N1880 X54.798 Y25.294
N1885 X54.8 Y20.271
N1890 Y-7.356
N1895 Y-37.495
N1900 X54.535 Y-38.723
N1905 X54.299 Y-39.238
N1910 X54.134 Y-39.68
N1915 X54.034 Y-40.14
N1920 X54. Y-40.611
N1925 G3 X54.273 Y-41.332 I1.199 J0.042
N1930 G1 X54.359 Y-41.436 Z-17.992
N1935 X54.443 Y-41.538 Z-17.97
N1940 X54.525 Y-41.638 Z-17.933
N1945 X54.605 Y-41.734 Z-17.881
N1950 X54.679 Y-41.825 Z-17.816
N1955 X54.749 Y-41.909 Z-17.738
N1960 X54.813 Y-41.987 Z-17.649
N1965 X54.87 Y-42.056 Z-17.548
N1970 X54.92 Y-42.116 Z-17.438
N1975 X54.961 Y-42.166 Z-17.321
N1980 X54.994 Y-42.206 Z-17.196
N1985 X55.017 Y-42.235 Z-17.067
N1990 X55.032 Y-42.252 Z-16.934
N1995 X55.037 Y-42.258 Z-16.8
N2000 G0 Z5.
N2005 X54.835 Y44.763
N2010 Z-15.6
N2015 G1 Z-16.8 F550.
N2020 X54.831 Y44.757 Z-16.934
N2025 X54.819 Y44.737 Z-17.067
N2030 X54.8 Y44.705 Z-17.196
N2035 X54.774 Y44.661 Z-17.321
N2040 X54.741 Y44.605 Z-17.438
N2045 X54.701 Y44.538 Z-17.548
N2050 X54.655 Y44.461 Z-17.649
N2055 X54.604 Y44.375 Z-17.738
N2060 X54.548 Y44.28 Z-17.816
N2065 X54.487 Y44.179 Z-17.881
N2070 X54.424 Y44.072 Z-17.933
N2075 X54.358 Y43.961 Z-17.97
N2080 X54.29 Y43.847 Z-17.992
N2085 X54.221 Y43.732 Z-18.
N2090 G3 X54. Y42.978 I1.36 J-0.809
N2095 G1 Y-40.611
N2100 G3 X54.273 Y-41.332 I1.199 J0.042
N2105 G1 X54.359 Y-41.436 Z-17.992
N2110 X54.443 Y-41.538 Z-17.97
N2115 X54.525 Y-41.638 Z-17.933
N2120 X54.605 Y-41.734 Z-17.881
N2125 X54.679 Y-41.825 Z-17.816
N2130 X54.749 Y-41.909 Z-17.738
N2135 X54.813 Y-41.987 Z-17.649
N2140 X54.87 Y-42.056 Z-17.548
N2145 X54.92 Y-42.116 Z-17.438
N2150 X54.961 Y-42.166 Z-17.321
N2155 X54.994 Y-42.206 Z-17.196
N2160 X55.017 Y-42.235 Z-17.067
N2165 X55.032 Y-42.252 Z-16.934
N2170 X55.037 Y-42.258 Z-16.8
N2175 G0 Z15.
N2180 M9
N2185 M5
N2190 G53 G0 Z0.

(Piana3 7)
N2195 M1
N2200 T4 M6
N2205 S3280 M3
N2210 G17 G90 G94
N2215 G54
N2220 M8
N2225 G0 X-40.284 Y-31.891
N2230 G43 Z15. H4
N2235 T7
N2240 G0 Z5.
N2245 G98 G81 X-40.284 Y-31.891 Z-19.043 R4. F131.2
N2250 Y31.891
N2255 X40.284
N2260 Y-31.891
N2265 G80
N2270 G0 Z15.
N2275 M9
N2280 M5
N2285 G53 G0 Z0.

(Piana3 8)
N2290 M1
N2295 T7 M6
N2300 S2900 M3
N2305 G17 G90 G94
N2310 G54
N2315 M8
N2320 G0 X-49.95 Y0.
N2325 G43 Z15. H7
N2330 T8
N2335 G0 Z5.
N2340 G1 Z2. F500.
N2345 Z-2.5
N2350 X-49.15 F1500.
N2355 Y32.
N2360 G2 X-42. Y39.15 I7.15 J0.
N2365 G1 X42.
N2370 G2 X49.15 Y32. I0. J-7.15
N2375 G1 Y-32.
N2380 G2 X42. Y-39.15 I-7.15 J0.
N2385 G1 X-42.
N2390 G2 X-49.15 Y-32. I0. J7.15
N2395 G1 Y0.
N2400 X-49.95
N2405 G0 Z5.
N2410 X-38.834 Y31.891
N2415 G1 Z2. F500.
N2420 Z-2.5
N2425 X-38.034 F1500.
N2430 G3 X-42.534 I-2.25 J0.
N2435 X-38.034 I2.25 J0.
N2440 G1 X-38.834
N2445 G0 Z5.
N2450 Y-31.891
N2455 G1 Z2. F500.
N2460 Z-2.5
N2465 X-38.034 F1500.
N2470 G3 X-42.534 I-2.25 J0.
N2475 X-38.034 I2.25 J0.
N2480 G1 X-38.834
N2485 G0 Z5.
N2490 X41.734
N2495 G1 Z2. F500.
N2500 Z-2.5
N2505 X42.534 F1500.
N2510 G3 X38.034 I-2.25 J0.
N2515 X42.534 I2.25 J0.
N2520 G1 X41.734
N2525 G0 Z5.
N2530 Y31.891
N2535 G1 Z2. F500.
N2540 Z-2.5
N2545 X42.534 F1500.
N2550 G3 X38.034 I-2.25 J0.
N2555 X42.534 I2.25 J0.
N2560 G1 X41.734
N2565 G0 Z15.
N2570 M9
N2575 M5
N2580 G53 G0 Z0.

(Piana3 9)
N2585 M1
N2590 T8 M6
N2595 S400 M3
N2600 G17 G90 G94
N2605 G54
N2610 M8
N2615 G0 X-40.284 Y-31.891
N2620 G43 Z15. H8
N2625 T3
N2630 G0 Z5.
N2635 G98 G84 X-40.284 Y-31.891 Z-12. R4. F500.
N2640 Y31.891
N2645 X40.284
N2650 Y-31.891
N2655 G80
N2660 G0 Z15.
N2665 M9
N2670 M5
N2675 G53 G0 Z0.

(Incisione5)
N2680 M1
N2685 T3 M6
N2690 S5000 M3
N2695 G17 G90 G94
N2700 G54
N2705 M8
N2710 G0 X-45.92 Y-24.833
N2715 G43 Z15. H3
N2720 T2
N2725 G0 Z4.
N2730 G1 Z-1. F333.33
N2735 X-45.901 Y-24.836 Z-1.007 F1200.
N2740 X-45.804 Y-24.849 Z-1.037
N2745 X-45.793 Y-24.85 Z-1.04
N2750 X-45.701 Y-24.875
N2755 X-45.46 Y-24.931
N2760 X-45.186 Y-24.98
N2765 X-44.887 Y-25.021
N2770 X-44.57 Y-25.052
N2775 X-44.257 Y-25.072
N2780 X-43.972 Y-25.083
N2785 X-43.72 Y-25.086
N2790 X-43.611 Y-25.085
N2795 X-43.512 Y-25.081
N2800 X-43.425 Y-25.076
N2805 X-43.353 Y-25.069
N2810 X-43.315 Y-25.064
N2815 X-43.302 Y-25.084 Z-1.001
N2820 X-43.315 Y-25.064 Z-1.04
N2825 X-43.29 Y-25.032
N2830 X-43.272 Y-25.014
N2835 X-43.242 Y-24.988
N2840 X-43.207 Y-24.968
N2845 X-43.171 Y-24.951
N2850 X-43.139 Y-24.939
N2855 X-43.085 Y-24.923
N2860 X-43.067 Y-24.919
N2865 X-42.997 Y-24.904
N2870 X-42.985 Y-24.902
N2875 X-42.899 Y-24.889
N2880 X-42.891 Y-24.888
N2885 X-42.789 Y-24.876
N2890 X-42.783 Y-24.875
N2895 X-42.667 Y-24.865
N2900 X-42.662
N2905 X-42.533 Y-24.856
N2910 X-42.53
N2915 X-42.388 Y-24.849
N2920 X-42.385
N2925 X-42.232 Y-24.843
N2930 X-42.229
N2935 X-42.067 Y-24.84
N2940 X-42.062
N2945 X-41.71 Y-24.839
N2950 X-41.705
N2955 X-41.322 Y-24.847
N2960 X-41.321
N2965 X-40.842 Y-24.859
N2970 X-40.377 Y-24.869
N2975 X-39.896 Y-24.878
N2980 X-39.641 Y-24.881
N2985 X-39.371 Y-24.884
N2990 X-39.081 Y-24.886
N2995 X-38.769 Y-24.888
N3000 X-38.431 Y-24.889
N3005 X-38.063 Y-24.89
N3010 X-37.661
N3015 X-37.222 Y-24.889
N3020 X-36.987 Y-24.888
N3025 X-36.741
N3030 X-36.484 Y-24.887
N3035 X-36.216 Y-24.886
N3040 X-35.935 Y-24.884
N3045 X-35.642 Y-24.883
N3050 X-35.335 Y-24.881
N3055 X-35.015 Y-24.879
N3060 X-34.681 Y-24.877
N3065 X-34.333 Y-24.875
N3070 X-33.97 Y-24.873
N3075 X-33.591 Y-24.87
N3080 X-33.196 Y-24.867
N3085 X-32.785 Y-24.864
N3090 X-32.357 Y-24.861
N3095 X-31.912 Y-24.858
N3100 X-31.45 Y-24.854
N3105 X-30.969 Y-24.851
N3110 X-30.469 Y-24.847
N3115 X-29.95 Y-24.843
N3120 X-29.412 Y-24.838
N3125 X-28.854 Y-24.834
N3130 X-28.275 Y-24.829
N3135 X-27.675 Y-24.824
N3140 X-27.054 Y-24.818
N3145 X-26.411 Y-24.813
N3150 X-25.745 Y-24.807
N3155 X-25.057 Y-24.801
N3160 X-24.345 Y-24.795
N3165 X-23.61 Y-24.789
N3170 X-22.85 Y-24.782
N3175 X-22.066 Y-24.775
N3180 X-21.256 Y-24.768
N3185 X-20.421 Y-24.761
N3190 X-19.56 Y-24.753
N3195 X-18.672 Y-24.745
N3200 X-17.782 Y-24.736
N3205 X-16.864 Y-24.726
N3210 X-15.921 Y-24.717
N3215 X-14.954 Y-24.707
N3220 X-13.966 Y-24.698
N3225 X-12.958 Y-24.689
N3230 X-11.933 Y-24.679
N3235 X-10.892 Y-24.67
N3240 X-9.839 Y-24.661
N3245 X-8.774 Y-24.652
N3250 X-6.706 Y-24.635
N3255 X-6.619 Y-24.641 Z-1.028
N3260 X-6.394 Y-24.654 Z-1.003
N3265 X-6.352 Y-24.655 Z-1.
N3270 X-6.394 Y-24.654 Z-1.003
N3275 X-6.619 Y-24.641 Z-1.028
N3280 X-6.706 Y-24.635 Z-1.04
N3285 X-6.711 Y-24.634
N3290 X-6.839 Y-24.61
N3295 X-6.85 Y-24.608
N3300 X-6.964 Y-24.581
N3305 X-6.977 Y-24.577
N3310 X-7.076 Y-24.547
N3315 X-7.093 Y-24.541
N3320 X-7.178 Y-24.508
N3325 X-7.2 Y-24.498
N3330 X-7.269 Y-24.461
N3335 X-7.297 Y-24.444
N3340 X-7.352 Y-24.404
N3345 X-7.385 Y-24.374
N3350 X-7.424 Y-24.331
N3355 X-7.458 Y-24.282
N3360 X-7.481 Y-24.236
N3365 X-7.496 Y-24.2
N3370 X-7.477 Y-24.182 Z-1.
N3375 X-7.496 Y-24.2 Z-1.04
N3380 X-7.524 Y-24.191
N3385 X-7.592 Y-24.176
N3390 X-7.679 Y-24.161
N3395 X-7.784 Y-24.147
N3400 X-7.908 Y-24.134
N3405 X-8.05 Y-24.122
N3410 X-8.21 Y-24.111
N3415 X-8.389 Y-24.101
N3420 X-8.586 Y-24.092
N3425 X-8.803 Y-24.085
N3430 X-9.039 Y-24.079
N3435 X-9.294 Y-24.075
N3440 X-9.569 Y-24.071
N3445 X-9.865 Y-24.069
N3450 X-10.182
N3455 X-10.519
N3460 X-10.878 Y-24.071
N3465 X-11.259 Y-24.074
N3470 X-11.663 Y-24.078
N3475 X-12.088 Y-24.084
N3480 X-12.537 Y-24.091
N3485 X-13.009 Y-24.099
N3490 X-13.505 Y-24.108
N3495 X-14.025 Y-24.118
N3500 X-14.57 Y-24.13
N3505 X-15.139 Y-24.143
N3510 X-15.734 Y-24.157
N3515 X-16.355 Y-24.172
N3520 X-16.356
N3525 X-16.838 Y-24.182
N3530 X-17.342 Y-24.193
N3535 X-17.866 Y-24.204
N3540 X-18.409 Y-24.215
N3545 X-18.969 Y-24.227
N3550 X-19.546 Y-24.239
N3555 X-20.138 Y-24.252
N3560 X-20.744 Y-24.265
N3565 X-21.363 Y-24.278
N3570 X-21.993 Y-24.292
N3575 X-23.281 Y-24.319
N3580 X-24.6 Y-24.348
N3585 X-25.939 Y-24.376
N3590 X-28.636 Y-24.433
N3595 X-29.975 Y-24.461
N3600 X-31.293 Y-24.488
N3605 X-32.58 Y-24.513
N3610 X-33.21 Y-24.526
N3615 X-33.828 Y-24.537
N3620 X-34.433 Y-24.549
N3625 X-35.024 Y-24.56
N3630 X-35.6 Y-24.57
N3635 X-36.16 Y-24.58
N3640 X-37.249 Y-24.6
N3645 X-38.309 Y-24.621
N3650 X-39.335 Y-24.644
N3655 X-39.834 Y-24.655
N3660 X-40.321 Y-24.667
N3665 X-40.798 Y-24.679
N3670 X-41.262 Y-24.691
N3675 X-41.714 Y-24.704
N3680 X-42.152 Y-24.716
N3685 X-42.576 Y-24.729
N3690 X-42.985 Y-24.741
N3695 X-43.379 Y-24.754
N3700 X-43.756 Y-24.767
N3705 X-44.117 Y-24.78
N3710 X-44.46 Y-24.792
N3715 X-44.784 Y-24.805
N3720 X-45.09 Y-24.817
N3725 X-45.375 Y-24.83
N3730 X-45.64 Y-24.842
N3735 X-45.793 Y-24.85
N3740 G0 Z5.
N3745 X-9.797 Y-14.344
N3750 Z4.
N3755 G1 Z-1.015 F333.33
N3760 X-9.793 Y-14.346 Z-1.022 F1200.
N3765 X-9.783 Y-14.351 Z-1.04
N3770 X-9.782 Y-14.354
N3775 X-9.778 Y-14.369
N3780 X-9.77 Y-14.383
N3785 X-9.761 Y-14.394
N3790 X-9.749 Y-14.404
N3795 X-9.735 Y-14.411
N3800 X-9.72 Y-14.416
N3805 X-9.68 Y-14.42
N3810 X-9.671 Y-14.421
N3815 X-9.585 Y-14.434
N3820 X-9.548 Y-14.442
N3825 X-9.513 Y-14.457
N3830 X-9.446 Y-14.492
N3835 X-9.412 Y-14.514
N3840 X-9.382 Y-14.541
N3845 X-9.332 Y-14.597
N3850 X-9.311 Y-14.624
N3855 X-9.295 Y-14.655
N3860 X-9.262 Y-14.728
N3865 X-9.246 Y-14.779
N3870 X-9.23 Y-14.868
N3875 X-9.226 Y-14.906
N3880 X-9.225 Y-15.009
N3885 X-9.227 Y-15.038
N3890 X-9.241 Y-15.151
N3895 X-9.245 Y-15.175
N3900 X-9.273 Y-15.296
N3905 X-9.278 Y-15.315
N3910 X-9.32 Y-15.441
N3915 X-9.326 Y-15.458
N3920 X-9.381 Y-15.588
N3925 X-9.388 Y-15.603
N3930 X-9.454 Y-15.733
N3935 X-9.462 Y-15.747
N3940 X-9.541 Y-15.876
N3945 X-9.55 Y-15.89
N3950 X-9.639 Y-16.014
N3955 X-9.65 Y-16.028
N3960 X-9.748 Y-16.145
N3965 X-9.762 Y-16.159
N3970 X-9.87 Y-16.267
N3975 X-9.886 Y-16.281
N3980 X-10.003 Y-16.377
N3985 X-10.015 Y-16.387
N3990 X-10.107 Y-16.451
N3995 X-10.178 Y-16.506
N4000 X-10.229 Y-16.552
N4005 X-10.26 Y-16.585
N4010 X-10.272 Y-16.604
N4015 X-10.273 Y-16.607
N4020 X-10.27 Y-16.619
N4025 X-10.256 Y-16.653
N4030 X-10.222 Y-16.706
N4035 X-10.165 Y-16.777
N4040 X-10.087 Y-16.863
N4045 X-9.987 Y-16.964
N4050 X-9.864 Y-17.081
N4055 X-9.72 Y-17.214
N4060 X-9.597 Y-17.324
N4065 X-9.558 Y-17.375 Z-1.019
N4070 X-9.517 Y-17.429 Z-1.
N4075 X-9.558 Y-17.375 Z-1.019
N4080 X-9.597 Y-17.324 Z-1.04
N4085 X-9.604 Y-17.307
N4090 X-9.638 Y-17.212
N4095 X-9.648 Y-17.176
N4100 X-9.664 Y-17.088
N4105 X-9.667 Y-17.036
N4110 X-9.663 Y-16.957
N4115 X-9.658 Y-16.921
N4120 X-9.648 Y-16.887
N4125 X-9.621 Y-16.82
N4130 X-9.601 Y-16.781
N4135 X-9.574 Y-16.747
N4140 X-9.523 Y-16.695
N4145 X-9.488 Y-16.665
N4150 X-9.44 Y-16.633
N4155 X-9.418 Y-16.608
N4160 X-9.397 Y-16.571
N4165 X-9.38 Y-16.524
N4170 X-9.371 Y-16.468
N4175 Y-16.408
N4180 X-9.38 Y-16.349
N4185 X-9.405 Y-16.274
N4190 X-9.408 Y-16.265
N4195 X-9.437 Y-16.162
N4200 X-9.444 Y-16.124
N4205 X-9.454 Y-16.019
N4210 X-9.455 Y-15.982
N4215 X-9.448 Y-15.878
N4220 X-9.442 Y-15.842
N4225 X-9.419 Y-15.742
N4230 X-9.408 Y-15.708
N4235 X-9.368 Y-15.612
N4240 X-9.352 Y-15.58
N4245 X-9.297 Y-15.491
N4250 X-9.276 Y-15.462
N4255 X-9.207 Y-15.382
N4260 X-9.182 Y-15.357
N4265 X-9.099 Y-15.287
N4270 X-9.055 Y-15.258
N4275 X-8.953 Y-15.207
N4280 X-8.923 Y-15.194
N4285 X-8.845 Y-15.169
N4290 X-8.802 Y-15.159
N4295 X-8.775 Y-15.171 Z-1.017
N4300 X-8.754 Y-15.181 Z-1.
N4305 X-8.775 Y-15.171 Z-1.017
N4310 X-8.802 Y-15.159 Z-1.04
N4315 X-8.812 Y-15.145
N4320 X-8.874 Y-15.049
N4325 X-8.884 Y-15.031
N4330 X-8.935 Y-14.934
N4335 X-8.945 Y-14.911
N4340 X-8.982 Y-14.815
N4345 X-8.991 Y-14.785
N4350 X-9.013 Y-14.692
N4355 X-9.019 Y-14.652
N4360 X-9.023 Y-14.564
N4365 X-9.02 Y-14.512
N4370 X-9.005 Y-14.431
N4375 X-9. Y-14.411
N4380 X-8.996 Y-14.399
N4385 X-8.971 Y-14.391 Z-1.001
N4390 X-8.996 Y-14.399 Z-1.04
N4395 X-9.01 Y-14.387
N4400 X-9.062 Y-14.357
N4405 X-9.139 Y-14.327
N4410 X-9.237 Y-14.303
N4415 X-9.35 Y-14.287
N4420 X-9.465 Y-14.282
N4425 X-9.57 Y-14.286
N4430 X-9.659 Y-14.3
N4435 X-9.728 Y-14.32
N4440 X-9.771 Y-14.341
N4445 X-9.783 Y-14.351
N4450 G0 Z5.
N4455 X-8.6 Y-16.14
N4460 Z4.
N4465 G1 Z-1.001 F333.33
N4470 X-8.595 Y-16.135 Z-1.011 F1200.
N4475 X-8.58 Y-16.12 Z-1.04
N4480 X-8.526 Y-16.124
N4485 X-8.479 Y-16.134
N4490 X-8.422 Y-16.152
N4495 X-8.393 Y-16.163
N4500 X-8.365 Y-16.179
N4505 X-8.323 Y-16.207
N4510 X-8.292 Y-16.232
N4515 X-8.266 Y-16.262
N4520 X-8.24 Y-16.299
N4525 X-8.218 Y-16.336
N4530 X-8.203 Y-16.377
N4535 X-8.192 Y-16.422
N4540 X-8.187 Y-16.46
N4545 Y-16.499
N4550 X-8.193 Y-16.551
N4555 X-8.199 Y-16.581
N4560 X-8.208 Y-16.61
N4565 X-8.231 Y-16.668
N4570 X-8.253 Y-16.709
N4575 X-8.286 Y-16.759
N4580 X-8.329 Y-16.844
N4585 X-8.349 Y-16.906
N4590 X-8.351 Y-16.922
N4595 X-8.371 Y-16.937 Z-1.007
N4600 X-8.374 Y-16.94 Z-1.001
N4605 X-8.371 Y-16.937 Z-1.007
N4610 X-8.351 Y-16.922 Z-1.04
N4615 X-8.338 Y-16.923
N4620 X-8.29 Y-16.921
N4625 X-8.226 Y-16.908
N4630 X-8.15 Y-16.881
N4635 X-8.065 Y-16.841
N4640 X-7.975 Y-16.787
N4645 X-7.882 Y-16.718
N4650 X-7.79 Y-16.634
N4655 X-7.698 Y-16.535
N4660 X-7.584 Y-16.392
N4665 X-7.504 Y-16.273
N4670 X-7.457 Y-16.182
N4675 X-7.441 Y-16.128
N4680 Y-16.125
N4685 X-7.433 Y-16.119 Z-1.026
N4690 X-7.419 Y-16.114 Z-1.001
N4695 X-7.433 Y-16.119 Z-1.026
N4700 X-7.441 Y-16.125 Z-1.04
N4705 X-7.487 Y-16.101
N4710 X-7.578 Y-16.063
N4715 X-7.625 Y-16.036
N4720 X-7.692 Y-15.986
N4725 X-7.724 Y-15.957
N4730 X-7.75 Y-15.922
N4735 X-7.786 Y-15.862
N4740 X-7.808 Y-15.815
N4745 X-7.818 Y-15.764
N4750 X-7.823 Y-15.691
N4755 X-7.824 Y-15.673
N4760 X-7.797 Y-15.635 Z-1.001
N4765 X-7.824 Y-15.673 Z-1.04
N4770 X-7.851 Y-15.68
N4775 X-7.922 Y-15.695
N4780 X-7.953 Y-15.7
N4785 X-7.985
N4790 X-8.064 Y-15.694
N4795 X-8.11 Y-15.685
N4800 X-8.194 Y-15.661
N4805 X-8.227 Y-15.648
N4810 X-8.314 Y-15.607
N4815 X-8.338 Y-15.593
N4820 X-8.425 Y-15.537
N4825 X-8.444 Y-15.524
N4830 X-8.457 Y-15.514
N4835 X-8.477 Y-15.469 Z-1.
N4840 X-8.457 Y-15.514 Z-1.04
N4845 X-8.461 Y-15.555
N4850 X-8.467 Y-15.588
N4855 X-8.492 Y-15.69
N4860 X-8.497 Y-15.707
N4865 X-8.537 Y-15.827
N4870 X-8.565 Y-15.932
N4875 X-8.58 Y-16.021
N4880 X-8.583 Y-16.089
N4885 X-8.58 Y-16.12
N4890 G0 Z5.
N4895 X-8.942 Y-18.037
N4900 Z4.
N4905 G1 Z-1. F333.33
N4910 X-8.908 Y-18.068 Z-1.013 F1200.
N4915 X-8.858 Y-18.116 Z-1.04
N4920 X-8.811 Y-18.143
N4925 X-8.789 Y-18.154
N4930 X-8.68 Y-18.202
N4935 X-8.651 Y-18.212
N4940 X-8.543 Y-18.243
N4945 X-8.505 Y-18.25
N4950 X-8.4 Y-18.261
N4955 X-8.361
N4960 X-8.325 Y-18.259
N4965 X-8.303 Y-18.256
N4970 X-8.257 Y-18.248
N4975 X-8.238 Y-18.244
N4980 X-8.12 Y-18.213
N4985 X-8.107 Y-18.21
N4990 X-7.96 Y-18.161
N4995 X-7.951 Y-18.158
N5000 X-7.782 Y-18.095
N5005 X-7.775 Y-18.092
N5010 X-7.59 Y-18.016
N5015 X-7.584 Y-18.014
N5020 X-7.389 Y-17.928
N5025 X-7.381 Y-17.924
N5030 X-6.988 Y-17.73
N5035 X-6.75 Y-17.613
N5040 X-6.527 Y-17.515
N5045 X-6.315 Y-17.434
N5050 X-6.113 Y-17.37
N5055 X-5.919 Y-17.322
N5060 X-5.732 Y-17.291
N5065 X-5.55 Y-17.276
N5070 X-5.37 Y-17.277
N5075 X-5.19 Y-17.293
N5080 X-5.008 Y-17.326
N5085 X-4.822 Y-17.375
N5090 X-4.63 Y-17.442
N5095 X-4.431 Y-17.526
N5100 X-4.223 Y-17.628
N5105 X-4.005 Y-17.749
N5110 X-3.775 Y-17.888
N5115 X-3.56 Y-18.03
N5120 X-3.364 Y-18.186
N5125 X-3.184 Y-18.358
N5130 X-3.02 Y-18.545
N5135 X-2.873 Y-18.746
N5140 X-2.742 Y-18.96
N5145 X-2.629 Y-19.186
N5150 X-2.533 Y-19.422
N5155 X-2.456 Y-19.668
N5160 X-2.398 Y-19.921
N5165 X-2.36 Y-20.182
N5170 X-2.341 Y-20.448
N5175 X-2.343 Y-20.719
N5180 X-2.367 Y-20.992
N5185 X-2.411 Y-21.268
N5190 X-2.479 Y-21.547
N5195 X-2.558 Y-21.81
N5200 X-2.651 Y-22.051
N5205 X-2.756 Y-22.272
N5210 X-2.875 Y-22.473
N5215 X-3.007 Y-22.655
N5220 X-3.153 Y-22.819
N5225 X-3.314 Y-22.966
N5230 X-3.491 Y-23.097
N5235 X-3.685 Y-23.212
N5240 X-3.897 Y-23.312
N5245 X-4.128 Y-23.397
N5250 X-4.379 Y-23.466
N5255 X-4.65 Y-23.52
N5260 X-4.943 Y-23.559
N5265 X-5.257 Y-23.583
N5270 X-5.594 Y-23.59
N5275 X-5.844 Y-23.589
N5280 X-6.071 Y-23.583
N5285 X-6.274 Y-23.572
N5290 X-6.457 Y-23.556
N5295 X-6.621 Y-23.533
N5300 X-6.767 Y-23.503
N5305 X-6.9 Y-23.466
N5310 X-7.021 Y-23.421
N5315 X-7.135 Y-23.367
N5320 X-7.245 Y-23.301
N5325 X-7.354 Y-23.224
N5330 X-7.465 Y-23.131
N5335 X-7.58 Y-23.022
N5340 X-7.7 Y-22.895
N5345 X-7.829 Y-22.75
N5350 X-7.969 Y-22.583
N5355 X-8.112 Y-22.413
N5360 X-8.237 Y-22.258
N5365 X-8.345 Y-22.115
N5370 X-8.437 Y-21.981
N5375 X-8.514 Y-21.854
N5380 X-8.577 Y-21.732
N5385 X-8.628 Y-21.612
N5390 X-8.668 Y-21.49
N5395 X-8.698 Y-21.363
N5400 X-8.719 Y-21.228
N5405 X-8.73 Y-21.08
N5410 X-8.734 Y-20.917
N5415 X-8.728 Y-20.737
N5420 X-8.715 Y-20.537
N5425 X-8.694 Y-20.315
N5430 X-8.666 Y-20.068
N5435 X-8.637 Y-19.808
N5440 X-8.636 Y-19.805
N5445 X-8.614 Y-19.572
N5450 X-8.613 Y-19.567
N5455 X-8.598 Y-19.358
N5460 Y-19.35
N5465 X-8.591 Y-19.162
N5470 Y-19.15
N5475 X-8.593 Y-18.981
N5480 X-8.594 Y-18.966
N5485 X-8.606 Y-18.812
N5490 X-8.609 Y-18.793
N5495 X-8.632 Y-18.652
N5500 X-8.637 Y-18.631
N5505 X-8.672 Y-18.499
N5510 X-8.679 Y-18.477
N5515 X-8.727 Y-18.352
N5520 X-8.737 Y-18.331
N5525 X-8.798 Y-18.211
N5530 X-8.809 Y-18.192
N5535 X-8.858 Y-18.116
N5540 G0 Z5.
N5545 X-5.539 Y-22.338
N5550 Z4.
N5555 G1 Z-1. F333.33
N5560 X-5.552 Y-22.334 Z-1.001 F1200.
N5565 X-5.691 Y-22.277 Z-1.028
N5570 X-5.767 Y-22.243 Z-1.04
N5575 X-5.851 Y-22.213
N5580 X-6.009 Y-22.146
N5585 X-6.159 Y-22.072
N5590 X-6.302 Y-21.99
N5595 X-6.435 Y-21.902
N5600 X-6.557 Y-21.81
N5605 X-6.664 Y-21.713
N5610 X-6.758 Y-21.614
N5615 X-6.834 Y-21.514
N5620 X-6.913 Y-21.383
N5625 X-6.976 Y-21.24
N5630 X-7.025 Y-21.087
N5635 X-7.059 Y-20.924
N5640 X-7.078 Y-20.754
N5645 X-7.083 Y-20.581
N5650 X-7.073 Y-20.407
N5655 X-7.05 Y-20.235
N5660 X-7.013 Y-20.068
N5665 X-6.964 Y-19.908
N5670 X-6.903 Y-19.759
N5675 X-6.832 Y-19.623
N5680 X-6.751 Y-19.503
N5685 X-6.664 Y-19.401
N5690 X-6.571 Y-19.319
N5695 X-6.465 Y-19.251
N5700 X-6.228 Y-19.127
N5705 X-5.998 Y-19.018
N5710 X-5.78 Y-18.928
N5715 X-5.573 Y-18.857
N5720 X-5.379 Y-18.802
N5725 X-5.197 Y-18.766
N5730 X-5.026 Y-18.746
N5735 X-4.868 Y-18.742
N5740 X-4.722 Y-18.754
N5745 X-4.587 Y-18.78
N5750 X-4.462 Y-18.821
N5755 X-4.345 Y-18.876
N5760 X-4.235 Y-18.946
N5765 X-4.132 Y-19.032
N5770 X-4.034 Y-19.134
N5775 X-3.936 Y-19.26
N5780 X-3.859 Y-19.365
N5785 X-3.857 Y-19.368
N5790 X-3.786 Y-19.463
N5795 X-3.783 Y-19.466
N5800 X-3.719 Y-19.548
N5805 X-3.715 Y-19.553
N5810 X-3.658 Y-19.621
N5815 X-3.652 Y-19.628
N5820 X-3.601 Y-19.684
N5825 X-3.591 Y-19.694
N5830 X-3.546 Y-19.737
N5835 X-3.529 Y-19.752
N5840 X-3.491 Y-19.781
N5845 X-3.457 Y-19.803
N5850 X-3.425 Y-19.82
N5855 X-3.393 Y-19.834
N5860 X-3.36 Y-19.842
N5865 X-3.333 Y-19.847
N5870 X-3.279 Y-19.85
N5875 X-3.226 Y-19.841
N5880 X-3.203 Y-19.833
N5885 X-3.152 Y-19.81
N5890 X-3.109 Y-19.775
N5895 X-3.091 Y-19.756
N5900 X-3.067 Y-19.727
N5905 X-3.049 Y-19.694
N5910 X-3.035 Y-19.663
N5915 X-3.021 Y-19.623
N5920 X-3.01 Y-19.581
N5925 X-3.006 Y-19.556
N5930 X-2.999 Y-19.502
N5935 X-2.997 Y-19.486
N5940 X-2.993 Y-19.42
N5945 Y-19.411
N5950 X-2.992 Y-19.333
N5955 Y-19.308
N5960 X-3.005 Y-19.18
N5965 X-3.012 Y-19.143
N5970 X-3.046 Y-19.014
N5975 X-3.057 Y-18.984
N5980 X-3.112 Y-18.857
N5985 X-3.125 Y-18.832
N5990 X-3.197 Y-18.711
N5995 X-3.211 Y-18.689
N6000 X-3.298 Y-18.576
N6005 X-3.313 Y-18.557
N6010 X-3.411 Y-18.455
N6015 X-3.43 Y-18.437
N6020 X-3.536 Y-18.348
N6025 X-3.558 Y-18.332
N6030 X-3.671 Y-18.259
N6035 X-3.7 Y-18.243
N6040 X-4.043 Y-18.088
N6045 X-4.061 Y-18.08
N6050 X-4.411 Y-17.956
N6055 X-4.429 Y-17.951
N6060 X-4.784 Y-17.858
N6065 X-4.802 Y-17.854
N6070 X-5.157 Y-17.792
N6075 X-5.175 Y-17.789
N6080 X-5.526 Y-17.756
N6085 X-5.544 Y-17.755
N6090 X-5.888 Y-17.751
N6095 X-5.907
N6100 X-6.238 Y-17.774
N6105 X-6.258 Y-17.777
N6110 X-6.574 Y-17.827
N6115 X-6.595 Y-17.831
N6120 X-6.892 Y-17.908
N6125 X-6.914 Y-17.915
N6130 X-7.188 Y-18.017
N6135 X-7.212 Y-18.028
N6140 X-7.458 Y-18.155
N6145 X-7.477 Y-18.166
N6150 X-7.589 Y-18.239
N6155 X-7.602 Y-18.248
N6160 X-7.705 Y-18.326
N6165 X-7.719 Y-18.337
N6170 X-7.813 Y-18.421
N6175 X-7.827 Y-18.434
N6180 X-7.912 Y-18.524
N6185 X-7.925 Y-18.539
N6190 X-8. Y-18.635
N6195 X-8.013 Y-18.652
N6200 X-8.078 Y-18.753
N6205 X-8.089 Y-18.772
N6210 X-8.143 Y-18.878
N6215 X-8.153 Y-18.9
N6220 X-8.196 Y-19.011
N6225 X-8.203 Y-19.034
N6230 X-8.235 Y-19.15
N6235 X-8.239 Y-19.174
N6240 X-8.258 Y-19.295
N6245 X-8.261 Y-19.315
N6250 X-8.277 Y-19.576
N6255 X-8.278 Y-19.586
N6260 X-8.283 Y-19.839
N6265 Y-19.849
N6270 X-8.278 Y-20.095
N6275 Y-20.105
N6280 X-8.262 Y-20.343
N6285 X-8.261 Y-20.353
N6290 X-8.235 Y-20.584
N6295 X-8.233 Y-20.594
N6300 X-8.197 Y-20.816
N6305 X-8.195 Y-20.827
N6310 X-8.15 Y-21.041
N6315 X-8.147 Y-21.052
N6320 X-8.092 Y-21.257
N6325 X-8.088 Y-21.268
N6330 X-8.024 Y-21.464
N6335 X-8.019 Y-21.476
N6340 X-7.946 Y-21.662
N6345 X-7.941 Y-21.674
N6350 X-7.858 Y-21.851
N6355 X-7.852 Y-21.863
N6360 X-7.762 Y-22.029
N6365 X-7.754 Y-22.042
N6370 X-7.656 Y-22.198
N6375 X-7.647 Y-22.211
N6380 X-7.541 Y-22.357
N6385 X-7.531 Y-22.369
N6390 X-7.417 Y-22.504
N6395 X-7.406 Y-22.516
N6400 X-7.285 Y-22.64
N6405 X-7.273 Y-22.652
N6410 X-7.144 Y-22.765
N6415 X-7.13 Y-22.776
N6420 X-6.995 Y-22.877
N6425 X-6.981 Y-22.887
N6430 X-6.839 Y-22.977
N6435 X-6.823 Y-22.986
N6440 X-6.675 Y-23.064
N6445 X-6.659 Y-23.072
N6450 X-6.505 Y-23.137
N6455 X-6.487 Y-23.143
N6460 X-6.328 Y-23.196
N6465 X-6.31 Y-23.201
N6470 X-6.145 Y-23.241
N6475 X-6.127 Y-23.245
N6480 X-5.956 Y-23.271
N6485 X-5.939 Y-23.273
N6490 X-5.764 Y-23.287
N6495 X-5.746
N6500 X-5.566
N6505 X-5.549 Y-23.286
N6510 X-5.365 Y-23.272
N6515 X-5.349 Y-23.27
N6520 X-5.16 Y-23.242
N6525 X-5.145 Y-23.239
N6530 X-4.953 Y-23.196
N6535 X-4.938 Y-23.193
N6540 X-4.742 Y-23.135
N6545 X-4.729 Y-23.131
N6550 X-4.529 Y-23.058
N6555 X-4.517 Y-23.053
N6560 X-4.315 Y-22.965
N6565 X-4.312 Y-22.964
N6570 X-4.205 Y-22.916
N6575 X-4.202 Y-22.915
N6580 X-4.11 Y-22.872
N6585 X-4.107 Y-22.87
N6590 X-4.03 Y-22.833
N6595 X-4.024 Y-22.83
N6600 X-3.963 Y-22.798
N6605 X-3.954 Y-22.793
N6610 X-3.908 Y-22.766
N6615 X-3.891 Y-22.755
N6620 X-3.86 Y-22.733
N6625 X-3.825 Y-22.702
N6630 X-3.809 Y-22.685
N6635 X-3.777 Y-22.639
N6640 X-3.757 Y-22.586
N6645 X-3.751 Y-22.531
N6650 X-3.752 Y-22.519
N6655 X-3.758 Y-22.469
N6660 X-3.775 Y-22.422
N6665 X-3.803 Y-22.38
N6670 X-3.839 Y-22.346
N6675 X-3.882 Y-22.32
N6680 X-3.897 Y-22.313
N6685 X-3.934 Y-22.3
N6690 X-3.973 Y-22.293
N6695 X-4.004 Y-22.291
N6700 X-4.032 Y-22.29
N6705 X-4.079 Y-22.292
N6710 X-4.092 Y-22.293
N6715 X-4.155 Y-22.3
N6720 X-4.162 Y-22.301
N6725 X-4.24 Y-22.312
N6730 X-4.245
N6735 X-4.339 Y-22.328
N6740 X-4.342
N6745 X-4.452 Y-22.348
N6750 X-4.455
N6755 X-4.576 Y-22.371
N6760 X-4.702 Y-22.389
N6765 X-4.74 Y-22.399 Z-1.031
N6770 X-4.875 Y-22.42 Z-1.008
N6775 X-4.909 Y-22.424 Z-1.
N6780 X-4.875 Y-22.42 Z-1.008
N6785 X-4.74 Y-22.399 Z-1.031
N6790 X-4.702 Y-22.389 Z-1.04
N6795 X-4.556 Y-22.329
N6800 X-4.539 Y-22.322
N6805 X-4.44 Y-22.271
N6810 X-4.432 Y-22.267
N6815 X-4.336 Y-22.212
N6820 X-4.048 Y-22.08
N6825 X-3.915 Y-22.027
N6830 X-3.791 Y-21.984
N6835 X-3.684 Y-21.952
N6840 X-3.598 Y-21.933
N6845 X-3.546 Y-21.927
N6850 X-3.506 Y-21.93
N6855 X-3.475 Y-21.933
N6860 X-3.425 Y-21.932
N6865 X-3.376 Y-21.919
N6870 X-3.35 Y-21.91
N6875 X-3.304 Y-21.886
N6880 X-3.264 Y-21.851
N6885 X-3.245 Y-21.83
N6890 X-3.222 Y-21.8
N6895 X-3.204 Y-21.766
N6900 X-3.19 Y-21.733
N6905 X-3.177 Y-21.689
N6910 X-3.169 Y-21.646
N6915 X-3.165 Y-21.617
N6920 X-3.162 Y-21.564
N6925 Y-21.537
N6930 X-3.171 Y-21.407
N6935 X-3.174 Y-21.385
N6940 X-3.201 Y-21.226
N6945 X-3.204 Y-21.212
N6950 X-3.246 Y-21.03
N6955 X-3.249 Y-21.02
N6960 X-3.305 Y-20.821
N6965 X-3.308 Y-20.813
N6970 X-3.376 Y-20.603
N6975 X-3.38 Y-20.592
N6980 X-3.543 Y-20.164
N6985 X-3.547 Y-20.154
N6990 X-3.637 Y-19.947
N6995 X-3.641 Y-19.94
N7000 X-3.735 Y-19.747
N7005 X-3.74 Y-19.737
N7010 X-3.835 Y-19.564
N7015 X-3.842 Y-19.551
N7020 X-3.936 Y-19.404
N7025 X-3.949 Y-19.386
N7030 X-4.04 Y-19.27
N7035 X-4.057 Y-19.251
N7040 X-4.101 Y-19.207
N7045 X-4.119 Y-19.19
N7050 X-4.162 Y-19.156
N7055 X-4.193 Y-19.135
N7060 X-4.358 Y-19.043
N7065 X-4.376 Y-19.034
N7070 X-4.539 Y-18.962
N7075 X-4.559 Y-18.955
N7080 X-4.719 Y-18.902
N7085 X-4.741 Y-18.896
N7090 X-4.898 Y-18.862
N7095 X-4.921 Y-18.858
N7100 X-5.074 Y-18.841
N7105 X-5.098 Y-18.84
N7110 X-5.246 Y-18.839
N7115 X-5.27 Y-18.841
N7120 X-5.414 Y-18.856
N7125 X-5.438 Y-18.859
N7130 X-5.577 Y-18.889
N7135 X-5.599 Y-18.895
N7140 X-5.732 Y-18.939
N7145 X-5.754 Y-18.947
N7150 X-5.88 Y-19.004
N7155 X-5.9 Y-19.014
N7160 X-6.019 Y-19.082
N7165 X-6.037 Y-19.094
N7170 X-6.149 Y-19.174
N7175 X-6.166 Y-19.187
N7180 X-6.27 Y-19.276
N7185 X-6.285 Y-19.291
N7190 X-6.38 Y-19.39
N7195 X-6.393 Y-19.405
N7200 X-6.48 Y-19.512
N7205 X-6.491 Y-19.528
N7210 X-6.568 Y-19.644
N7215 X-6.578 Y-19.66
N7220 X-6.644 Y-19.782
N7225 X-6.653 Y-19.8
N7230 X-6.709 Y-19.927
N7235 X-6.716 Y-19.945
N7240 X-6.76 Y-20.078
N7245 X-6.766 Y-20.097
N7250 X-6.799 Y-20.233
N7255 X-6.803 Y-20.253
N7260 X-6.823 Y-20.393
N7265 X-6.825 Y-20.413
N7270 X-6.833 Y-20.555
N7275 Y-20.576
N7280 X-6.827 Y-20.719
N7285 X-6.825 Y-20.74
N7290 X-6.806 Y-20.884
N7295 X-6.802 Y-20.905
N7300 X-6.768 Y-21.048
N7305 X-6.762 Y-21.069
N7310 X-6.713 Y-21.211
N7315 X-6.705 Y-21.232
N7320 X-6.64 Y-21.372
N7325 X-6.63 Y-21.391
N7330 X-6.549 Y-21.528
N7335 X-6.537 Y-21.546
N7340 X-6.44 Y-21.679
N7345 X-6.426 Y-21.696
N7350 X-6.312 Y-21.823
N7355 X-6.297 Y-21.838
N7360 X-6.165 Y-21.96
N7365 X-6.15 Y-21.973
N7370 X-6. Y-22.088
N7375 X-5.99 Y-22.095
N7380 X-5.886 Y-22.167
N7385 X-5.88 Y-22.171
N7390 X-5.781 Y-22.234
N7395 X-5.768 Y-22.242
N7400 X-5.767 Y-22.243
N7405 G0 Z5.
N7410 X-5.086 Y-20.15
N7415 Z4.
N7420 G1 Z-1.001 F333.33
N7425 X-5.089 Y-20.151 Z-1.004 F1200.
N7430 X-5.115 Y-20.166 Z-1.04
N7435 X-5.247 Y-20.141
N7440 X-5.503 Y-20.114
N7445 X-5.617 Y-20.109
N7450 X-5.723 Y-20.112
N7455 X-5.813 Y-20.12
N7460 X-5.88 Y-20.132
N7465 X-5.915 Y-20.144
N7470 X-5.922 Y-20.153
N7475 X-5.934 Y-20.188
N7480 X-5.942 Y-20.245
N7485 X-5.938 Y-20.321
N7490 X-5.921 Y-20.413
N7495 X-5.892 Y-20.513
N7500 X-5.849 Y-20.619
N7505 X-5.796 Y-20.725
N7510 X-5.733 Y-20.828
N7515 X-5.664 Y-20.925
N7520 X-5.589 Y-21.012
N7525 X-5.512 Y-21.085
N7530 X-5.436 Y-21.143
N7535 X-5.365 Y-21.183
N7540 X-5.304 Y-21.205
N7545 X-5.245 Y-21.212
N7550 X-5.121 Y-21.205
N7555 X-5.04 Y-21.188
N7560 X-5.002 Y-21.169
N7565 X-5.001 Y-21.17 Z-1.037
N7570 X-4.988 Y-21.188 Z-1.
N7575 X-5.001 Y-21.17 Z-1.037
N7580 X-5.002 Y-21.169 Z-1.04
N7585 X-4.999 Y-21.161
N7590 X-4.995 Y-21.143
N7595 X-4.992 Y-21.11
N7600 X-4.993 Y-21.064
N7605 X-5. Y-21.004
N7610 X-5.013 Y-20.932
N7615 X-5.033 Y-20.847
N7620 X-5.06 Y-20.748
N7625 X-5.062 Y-20.74
N7630 X-5.085 Y-20.643
N7635 X-5.086 Y-20.637
N7640 X-5.105 Y-20.551
N7645 X-5.106 Y-20.543
N7650 X-5.119 Y-20.466
N7655 X-5.121 Y-20.454
N7660 X-5.129 Y-20.387
N7665 X-5.13 Y-20.371
N7670 X-5.132 Y-20.314
N7675 Y-20.29
N7680 X-5.129 Y-20.242
N7685 X-5.124 Y-20.207
N7690 X-5.115 Y-20.168
N7695 Y-20.166
N7700 G0 Z5.
N7705 X-9.204 Y-9.184
N7710 Z4.
N7715 G1 Z-1. F333.33
N7720 X-9.164 Y-9.096 Z-1.012 F1200.
N7725 X-9.116 Y-8.998 Z-1.02
N7730 X-9.068 Y-8.906
N7735 X-9.039 Y-8.853 Z-1.014
N7740 X-9.011 Y-8.809 Z-1.003
N7745 X-9.006 Y-8.802 Z-1.
N7750 G0 Z5.
N7755 X-13.786 Y-3.551
N7760 Z4.
N7765 G1 Z-1. F333.33
N7770 X-13.343 Y-3.573 Z-1.016 F1200.
N7775 X-12.617 Y-3.602 Z-1.04
N7780 X-12.499 Y-3.609
N7785 X-12.054 Y-3.631
N7790 X-11.595 Y-3.651
N7795 X-10.686 Y-3.693
N7800 X-10.685
N7805 X-10.241 Y-3.715
N7810 X-10.24
N7815 X-9.807 Y-3.739
N7820 X-9.806
N7825 X-9.386 Y-3.764
N7830 X-9.385
N7835 X-8.981 Y-3.789
N7840 X-8.98 Y-3.79
N7845 X-8.594 Y-3.816
N7850 X-8.593
N7855 X-8.23 Y-3.843
N7860 X-8.228
N7865 X-7.889 Y-3.87
N7870 X-7.887
N7875 X-7.575 Y-3.898
N7880 X-7.573
N7885 X-7.29 Y-3.926
N7890 X-7.288
N7895 X-7.038 Y-3.953
N7900 X-7.034 Y-3.954
N7905 X-6.85 Y-3.977
N7910 X-6.814 Y-3.987 Z-1.031
N7915 X-6.719 Y-4.016 Z-1.006
N7920 X-6.701 Y-4.023 Z-1.
N7925 X-6.719 Y-4.016 Z-1.006
N7930 X-6.814 Y-3.987 Z-1.031
N7935 X-6.85 Y-3.977 Z-1.04
N7940 X-6.975 Y-3.93
N7945 X-7.129 Y-3.884
N7950 X-7.306 Y-3.841
N7955 X-7.506 Y-3.803
N7960 X-7.733 Y-3.768
N7965 X-7.986 Y-3.738
N7970 X-8.269 Y-3.711
N7975 X-8.582 Y-3.688
N7980 X-8.926 Y-3.669
N7985 X-9.305 Y-3.653
N7990 X-9.718 Y-3.639
N7995 X-10.168 Y-3.629
N8000 X-10.656 Y-3.622
N8005 X-11.393 Y-3.619
N8010 X-11.395
N8015 X-12.122 Y-3.611
N8020 X-12.123
N8025 X-12.475 Y-3.605
N8030 X-12.476
N8035 X-12.617 Y-3.602
N8040 G0 Z5.
N8045 X-10.856 Y-2.677
N8050 Z4.
N8055 G1 Z-1. F333.33
N8060 X-10.815 Y-2.679 Z-1.001 F1200.
N8065 X-10.759 Y-2.682
N8070 X-10.126 Y-2.715 Z-1.008
N8075 X-9.552 Y-2.75 Z-1.013
N8080 X-9.495 Y-2.754 Z-1.015
N8085 X-9.099 Y-2.783 Z-1.019
N8090 X-8.746 Y-2.807 Z-1.015
N8095 X-8.505 Y-2.823 Z-1.007
N8100 X-8.388 Y-2.831 Z-1.002
N8105 X-8.352 Y-2.833 Z-1.
N8110 G0 Z5.
N8115 X-29.766 Y1.316
N8120 Z4.
N8125 G1 Z-1. F333.33
N8130 X-29.745 Y1.306 Z-1.007 F1200.
N8135 X-29.707 Y1.282 Z-1.026
N8140 X-29.689 Y1.269 Z-1.04
N8145 X-29.667 Y1.22
N8150 X-29.657 Y1.168
N8155 X-29.487 Y-1.38
N8160 X-29.33 Y-3.734
N8165 X-29.352 Y-3.756 Z-1.
N8170 X-29.33 Y-3.734 Z-1.04
N8175 X-21.813 Y-4.297
N8180 X-21.425 Y-4.324
N8185 X-21.026 Y-4.352
N8190 X-20.198 Y-4.409
N8195 X-19.333 Y-4.467
N8200 X-18.434 Y-4.526
N8205 X-17.502 Y-4.587
N8210 X-16.542 Y-4.649
N8215 X-15.555 Y-4.711
N8220 X-14.543 Y-4.775
N8225 X-13.511 Y-4.839
N8230 X-12.46 Y-4.903
N8235 X-11.392 Y-4.968
N8240 X-10.312 Y-5.033
N8245 X-8.12 Y-5.162
N8250 X-5.906 Y-5.29
N8255 X-3.692 Y-5.416
N8260 X-1.497 Y-5.539
N8265 X-0.413 Y-5.598
N8270 X0.657 Y-5.656
N8275 X1.713 Y-5.713
N8280 X2.75 Y-5.768
N8285 X3.766 Y-5.821
N8290 X4.759 Y-5.873
N8295 X5.725 Y-5.922
N8300 X6.664 Y-5.969
N8305 X7.571 Y-6.013
N8310 X8.443 Y-6.055
N8315 X9.28 Y-6.095
N8320 X9.684 Y-6.113
N8325 X10.077 Y-6.131
N8330 X10.078
N8335 X10.448 Y-6.149
N8340 X10.801 Y-6.166
N8345 X11.137 Y-6.181
N8350 X11.457 Y-6.195
N8355 X11.761 Y-6.206
N8360 X12.049 Y-6.217
N8365 X12.323 Y-6.225
N8370 X12.583 Y-6.232
N8375 X12.828 Y-6.238
N8380 X13.06 Y-6.241
N8385 X13.279 Y-6.243
N8390 X13.485 Y-6.244
N8395 X13.679 Y-6.242
N8400 X13.862 Y-6.239
N8405 X14.032 Y-6.235
N8410 X14.192 Y-6.229
N8415 X14.481 Y-6.211
N8420 X14.731 Y-6.188
N8425 X14.945 Y-6.158
N8430 X15.128 Y-6.122
N8435 X15.282 Y-6.081
N8440 X15.412 Y-6.035
N8445 X15.508 Y-5.991
N8450 X15.569 Y-5.983 Z-1.001
N8455 X15.508 Y-5.991 Z-1.04
N8460 X15.399 Y-5.97
N8465 X15.231 Y-5.945
N8470 X15.026 Y-5.921
N8475 X14.784 Y-5.897
N8480 X14.501 Y-5.875
N8485 X14.346 Y-5.864
N8490 X14.179 Y-5.854
N8495 X14.002 Y-5.844
N8500 X13.813 Y-5.834
N8505 X13.614 Y-5.824
N8510 X13.403 Y-5.814
N8515 X13.181 Y-5.805
N8520 X12.947 Y-5.796
N8525 X12.701 Y-5.787
N8530 X12.442 Y-5.778
N8535 X12.171 Y-5.769
N8540 X11.887 Y-5.76
N8545 X11.591 Y-5.752
N8550 X11.281 Y-5.743
N8555 X10.957 Y-5.735
N8560 X10.62 Y-5.727
N8565 X10.269 Y-5.719
N8570 X9.903 Y-5.71
N8575 X9.523 Y-5.702
N8580 X9.129 Y-5.694
N8585 X8.719 Y-5.686
N8590 X8.295 Y-5.678
N8595 X7.855 Y-5.67
N8600 X7.399 Y-5.662
N8605 X6.927 Y-5.654
N8610 X6.44 Y-5.646
N8615 X5.935 Y-5.637
N8620 X5.415 Y-5.629
N8625 X4.877 Y-5.621
N8630 X4.322 Y-5.612
N8635 X3.75 Y-5.603
N8640 X3.16 Y-5.595
N8645 X2.553 Y-5.586
N8650 X1.927 Y-5.577
N8655 X1.283 Y-5.567
N8660 X0.621 Y-5.558
N8665 X0.618
N8670 X0.048 Y-5.544
N8675 X0.047 Y-5.543
N8680 X-0.223 Y-5.535
N8685 X-0.224
N8690 X-0.484 Y-5.526
N8695 X-0.485
N8700 X-0.731 Y-5.516
N8705 X-0.733
N8710 X-0.965 Y-5.505
N8715 X-0.967
N8720 X-1.184 Y-5.494
N8725 X-1.186 Y-5.493
N8730 X-1.386 Y-5.481
N8735 X-1.388
N8740 X-1.57 Y-5.468
N8745 X-1.573
N8750 X-1.735 Y-5.454
N8755 X-1.739 Y-5.453
N8760 X-1.88 Y-5.438
N8765 X-1.885
N8770 X-2.004 Y-5.422
N8775 X-2.013 Y-5.421
N8780 X-2.107 Y-5.405
N8785 X-2.123 Y-5.401
N8790 X-2.192 Y-5.384
N8795 X-2.225 Y-5.373
N8800 X-2.268 Y-5.355
N8805 X-2.313 Y-5.329
N8810 X-2.352 Y-5.293
N8815 X-2.339 Y-5.273 Z-1.
N8820 X-2.352 Y-5.293 Z-1.04
N8825 X-2.389 Y-5.283
N8830 X-2.456 Y-5.269
N8835 X-2.542 Y-5.254
N8840 X-2.644 Y-5.238
N8845 X-2.761 Y-5.223
N8850 X-2.892 Y-5.207
N8855 X-3.037 Y-5.192
N8860 X-3.194 Y-5.177
N8865 X-3.362 Y-5.162
N8870 X-3.542 Y-5.148
N8875 X-3.732 Y-5.134
N8880 X-4.141 Y-5.107
N8885 X-4.583 Y-5.083
N8890 X-5.053 Y-5.062
N8895 X-5.545 Y-5.044
N8900 X-6.055 Y-5.029
N8905 X-7.109 Y-5.012
N8910 X-8.173 Y-5.014
N8915 X-8.176
N8920 X-8.374 Y-5.013
N8925 X-8.376
N8930 X-8.599 Y-5.008
N8935 X-8.601
N8940 X-8.846 Y-5.
N8945 X-8.848
N8950 X-9.112 Y-4.99
N8955 X-9.114
N8960 X-9.396 Y-4.976
N8965 X-9.397
N8970 X-9.694 Y-4.96
N8975 X-9.695
N8980 X-10.004 Y-4.942
N8985 X-10.005
N8990 X-10.324 Y-4.921
N8995 X-10.326 Y-4.92
N9000 X-10.985 Y-4.871
N9005 X-10.987
N9010 X-11.656 Y-4.813
N9015 X-11.659
N9020 X-12.32 Y-4.747
N9025 X-12.323 Y-4.746
N9030 X-12.953 Y-4.673
N9035 X-13.283 Y-4.641
N9040 X-13.651 Y-4.607
N9045 X-14.053 Y-4.573
N9050 X-14.485 Y-4.537
N9055 X-14.943 Y-4.501
N9060 X-15.422 Y-4.465
N9065 X-15.919 Y-4.429
N9070 X-16.43 Y-4.394
N9075 X-17.479 Y-4.326
N9080 X-18.536 Y-4.264
N9085 X-19.569 Y-4.209
N9090 X-20.067 Y-4.186
N9095 X-20.548 Y-4.165
N9100 X-20.551
N9105 X-21.48 Y-4.113
N9110 X-21.481 Y-4.112
N9115 X-21.932 Y-4.085
N9120 X-21.933
N9125 X-22.371 Y-4.058
N9130 X-22.794 Y-4.031
N9135 Y-4.03
N9140 X-23.199 Y-4.003
N9145 X-23.583 Y-3.975
N9150 X-23.584
N9155 X-23.944 Y-3.948
N9160 X-23.945
N9165 X-24.278 Y-3.921
N9170 X-24.279
N9175 X-24.584 Y-3.895
N9180 X-24.586
N9185 X-24.859 Y-3.869
N9190 X-24.861
N9195 X-25.099 Y-3.844
N9200 X-25.102
N9205 X-25.304 Y-3.82
N9210 X-25.307 Y-3.819
N9215 X-25.393 Y-3.808
N9220 X-25.396
N9225 X-25.472 Y-3.796
N9230 X-25.476
N9235 X-25.541 Y-3.785
N9240 X-25.547 Y-3.784
N9245 X-25.602 Y-3.773
N9250 X-25.61 Y-3.772
N9255 X-25.653 Y-3.761
N9260 X-25.668 Y-3.757
N9265 X-25.7 Y-3.748
N9270 X-25.704 Y-3.746
N9275 X-25.756 Y-3.729
N9280 X-25.813 Y-3.713
N9285 X-25.971 Y-3.679
N9290 X-26.166 Y-3.646
N9295 X-26.39 Y-3.616
N9300 X-26.634 Y-3.591
N9305 X-26.888 Y-3.571
N9310 X-27.407 Y-3.554
N9315 X-27.416 Y-3.553
N9320 X-27.676 Y-3.534
N9325 X-27.688 Y-3.533
N9330 X-27.93 Y-3.503
N9335 X-27.942 Y-3.501
N9340 X-28.163 Y-3.462
N9345 X-28.177 Y-3.459
N9350 X-28.37 Y-3.411
N9355 X-28.388 Y-3.406
N9360 X-28.549 Y-3.353
N9365 X-28.573 Y-3.343
N9370 X-28.698 Y-3.284
N9375 X-28.725 Y-3.269
N9380 X-28.772 Y-3.239
N9385 X-28.796 Y-3.221
N9390 X-28.833 Y-3.19
N9395 X-28.863 Y-3.158
N9400 X-28.888 Y-3.127
N9405 X-28.906 Y-3.1
N9410 X-28.92 Y-3.071
N9415 X-28.932 Y-3.039
N9420 X-28.946 Y-2.989
N9425 X-28.952 Y-2.942
N9430 X-28.953 Y-2.937
N9435 X-28.96 Y-2.874
N9440 X-28.961 Y-2.87
N9445 X-28.969 Y-2.792
N9450 Y-2.79
N9455 X-28.978 Y-2.697
N9460 Y-2.696
N9465 X-28.988 Y-2.591
N9470 Y-2.59
N9475 X-28.998 Y-2.472
N9480 X-29.019 Y-2.207
N9485 Y-2.206
N9490 X-29.042 Y-1.907
N9495 X-29.067 Y-1.584
N9500 Y-1.583
N9505 X-29.117 Y-0.905
N9510 X-29.153 Y-0.554
N9515 Y-0.553
N9520 X-29.187 Y-0.21
N9525 Y-0.209
N9530 X-29.217 Y0.114
N9535 Y0.115
N9540 X-29.244 Y0.411
N9545 X-29.268 Y0.672
N9550 X-29.279 Y0.787
N9555 X-29.289 Y0.889
N9560 X-29.298 Y0.978
N9565 X-29.306 Y1.053
N9570 X-29.312 Y1.108
N9575 X-29.306 Y1.112 Z-1.028
N9580 X-29.291 Y1.12 Z-1.
N9585 X-29.306 Y1.112 Z-1.028
N9590 X-29.312 Y1.108 Z-1.04
N9595 X-29.348 Y1.13
N9600 X-29.407 Y1.16
N9605 X-29.484 Y1.194
N9610 X-29.577 Y1.23
N9615 X-29.687 Y1.268
N9620 X-29.689 Y1.269
N9625 G0 Z5.
N9630 X-20.337 Y3.495
N9635 Z4.
N9640 G1 Z-1. F333.33
N9645 X-20.322 Y3.46 Z-1.018 F1200.
N9650 X-20.308 Y3.43 Z-1.04
N9655 Y3.422
N9660 X-20.29 Y3.371
N9665 X-20.253 Y3.319
N9670 X-20.231 Y3.3
N9675 X-20.192 Y3.271
N9680 X-20.137 Y3.241
N9685 X-20.068 Y3.21
N9690 X-19.983 Y3.178
N9695 X-19.881 Y3.146
N9700 X-19.761 Y3.115
N9705 X-19.624 Y3.084
N9710 X-19.468 Y3.054
N9715 X-19.294 Y3.025
N9720 X-19.099 Y2.997
N9725 X-18.885 Y2.969
N9730 X-18.649 Y2.942
N9735 X-18.391 Y2.914
N9740 X-18.111 Y2.888
N9745 X-17.807 Y2.861
N9750 X-17.479 Y2.834
N9755 X-17.126 Y2.807
N9760 X-16.746 Y2.78
N9765 X-16.34 Y2.752
N9770 X-15.906 Y2.723
N9775 X-15.443 Y2.694
N9780 X-14.951 Y2.663
N9785 X-14.429 Y2.632
N9790 X-13.876 Y2.599
N9795 X-13.29 Y2.565
N9800 X-10.718 Y2.408
N9805 X-10.085 Y2.369
N9810 X-9.466 Y2.33
N9815 X-8.864 Y2.292
N9820 X-8.863
N9825 X-8.283 Y2.255
N9830 X-7.728 Y2.219
N9835 X-7.203 Y2.184
N9840 X-6.713 Y2.151
N9845 X-6.482 Y2.136
N9850 X-6.261 Y2.12
N9855 X-6.051 Y2.106
N9860 X-5.853 Y2.092
N9865 X-5.852
N9870 X-5.666 Y2.078
N9875 X-5.492 Y2.065
N9880 X-5.491
N9885 X-5.33 Y2.053
N9890 X-5.182 Y2.042
N9895 X-5.048 Y2.031
N9900 X-5.047
N9905 X-4.929 Y2.021
N9910 X-4.694 Y2.002
N9915 X-4.448 Y1.983
N9920 X-3.928 Y1.946
N9925 X-2.84 Y1.877
N9930 X-2.305 Y1.847
N9935 X-1.798 Y1.821
N9940 X-1.559 Y1.809
N9945 X-1.334 Y1.799
N9950 X-1.124 Y1.791
N9955 X-0.933 Y1.784
N9960 X-0.599 Y1.778
N9965 X-0.591 Y1.777
N9970 X-0.275 Y1.76
N9975 X-0.267 Y1.759
N9980 X0.027 Y1.733
N9985 X0.036 Y1.732
N9990 X0.304 Y1.696
N9995 X0.313 Y1.695
N10000 X0.552 Y1.653
N10005 X0.563 Y1.651
N10010 X0.769 Y1.605
N10015 X0.783 Y1.601
N10020 X0.954 Y1.551
N10025 X0.967 Y1.546
N10030 X1.038 Y1.521
N10035 X1.05 Y1.516
N10040 X1.111 Y1.49
N10045 X1.126 Y1.483
N10050 X1.177 Y1.456
N10055 X1.197 Y1.444
N10060 X1.236 Y1.418
N10065 X1.264 Y1.396
N10070 X1.292 Y1.37
N10075 X1.329 Y1.327
N10080 X1.345 Y1.301
N10085 X1.365 Y1.261
N10090 X1.377 Y1.217
N10095 X1.381 Y1.192
N10100 X1.383 Y1.136
N10105 X1.371 Y1.081
N10110 X1.363 Y1.057
N10115 X1.343 Y1.016
N10120 X1.315 Y0.979
N10125 X1.294 Y0.956
N10130 X1.248 Y0.92
N10135 X1.213 Y0.898
N10140 X1.181 Y0.882
N10145 X1.133 Y0.861
N10150 X1.11 Y0.854
N10155 X1.047 Y0.835
N10160 X1.031 Y0.831
N10165 X0.954 Y0.814
N10170 X0.942 Y0.812
N10175 X0.849 Y0.797
N10180 X0.839 Y0.796
N10185 X0.731 Y0.784
N10190 X0.724 Y0.783
N10195 X0.6 Y0.773
N10200 X0.593
N10205 X0.453 Y0.765
N10210 X0.448
N10215 X0.291 Y0.76
N10220 X0.286
N10225 X0.233
N10230 X0.17 Y0.759
N10235 X0.094 Y0.757
N10240 X0.007 Y0.754
N10245 X-0.091 Y0.751
N10250 X-0.199 Y0.747
N10255 X-0.445 Y0.736
N10260 X-0.728 Y0.724
N10265 X-1.045 Y0.708
N10270 X-1.392 Y0.691
N10275 X-1.768 Y0.671
N10280 X-1.773
N10285 X-2.649 Y0.646 Z-1.
N10290 X-1.773 Y0.671 Z-1.04
N10295 X-1.414
N10300 X-1.01 Y0.67
N10305 X-0.634 Y0.668
N10310 X-0.633
N10315 X-0.284 Y0.664
N10320 X-0.283
N10325 X0.041 Y0.66
N10330 X0.042 Y0.659
N10335 X0.342 Y0.653
N10340 X0.344
N10345 X0.621 Y0.645
N10350 X0.623
N10355 X0.879 Y0.635
N10360 X0.882
N10365 X1.117 Y0.623
N10370 X1.121 Y0.622
N10375 X1.338 Y0.608
N10380 X1.341
N10385 X1.541 Y0.592
N10390 X1.546 Y0.591
N10395 X1.729 Y0.573
N10400 X1.734 Y0.572
N10405 X1.903 Y0.551
N10410 X1.909 Y0.55
N10415 X2.064 Y0.526
N10420 X2.071 Y0.525
N10425 X2.214 Y0.498
N10430 X2.222 Y0.497
N10435 X2.354 Y0.467
N10440 X2.367 Y0.464
N10445 X2.604 Y0.396
N10450 X2.623 Y0.39
N10455 X2.831 Y0.309
N10460 X2.85 Y0.3
N10465 X3.041 Y0.205
N10470 X3.056 Y0.197
N10475 X3.24 Y0.086
N10480 X3.25 Y0.08
N10485 X3.436 Y-0.047
N10490 X3.441 Y-0.05
N10495 X3.641 Y-0.194
N10500 X3.643 Y-0.196
N10505 X4.798 Y-1.045
N10510 G2 X4.705 Y-1.444 I-0.132 J-0.18
N10515 G1 X4.004 Y-1.568
N10520 X3.809 Y-1.579 Z-1.
N10525 X4.004 Y-1.568 Z-1.04
N10530 X4.157 Y-1.577
N10535 X4.158
N10540 X4.485 Y-1.596
N10545 X4.486
N10550 X4.829 Y-1.618
N10555 X4.83
N10560 X5.519 Y-1.665
N10565 X5.521
N10570 X5.692 Y-1.678
N10575 X5.761 Y-1.699 Z-1.013
N10580 X5.803 Y-1.71 Z-1.
N10585 X5.761 Y-1.699 Z-1.013
N10590 X5.692 Y-1.678 Z-1.04
N10595 X5.655 Y-1.657
N10600 X5.645 Y-1.651
N10605 X5.543 Y-1.586
N10610 X5.537 Y-1.582
N10615 X5.415 Y-1.498
N10620 X5.411 Y-1.496
N10625 X5.271 Y-1.395
N10630 X5.268 Y-1.393
N10635 X5.111 Y-1.277
N10640 X5.109 Y-1.275
N10645 X4.935 Y-1.143
N10650 X4.933 Y-1.142
N10655 X4.745 Y-0.996
N10660 X4.744 Y-0.995
N10665 X4.542 Y-0.836
N10670 X4.541 Y-0.835
N10675 X4.327 Y-0.663
N10680 X4.326 Y-0.662
N10685 X4.101 Y-0.479
N10690 X4.099 Y-0.478
N10695 X3.864 Y-0.284
N10700 X3.863 Y-0.283
N10705 X3.62 Y-0.08
N10710 X3.619 Y-0.079
N10715 X3.368 Y0.133
N10720 X3.171 Y0.297
N10725 X2.982 Y0.453
N10730 X2.622 Y0.741
N10735 X2.286 Y1.
N10740 X1.972 Y1.229
N10745 X1.677 Y1.431
N10750 X1.4 Y1.606
N10755 X1.14 Y1.756
N10760 X0.893 Y1.881
N10765 X0.659 Y1.984
N10770 X0.435 Y2.066
N10775 X0.218 Y2.127
N10780 X0.006 Y2.171
N10785 X-0.203 Y2.198
N10790 X-0.413 Y2.209
N10795 X-0.627 Y2.206
N10800 X-0.85 Y2.188
N10805 X-0.87 Y2.186
N10810 X-0.888 Y2.184
N10815 X-0.932 Y2.183
N10820 X-0.938
N10825 X-1.002
N10830 X-1.006
N10835 X-1.089 Y2.185
N10840 X-1.091
N10845 X-1.193 Y2.188
N10850 X-1.195
N10855 X-1.315 Y2.192
N10860 X-1.316
N10865 X-1.455 Y2.197
N10870 X-1.456
N10875 X-1.612 Y2.203
N10880 X-1.785 Y2.211
N10885 X-1.786
N10890 X-1.975 Y2.22
N10895 X-2.181 Y2.229
N10900 X-2.401 Y2.24
N10905 X-2.402
N10910 X-2.637 Y2.252
N10915 X-2.886 Y2.265
N10920 X-2.887
N10925 X-3.15 Y2.279
N10930 X-3.426 Y2.293
N10935 X-3.715 Y2.309
N10940 X-4.016 Y2.325
N10945 X-4.329 Y2.343
N10950 X-4.653 Y2.361
N10955 X-4.987 Y2.38
N10960 X-5.331 Y2.399
N10965 X-6.047 Y2.44
N10970 X-6.797 Y2.484
N10975 X-7.577 Y2.53
N10980 X-8.381 Y2.579
N10985 X-9.206 Y2.629
N10990 X-10.872 Y2.729
N10995 X-11.685 Y2.777
N11000 X-12.479 Y2.823
N11005 X-13.249 Y2.867
N11010 X-13.99 Y2.909
N11015 X-14.697 Y2.949
N11020 X-15.037 Y2.968
N11025 X-15.366 Y2.985
N11030 X-15.684 Y3.003
N11035 X-15.991 Y3.019
N11040 X-16.286 Y3.034
N11045 X-16.568 Y3.049
N11050 X-16.837 Y3.062
N11055 X-17.092 Y3.075
N11060 X-17.332 Y3.086
N11065 X-17.558 Y3.097
N11070 X-17.767 Y3.106
N11075 X-17.961 Y3.114
N11080 X-18.137 Y3.121
N11085 X-18.295 Y3.127
N11090 X-18.436 Y3.132
N11095 X-18.557 Y3.135
N11100 X-18.658 Y3.137
N11105 X-18.74 Y3.138
N11110 X-18.743
N11115 X-19.04 Y3.144
N11120 X-19.049 Y3.145
N11125 X-19.325 Y3.162
N11130 X-19.335 Y3.163
N11135 X-19.584 Y3.191
N11140 X-19.596 Y3.193
N11145 X-19.812 Y3.23
N11150 X-19.824 Y3.233
N11155 X-19.918 Y3.255
N11160 X-19.928 Y3.257
N11165 X-20.012 Y3.281
N11170 X-20.025 Y3.285
N11175 X-20.097 Y3.31
N11180 X-20.114 Y3.316
N11185 X-20.175 Y3.343
N11190 X-20.197 Y3.354
N11195 X-20.245 Y3.382
N11200 X-20.275 Y3.403
N11205 X-20.308 Y3.43
N11210 G0 Z5.
N11215 X-20.282 Y3.856
N11220 Z4.
N11225 G1 Z-1. F333.33
N11230 X-20.266 Y3.873 Z-1.014 F1200.
N11235 X-20.229 Y3.904 Z-1.04
N11240 X-20.221 Y3.915
N11245 X-20.178 Y3.961
N11250 X-20.116 Y4.009
N11255 X-20.029 Y4.059
N11260 X-19.914 Y4.109
N11265 X-19.767 Y4.159
N11270 X-19.587 Y4.207
N11275 X-19.371 Y4.253
N11280 X-19.118 Y4.296
N11285 X-18.824 Y4.337
N11290 X-18.663 Y4.356
N11295 X-18.49 Y4.375
N11300 X-18.306 Y4.393
N11305 X-18.111 Y4.411
N11310 X-17.904 Y4.428
N11315 X-17.686 Y4.444
N11320 X-17.455 Y4.461
N11325 X-17.212 Y4.476
N11330 X-16.955 Y4.492
N11335 X-16.686 Y4.506
N11340 X-16.403 Y4.521
N11345 X-16.107 Y4.535
N11350 X-15.796 Y4.549
N11355 X-15.471 Y4.563
N11360 X-15.131 Y4.577
N11365 X-14.776 Y4.59
N11370 X-14.406 Y4.603
N11375 X-14.02 Y4.616
N11380 X-13.618 Y4.629
N11385 X-13.2 Y4.642
N11390 X-12.765 Y4.655
N11395 X-12.313 Y4.668
N11400 X-11.844 Y4.681
N11405 X-11.358 Y4.694
N11410 X-10.853 Y4.707
N11415 X-10.33 Y4.721
N11420 X-9.789 Y4.734
N11425 X-9.228 Y4.748
N11430 X-8.649 Y4.762
N11435 X-8.05 Y4.776
N11440 X-7.431 Y4.791
N11445 X-6.792 Y4.805
N11450 X-6.132 Y4.821
N11455 X-5.451 Y4.836
N11460 X-5.45
N11465 X-5.289 Y4.841
N11470 X-5.27 Y4.843
N11475 X-5.143 Y4.858
N11480 X-5.111 Y4.864
N11485 X-5.019 Y4.889
N11490 X-4.988 Y4.9
N11495 X-4.96 Y4.914
N11500 X-4.902 Y4.95
N11505 X-4.856 Y4.988
N11510 X-4.822 Y5.036
N11515 X-4.797 Y5.083
N11520 X-4.78 Y5.126
N11525 X-4.772 Y5.172
N11530 X-4.773 Y5.218
N11535 X-4.782 Y5.277
N11540 X-4.793 Y5.322
N11545 X-4.807 Y5.337 Z-1.027
N11550 X-4.846 Y5.374 Z-1.
N11555 X-4.807 Y5.337 Z-1.027
N11560 X-4.793 Y5.322 Z-1.04
N11565 X-4.783 Y5.317
N11570 X-4.582 Y5.205
N11575 X-4.334 Y5.062
N11580 X-4.329 Y5.058
N11585 X-4.095 Y4.932
N11590 X-4.088 Y4.928
N11595 X-3.875 Y4.822
N11600 X-3.867 Y4.818
N11605 X-3.68 Y4.733
N11610 X-3.673 Y4.73
N11615 X-3.591 Y4.696
N11620 X-3.584 Y4.694
N11625 X-3.511 Y4.666
N11630 X-3.502 Y4.663
N11635 X-3.439 Y4.642
N11640 X-3.426 Y4.639
N11645 X-3.372 Y4.625
N11650 X-3.352 Y4.62
N11655 X-3.309 Y4.613
N11660 X-3.272 Y4.61
N11665 X-3.241
N11670 X-3.2 Y4.614
N11675 X-3.161 Y4.625
N11680 X-3.142 Y4.632
N11685 X-3.093 Y4.658
N11690 X-3.053 Y4.694
N11695 X-3.063 Y4.719 Z-1.001
N11700 X-3.053 Y4.694 Z-1.04
N11705 X-2.982 Y4.675
N11710 X-2.882 Y4.639
N11715 X-2.768 Y4.588
N11720 X-2.637 Y4.521
N11725 X-2.633 Y4.519
N11730 X-2.483 Y4.446
N11735 X-2.469 Y4.44
N11740 X-2.338 Y4.387
N11745 X-2.317 Y4.38
N11750 X-2.205 Y4.348
N11755 X-2.17 Y4.341
N11760 X-2.078 Y4.33
N11765 X-2.021
N11770 X-1.948 Y4.34
N11775 X-1.906 Y4.349
N11780 X-1.867 Y4.367
N11785 X-1.812 Y4.398
N11790 X-1.771 Y4.428
N11795 X-1.738 Y4.466
N11800 X-1.702 Y4.519
N11805 X-1.682 Y4.555
N11810 X-1.669 Y4.595
N11815 X-1.651 Y4.67
N11820 X-1.646 Y4.723
N11825 X-1.647 Y4.82
N11830 X-1.65 Y4.854
N11835 X-1.67 Y4.974
N11840 X-1.675 Y4.995
N11845 X-1.713 Y5.138
N11850 X-1.718 Y5.152
N11855 X-1.775 Y5.318
N11860 X-1.779 Y5.328
N11865 X-1.854 Y5.517
N11870 X-1.858 Y5.525
N11875 X-1.901 Y5.623
N11880 X-1.947 Y5.693 Z-1.017
N11885 X-1.971 Y5.735 Z-1.008
N11890 X-1.997 Y5.78 Z-1.
N11895 X-1.971 Y5.735 Z-1.008
N11900 X-1.947 Y5.693 Z-1.017
N11905 X-1.901 Y5.623 Z-1.04
N11910 X-1.748 Y5.46
N11915 X-1.726 Y5.44
N11920 X-1.516 Y5.268
N11925 X-1.492 Y5.251
N11930 X-1.265 Y5.11
N11935 X-1.239 Y5.096
N11940 X-0.998 Y4.987
N11945 X-0.971 Y4.977
N11950 X-0.718 Y4.9
N11955 X-0.691 Y4.893
N11960 X-0.429 Y4.848
N11965 X-0.401 Y4.845
N11970 X-0.132 Y4.833
N11975 X-0.105
N11980 X0.168 Y4.854
N11985 X0.194 Y4.857
N11990 X0.469 Y4.911
N11995 X0.494 Y4.918
N12000 X0.768 Y5.005
N12005 X0.792 Y5.014
N12010 X1.063 Y5.135
N12015 X1.085 Y5.146
N12020 X1.351 Y5.302
N12025 X1.371 Y5.315
N12030 X1.629 Y5.504
N12035 X1.647 Y5.519
N12040 X1.895 Y5.743
N12045 X1.899 Y5.747
N12050 X2.076 Y5.917
N12055 X2.252 Y6.071
N12060 X2.424 Y6.209
N12065 X2.587 Y6.327
N12070 X2.737 Y6.421
N12075 X2.864 Y6.489
N12080 X2.964 Y6.527
N12085 X2.989 Y6.533
N12090 X3.022 Y6.536
N12095 X3.023
N12100 X3.071 Y6.541
N12105 X3.104 Y6.546
N12110 X3.159 Y6.56
N12115 X3.19 Y6.57
N12120 X3.317 Y6.623
N12125 X3.341 Y6.635
N12130 X3.487 Y6.718
N12135 X3.502 Y6.728
N12140 X3.662 Y6.837
N12145 X3.673 Y6.845
N12150 X3.843 Y6.976
N12155 X3.852 Y6.983
N12160 X4.026 Y7.133
N12165 X4.033 Y7.14
N12170 X4.208 Y7.304
N12175 X4.215 Y7.311
N12180 X4.384 Y7.486
N12185 X4.391 Y7.493
N12190 X4.544 Y7.664
N12195 X4.551 Y7.673
N12200 X4.676 Y7.828
N12205 X4.685 Y7.84
N12210 X4.78 Y7.976
N12215 X4.789 Y7.989
N12220 X4.825 Y8.049
N12225 X4.832 Y8.062
N12230 X4.86 Y8.116
N12235 X4.868 Y8.133
N12240 X4.888 Y8.181
N12245 X4.897 Y8.208
N12250 X4.908 Y8.249
N12255 X4.915 Y8.293
N12260 X4.917 Y8.326
N12265 Y8.362
N12270 X4.91 Y8.398
N12275 X4.904 Y8.424
N12280 X4.884 Y8.473
N12285 X4.854 Y8.516
N12290 X4.838 Y8.534
N12295 X4.798 Y8.569
N12300 X4.751 Y8.594
N12305 X4.725 Y8.604
N12310 X4.69 Y8.614
N12315 X4.653 Y8.618
N12320 X4.617 Y8.619
N12325 X4.571 Y8.616
N12330 X4.535 Y8.61
N12335 X4.482 Y8.605
N12340 X4.455 Y8.612
N12345 X4.418 Y8.635
N12350 X4.371 Y8.681
N12355 X4.33 Y8.74
N12360 X4.306 Y8.762 Z-1.024
N12365 X4.281 Y8.79 Z-1.005
N12370 X4.273 Y8.8 Z-1.
N12375 X4.281 Y8.79 Z-1.005
N12380 X4.306 Y8.762 Z-1.024
N12385 X4.33 Y8.74 Z-1.04
N12390 X4.405 Y8.703
N12395 X4.432 Y8.691
N12400 X4.557 Y8.648
N12405 X4.58 Y8.641
N12410 X4.724 Y8.608
N12415 X4.745 Y8.604
N12420 X4.905 Y8.582
N12425 X4.925 Y8.581
N12430 X5.098 Y8.573
N12435 X5.107
N12440 X5.254 Y8.572
N12445 X5.38 Y8.57
N12450 X5.482 Y8.565
N12455 X5.539 Y8.559
N12460 X5.573 Y8.577 Z-1.
N12465 X5.539 Y8.559 Z-1.04
N12470 X5.53 Y8.539
N12475 X5.485 Y8.458
N12480 X5.424 Y8.358
N12485 X5.349 Y8.239
N12490 X5.264 Y8.108
N12495 X5.206 Y8.03
N12500 X5.128 Y7.937
N12505 X5.034 Y7.831
N12510 X4.924 Y7.714
N12515 X4.8 Y7.588
N12520 X4.664 Y7.455
N12525 X4.516 Y7.314
N12530 X4.359 Y7.169
N12535 X4.019 Y6.866
N12540 X3.656 Y6.556
N12545 X3.28 Y6.248
N12550 X2.901 Y5.951
N12555 X2.64 Y5.759
N12560 X2.393 Y5.584
N12565 X2.162 Y5.426
N12570 X1.945 Y5.285
N12575 X1.74 Y5.16
N12580 X1.546 Y5.051
N12585 X1.361 Y4.955
N12590 X1.185 Y4.874
N12595 X1.014 Y4.804
N12600 X0.848 Y4.747
N12605 X0.685 Y4.7
N12610 X0.526 Y4.665
N12615 X0.192 Y4.618
N12620 X-0.163 Y4.603
N12625 X-0.408 Y4.6
N12630 X-0.414
N12635 X-0.636 Y4.591
N12640 X-0.644
N12645 X-0.841 Y4.576
N12650 X-0.852 Y4.575
N12655 X-1.022 Y4.553
N12660 X-1.037 Y4.551
N12665 X-1.182 Y4.522
N12670 X-1.203 Y4.517
N12675 X-1.323 Y4.481
N12680 X-1.352 Y4.47
N12685 X-1.446 Y4.426
N12690 X-1.486 Y4.403
N12695 X-1.556 Y4.351
N12700 X-1.58 Y4.33
N12705 X-1.601 Y4.306
N12710 X-1.646 Y4.246
N12715 X-1.667 Y4.213
N12720 X-1.682 Y4.176
N12725 X-1.702 Y4.107
N12730 X-1.71 Y4.07
N12735 X-1.711 Y4.033
N12740 X-1.707 Y3.955
N12745 X-1.697 Y3.898
N12750 X-1.669 Y3.811
N12755 X-1.654 Y3.773
N12760 X-1.602 Y3.677
N12765 X-1.587 Y3.653
N12770 X-1.512 Y3.546
N12775 X-1.5 Y3.531
N12780 X-1.401 Y3.414
N12785 X-1.392 Y3.403
N12790 X-1.27 Y3.275
N12795 X-1.269 Y3.274
N12800 X-1.203 Y3.206
N12805 X-1.151 Y3.148
N12810 X-1.15
N12815 X-1.08 Y3.096 Z-1.
N12820 X-1.15 Y3.148 Z-1.04
N12825 X-1.151
N12830 X-1.172 Y3.156
N12835 X-1.298 Y3.216
N12840 X-1.438 Y3.295
N12845 X-1.59 Y3.391
N12850 X-1.75 Y3.504
N12855 X-1.92 Y3.637
N12860 X-2.903 Y4.45
N12865 X-2.947 Y4.479
N12870 X-2.997 Y4.496
N12875 X-3.049 Y4.501
N12880 X-11.609 Y4.331
N12885 X-12.483 Y4.317
N12890 X-12.484
N12895 X-13.334 Y4.298
N12900 X-13.335
N12905 X-14.157 Y4.277
N12910 X-14.158
N12915 X-14.946 Y4.253
N12920 X-14.947
N12925 X-15.698 Y4.226
N12930 X-15.699
N12935 X-16.059 Y4.212
N12940 X-16.408 Y4.197
N12945 X-16.409
N12950 X-16.746 Y4.183
N12955 X-17.071 Y4.167
N12960 X-17.072
N12965 X-17.384 Y4.152
N12970 X-17.385
N12975 X-17.684 Y4.136
N12980 X-17.685
N12985 X-17.97 Y4.12
N12990 X-17.971
N12995 X-18.242 Y4.104
N13000 Y4.103
N13005 X-18.498 Y4.087
N13010 X-18.499
N13015 X-18.74 Y4.071
N13020 X-18.741
N13025 X-18.965 Y4.054
N13030 X-18.966
N13035 X-19.174 Y4.038
N13040 X-19.175
N13045 X-19.366 Y4.022
N13050 X-19.368
N13055 X-19.54 Y4.006
N13060 X-19.543 Y4.005
N13065 X-19.697 Y3.99
N13070 X-19.7 Y3.989
N13075 X-19.836 Y3.974
N13080 X-19.839 Y3.973
N13085 X-19.956 Y3.958
N13090 X-19.961 Y3.957
N13095 X-20.057 Y3.942
N13100 X-20.065 Y3.941
N13105 X-20.141 Y3.927
N13110 X-20.154 Y3.924
N13115 X-20.209 Y3.909
N13120 X-20.229 Y3.904
N13125 G0 Z5.
N13130 X-13.947 Y6.172
N13135 Z4.
N13140 G1 Z-1. F333.33
N13145 X-13.086 Y6.144 Z-1.001 F1200.
N13150 X-11.942 Y6.105 Z-1.01
N13155 X-11.395 Y6.086 Z-1.017
N13160 X-10.475 Y6.053 Z-1.031
N13165 X-9.784 Y6.025 Z-1.04
N13170 X-9.265 Y5.998
N13175 X-9.264
N13180 X-8.696 Y5.967
N13185 X-8.695
N13190 X-8.156 Y5.935
N13195 X-8.155
N13200 X-7.647 Y5.903
N13205 X-7.646
N13210 X-7.175 Y5.871
N13215 X-7.174
N13220 X-6.952 Y5.855
N13225 X-6.74 Y5.839
N13230 X-6.539 Y5.823
N13235 X-6.538 Y5.822
N13240 X-6.46 Y5.816
N13245 X-6.348 Y5.803 Z-1.034
N13250 X-6.112 Y5.774 Z-1.021
N13255 X-5.863 Y5.736 Z-1.
N13260 X-6.112 Y5.774 Z-1.021
N13265 X-6.348 Y5.803 Z-1.034
N13270 X-6.46 Y5.816 Z-1.04
N13275 X-6.59 Y5.833
N13280 X-6.77 Y5.853
N13285 X-6.962 Y5.873
N13290 X-7.166 Y5.891
N13295 X-7.383 Y5.908
N13300 X-7.615 Y5.925
N13305 X-7.861 Y5.94
N13310 X-8.123 Y5.955
N13315 X-8.401 Y5.969
N13320 X-8.696 Y5.983
N13325 X-9.009 Y5.996
N13330 X-9.34 Y6.009
N13335 X-9.691 Y6.022
N13340 X-9.784 Y6.025
N13345 G0 Z5.
N13350 X-25.407 Y7.466
N13355 Z4.
N13360 G1 Z-1. F333.33
N13365 X-25.366 Y7.469 Z-1.003 F1200.
N13370 X-25.171 Y7.487 Z-1.03
N13375 X-25.114 Y7.493 Z-1.04
N13380 X-24.973 Y7.525
N13385 X-24.97 Y7.526
N13390 X-24.771 Y7.574
N13395 X-24.559 Y7.617
N13400 X-24.098 Y7.687
N13405 X-23.87 Y7.711
N13410 X-23.651 Y7.725
N13415 X-23.449 Y7.73
N13420 X-23.263 Y7.724
N13425 X-23.241
N13430 X-23.057 Y7.736
N13435 X-23.032 Y7.74
N13440 X-22.841 Y7.775
N13445 X-22.82 Y7.779
N13450 X-22.627 Y7.834
N13455 X-22.609 Y7.84
N13460 X-22.42 Y7.912
N13465 X-22.403 Y7.92
N13470 X-22.224 Y8.006
N13475 X-22.207 Y8.016
N13480 X-22.043 Y8.113
N13485 X-22.024 Y8.126
N13490 X-21.881 Y8.233
N13495 X-21.859 Y8.251
N13500 X-21.742 Y8.364
N13505 X-21.732 Y8.374
N13510 X-21.676 Y8.436
N13515 X-21.619 Y8.488
N13520 X-21.465 Y8.601
N13525 X-21.277 Y8.708
N13530 X-21.059 Y8.805
N13535 X-20.816 Y8.891
N13540 X-20.556 Y8.961
N13545 X-20.285 Y9.015
N13550 X-20.007 Y9.049
N13555 X-19.719 Y9.071
N13560 X-19.709 Y9.072
N13565 X-19.397 Y9.11
N13570 X-19.389 Y9.111
N13575 X-19.068 Y9.163
N13580 X-19.061 Y9.164
N13585 X-18.742 Y9.227
N13590 X-18.735 Y9.228
N13595 X-18.427 Y9.298
N13600 X-18.42 Y9.3
N13605 X-18.133 Y9.376
N13610 X-18.125 Y9.378
N13615 X-17.869 Y9.456
N13620 X-17.861 Y9.459
N13625 X-17.748 Y9.498
N13630 X-17.742 Y9.5
N13635 X-17.64 Y9.538
N13640 X-17.636 Y9.54
N13645 X-17.428 Y9.623
N13650 X-17.234 Y9.694
N13655 X-17.052 Y9.755
N13660 X-16.882 Y9.806
N13665 X-16.723 Y9.846
N13670 X-16.578 Y9.876
N13675 X-16.445 Y9.896
N13680 X-16.324 Y9.906
N13685 X-16.217 Y9.907
N13690 X-16.124 Y9.9
N13695 X-16.043 Y9.885
N13700 X-15.976 Y9.864
N13705 X-15.92 Y9.837
N13710 X-15.873 Y9.806
N13715 X-15.834 Y9.769
N13720 X-15.789 Y9.712
N13725 X-15.785 Y9.706
N13730 X-15.764 Y9.682
N13735 X-15.741 Y9.658
N13740 X-15.715 Y9.638
N13745 X-15.679 Y9.614
N13750 X-15.647 Y9.597
N13755 X-15.597 Y9.575
N13760 X-15.576 Y9.567
N13765 X-15.514 Y9.547
N13770 X-15.499 Y9.543
N13775 X-15.425 Y9.525
N13780 X-15.414 Y9.522
N13785 X-15.329 Y9.506
N13790 X-15.318 Y9.504
N13795 X-15.116 Y9.475
N13800 X-15.106 Y9.474
N13805 X-14.87 Y9.451
N13810 X-14.863 Y9.45
N13815 X-14.6 Y9.433
N13820 X-14.594
N13825 X-14.312 Y9.423
N13830 X-14.307 Y9.422
N13835 X-14.011 Y9.418
N13840 X-14.005
N13845 X-13.404 Y9.427
N13850 X-13.398
N13855 X-13.107 Y9.44
N13860 X-13.102
N13865 X-12.827 Y9.459
N13870 X-12.821 Y9.46
N13875 X-12.569 Y9.485
N13880 X-12.56 Y9.486
N13885 X-12.339 Y9.516
N13890 X-12.33 Y9.517
N13895 X-12.233 Y9.535
N13900 X-12.225 Y9.536
N13905 X-12.138 Y9.555
N13910 X-12.128 Y9.558
N13915 X-12.052 Y9.578
N13920 X-12.038 Y9.582
N13925 X-11.988 Y9.599
N13930 X-11.983 Y9.6
N13935 X-11.947 Y9.604
N13940 X-11.883 Y9.608
N13945 X-11.796 Y9.611
N13950 X-11.691 Y9.614
N13955 X-11.569 Y9.616
N13960 X-11.431 Y9.617
N13965 X-11.278
N13970 X-11.112
N13975 X-10.934 Y9.616
N13980 X-10.545 Y9.611
N13985 X-10.122 Y9.603
N13990 X-9.674 Y9.592
N13995 X-9.393 Y9.584
N14000 X-9.13 Y9.573
N14005 X-8.885 Y9.558
N14010 X-8.659 Y9.54
N14015 X-8.449 Y9.519
N14020 X-8.257 Y9.493
N14025 X-8.081 Y9.464
N14030 X-7.922 Y9.432
N14035 X-7.78 Y9.396
N14040 X-7.653 Y9.356
N14045 X-7.542 Y9.314
N14050 X-7.446 Y9.269
N14055 X-7.365 Y9.221
N14060 X-7.298 Y9.172
N14065 X-7.243 Y9.122
N14070 X-7.194 Y9.065
N14075 X-7.124 Y8.968
N14080 X-7.111 Y8.952
N14085 X-7.038 Y8.868
N14090 X-7.02 Y8.85
N14095 X-6.951 Y8.787
N14100 X-6.923 Y8.764
N14105 X-6.861 Y8.724
N14110 X-6.834 Y8.709
N14115 X-6.806 Y8.698
N14120 X-6.754 Y8.681
N14125 X-6.697 Y8.671
N14130 X-6.64 Y8.676
N14135 X-6.6 Y8.684
N14140 X-6.551 Y8.701
N14145 X-6.507 Y8.729
N14150 X-6.503 Y8.765 Z-1.
N14155 X-6.507 Y8.729 Z-1.04
N14160 X-6.491 Y8.706
N14165 X-6.489 Y8.703
N14170 X-6.445 Y8.638
N14175 X-6.432 Y8.622
N14180 X-6.387 Y8.568
N14185 X-6.368 Y8.548
N14190 X-6.338 Y8.52
N14195 X-6.313 Y8.512 Z-1.021
N14200 X-6.283 Y8.505 Z-1.
N14205 X-6.313 Y8.512 Z-1.021
N14210 X-6.338 Y8.52 Z-1.04
N14215 X-6.366 Y8.516
N14220 X-6.553 Y8.491
N14225 X-6.754 Y8.468
N14230 X-6.97 Y8.444
N14235 X-7.2 Y8.422
N14240 X-7.446 Y8.4
N14245 X-7.709 Y8.379
N14250 X-7.988 Y8.358
N14255 X-8.285 Y8.337
N14260 X-8.6 Y8.317
N14265 X-8.935 Y8.296
N14270 X-9.289 Y8.276
N14275 X-9.663 Y8.255
N14280 X-10.058 Y8.234
N14285 X-10.475 Y8.213
N14290 X-10.915 Y8.192
N14295 X-11.377 Y8.17
N14300 X-13.83 Y8.063
N14305 X-14.429 Y8.035
N14310 X-15.014 Y8.008
N14315 X-15.581 Y7.98
N14320 X-16.125 Y7.953
N14325 X-16.126
N14330 X-16.644 Y7.926
N14335 X-17.132 Y7.9
N14340 X-17.585 Y7.874
N14345 X-17.586
N14350 X-17.798 Y7.862
N14355 X-17.799
N14360 X-18.001 Y7.849
N14365 X-18.002
N14370 X-18.193 Y7.837
N14375 X-18.194
N14380 X-18.374 Y7.826
N14385 X-18.375
N14390 X-18.544 Y7.814
N14395 X-18.701 Y7.803
N14400 X-18.702
N14405 X-18.846 Y7.792
N14410 X-18.847
N14415 X-18.978 Y7.781
N14420 X-18.979
N14425 X-19.096 Y7.771
N14430 X-19.098
N14435 X-19.198 Y7.761
N14440 X-19.964 Y7.707
N14445 X-20.747 Y7.659
N14450 X-22.33 Y7.578
N14455 X-23.11 Y7.547
N14460 X-23.872 Y7.522
N14465 X-24.605 Y7.503
N14470 X-24.958 Y7.496
N14475 X-25.114 Y7.493
N14480 G0 Z5.
N14485 X-21.733 Y6.315
N14490 Z4.
N14495 G1 Z-1. F333.33
N14500 X-21.654 Z-1.025 F1200.
N14505 X-21.587 Y6.316 Z-1.04
N14510 X-21.455 Y6.332
N14515 X-21.277 Y6.348
N14520 X-21.079 Y6.361
N14525 X-20.861 Y6.37
N14530 X-20.625 Y6.376
N14535 X-20.374 Y6.378
N14540 X-20.107 Y6.376
N14545 X-19.827 Y6.371
N14550 X-19.535 Y6.361
N14555 X-19.233 Y6.348
N14560 X-18.92 Y6.331
N14565 X-18.917
N14570 X-18.758 Y6.325
N14575 X-18.588 Y6.318
N14580 X-18.408 Y6.31
N14585 X-18.217 Y6.303
N14590 X-18.172 Y6.301
N14595 X-18.296 Y6.303
N14600 X-18.878 Y6.31
N14605 X-18.879
N14610 X-19.435 Y6.314
N14615 X-19.436
N14620 X-19.961 Y6.316
N14625 X-19.962
N14630 X-20.453 Y6.314
N14635 X-20.455
N14640 X-20.909 Y6.309
N14645 X-20.91
N14650 X-21.122 Y6.306
N14655 X-21.123
N14660 X-21.318 Y6.302
N14665 X-21.498 Y6.307
N14670 X-21.587 Y6.316
N14675 X-21.498 Y6.307
N14680 X-21.318 Y6.302
N14685 X-21.123 Y6.306
N14690 X-21.122
N14695 X-20.91 Y6.309
N14700 X-20.909
N14705 X-20.455 Y6.314
N14710 X-20.453
N14715 X-19.962 Y6.316
N14720 X-19.961
N14725 X-19.436 Y6.314
N14730 X-19.435
N14735 X-18.879 Y6.31
N14740 X-18.878
N14745 X-18.296 Y6.303
N14750 X-18.172 Y6.301
N14755 X-17.064 Y6.27 Z-1.02
N14760 X-15.863 Y6.234 Z-1.006
N14765 X-14.575 Y6.193 Z-1.
N14770 G0 Z5.
N14775 X-32.202 Y9.086
N14780 Z4.
N14785 G1 Z-1. F333.33
N14790 X-32.076 Y9.1 Z-1.015 F1200.
N14795 X-31.992 Y9.108 Z-1.028
N14800 X-31.93 Y9.112 Z-1.04
N14805 X-31.895 Y9.111
N14810 X-31.876 Y9.109
N14815 X-31.794 Y9.098
N14820 X-31.768 Y9.093
N14825 X-31.701 Y9.076
N14830 X-31.665 Y9.063
N14835 X-31.611 Y9.039
N14840 X-31.568 Y9.013
N14845 X-31.527 Y8.982
N14850 X-31.503 Y8.962
N14855 X-31.483 Y8.939
N14860 X-31.454 Y8.9
N14865 X-31.437 Y8.874
N14870 X-31.424 Y8.845
N14875 X-31.421 Y8.836
N14880 X-31.429 Y8.792 Z-1.
N14885 X-31.421 Y8.836 Z-1.04
N14890 X-31.363 Y8.903
N14895 X-31.357 Y8.91
N14900 X-31.25 Y9.024
N14905 X-31.243 Y9.032
N14910 X-31.145 Y9.128
N14915 X-31.135 Y9.136
N14920 X-31.049 Y9.211
N14925 X-31.034 Y9.223
N14930 X-30.962 Y9.275
N14935 X-30.934 Y9.293
N14940 X-30.93 Y9.294
N14945 X-31.004 Y9.281
N14950 X-31.549 Y9.182
N14955 X-31.93 Y9.112
N14960 X-31.549 Y9.182
N14965 X-31.004 Y9.281
N14970 X-30.93 Y9.294
N14975 X-30.859 Y9.318 Z-1.021
N14980 X-30.829 Y9.326 Z-1.016
N14985 X-30.794 Y9.332 Z-1.017
N14990 X-30.739 Y9.338 Z-1.022
N14995 X-30.698 Y9.34 Z-1.032
N15000 X-30.677 Z-1.04
N15005 X-30.438 Y9.383
N15010 X-29.851 Y9.487
N15015 X-29.243 Y9.595
N15020 X-28.614 Y9.705
N15025 X-27.965 Y9.819
N15030 X-27.294 Y9.935
N15035 X-27.293
N15040 X-26.076 Y10.154
N15045 X-26.075
N15050 X-25.478 Y10.264
N15055 X-25.477
N15060 X-24.892 Y10.373
N15065 X-24.891
N15070 X-24.321 Y10.481
N15075 X-23.77 Y10.587
N15080 X-23.769
N15085 X-23.488 Y10.642
N15090 X-23.525 Y10.627
N15095 X-23.554 Y10.611
N15100 X-23.581 Y10.592
N15105 X-23.635 Y10.547
N15110 X-23.674 Y10.504
N15115 X-23.701 Y10.452
N15120 X-23.721 Y10.398
N15125 X-23.733 Y10.346
N15130 Y10.294
N15135 X-23.732 Y10.286
N15140 X-23.786 Y10.268
N15145 X-23.928 Y10.237
N15150 X-24.109 Y10.211
N15155 X-24.321 Y10.189
N15160 X-24.556 Y10.174
N15165 X-24.83 Y10.168
N15170 X-24.838
N15175 X-25.135 Y10.151
N15180 X-25.143 Y10.15
N15185 X-25.756 Y10.092
N15190 X-25.763
N15195 X-26.064 Y10.055
N15200 X-26.067 Y10.054
N15205 X-26.354 Y10.014
N15210 X-26.357
N15215 X-26.622 Y9.973
N15220 X-26.625
N15225 X-26.86 Y9.933
N15230 X-26.864 Y9.932
N15235 X-26.973 Y9.912
N15240 X-26.974 Y9.911
N15245 X-27.094 Y9.888
N15250 X-27.095
N15255 X-27.368 Y9.833
N15260 X-27.369
N15265 X-27.674 Y9.77
N15270 X-27.675
N15275 X-28.002 Y9.702
N15280 X-28.679 Y9.559
N15285 X-28.68
N15290 X-29.008 Y9.488
N15295 X-29.313 Y9.422
N15300 X-29.606 Y9.364
N15305 X-29.875 Y9.317
N15310 X-30.116 Y9.282
N15315 X-30.323 Y9.26
N15320 X-30.409 Y9.255
N15325 X-30.483 Y9.253
N15330 X-30.542 Y9.254
N15335 X-30.559 Y9.255
N15340 X-30.592 Y9.292
N15345 X-30.632 Y9.321
N15350 X-30.677 Y9.34
N15355 X-30.632 Y9.321
N15360 X-30.592 Y9.292
N15365 X-30.559 Y9.255
N15370 X-30.573 Y9.234 Z-1.
N15375 X-30.559 Y9.255 Z-1.04
N15380 X-30.542 Y9.254
N15385 X-30.483 Y9.253
N15390 X-30.409 Y9.255
N15395 X-30.323 Y9.26
N15400 X-30.116 Y9.282
N15405 X-29.875 Y9.317
N15410 X-29.606 Y9.364
N15415 X-29.313 Y9.422
N15420 X-29.008 Y9.488
N15425 X-28.68 Y9.559
N15430 X-28.679
N15435 X-28.002 Y9.702
N15440 X-27.675 Y9.77
N15445 X-27.674
N15450 X-27.369 Y9.833
N15455 X-27.368
N15460 X-27.095 Y9.888
N15465 X-27.094
N15470 X-26.974 Y9.911
N15475 X-26.973 Y9.912
N15480 X-26.864 Y9.932
N15485 X-26.86 Y9.933
N15490 X-26.625 Y9.973
N15495 X-26.622
N15500 X-26.357 Y10.014
N15505 X-26.354
N15510 X-26.067 Y10.054
N15515 X-26.064 Y10.055
N15520 X-25.763 Y10.092
N15525 X-25.756
N15530 X-25.143 Y10.15
N15535 X-25.135 Y10.151
N15540 X-24.838 Y10.168
N15545 X-24.83
N15550 X-24.556 Y10.174
N15555 X-24.321 Y10.189
N15560 X-24.109 Y10.211
N15565 X-23.928 Y10.237
N15570 X-23.786 Y10.268
N15575 X-23.732 Y10.286
N15580 X-23.706 Y10.271 Z-1.
N15585 X-23.732 Y10.286 Z-1.04
N15590 X-23.733 Y10.294
N15595 Y10.346
N15600 X-23.721 Y10.398
N15605 X-23.701 Y10.452
N15610 X-23.674 Y10.504
N15615 X-23.635 Y10.547
N15620 X-23.581 Y10.592
N15625 X-23.554 Y10.611
N15630 X-23.525 Y10.627
N15635 X-23.488 Y10.642
N15640 X-23.422 Y10.661 Z-1.028
N15645 X-23.297 Y10.689 Z-1.024
N15650 X-23.147 Y10.713 Z-1.032
N15655 X-23.087 Y10.721 Z-1.04
N15660 X-22.987 Y10.725
N15665 X-22.973
N15670 X-22.818 Y10.722
N15675 X-22.8 Y10.72
N15680 X-22.473 Y10.686
N15685 X-22.455 Y10.684
N15690 X-22.292 Y10.654
N15695 X-22.279 Y10.651
N15700 X-22.121 Y10.612
N15705 X-22.106 Y10.607
N15710 X-21.959 Y10.56
N15715 X-21.941 Y10.553
N15720 X-21.809 Y10.497
N15725 X-21.786 Y10.485
N15730 X-21.673 Y10.421
N15735 X-21.643 Y10.401
N15740 X-21.637 Y10.396
N15745 X-21.617 Y10.357 Z-1.006
N15750 X-21.613 Y10.348 Z-1.
N15755 X-21.617 Y10.357 Z-1.006
N15760 X-21.637 Y10.396 Z-1.04
N15765 X-21.636 Y10.432
N15770 X-21.632 Y10.468
N15775 X-21.622 Y10.504
N15780 X-21.597 Y10.572
N15785 X-21.578 Y10.61
N15790 X-21.553 Y10.644
N15795 X-21.523 Y10.672
N15800 X-21.502 Y10.688
N15805 X-21.474 Y10.706
N15810 X-21.443 Y10.72
N15815 X-21.401 Y10.735
N15820 X-21.376 Y10.742
N15825 X-21.314 Y10.756
N15830 X-21.3 Y10.759
N15835 X-21.218 Y10.773
N15840 X-21.21 Y10.774
N15845 X-21.109 Y10.787
N15850 X-21.104
N15855 X-20.984 Y10.8
N15860 X-20.98
N15865 X-20.843 Y10.811
N15870 X-20.84 Y10.812
N15875 X-20.686 Y10.822
N15880 X-20.684 Y10.823
N15885 X-20.513 Y10.833
N15890 X-20.511
N15895 X-20.324 Y10.842
N15900 X-20.323 Y10.843
N15905 X-20.121 Y10.851
N15910 X-20.12 Y10.852
N15915 X-19.903 Y10.86
N15920 X-19.902
N15925 X-19.672 Y10.867
N15930 X-19.671 Y10.868
N15935 X-19.428 Y10.875
N15940 X-19.427
N15945 X-19.171 Y10.881
N15950 X-18.903 Y10.887
N15955 X-18.902
N15960 X-18.624 Y10.892
N15965 X-18.623
N15970 X-18.334 Y10.896
N15975 X-18.333
N15980 X-17.726 Y10.904
N15985 X-17.725
N15990 X-17.083 Y10.909
N15995 X-17.082
N16000 X-16.412 Y10.911
N16005 X-15.718 Y10.912
N16010 X-15.717
N16015 X-15.005 Y10.91
N16020 X-13.548 Y10.9
N16025 X-13.547
N16030 X-12.081 Y10.882
N16035 X-12.08
N16040 X-11.358 Y10.869
N16045 X-11.357
N16050 X-10.648 Y10.855
N16055 X-10.647
N16060 X-9.957 Y10.839
N16065 X-9.291 Y10.821
N16070 X-9.29
N16075 X-8.654 Y10.801
N16080 X-8.653
N16085 X-8.052 Y10.779
N16090 X-8.051
N16095 X-7.766 Y10.768
N16100 X-7.765
N16105 X-7.49 Y10.756
N16110 X-7.489
N16115 X-7.226 Y10.744
N16120 X-7.225
N16125 X-6.974 Y10.731
N16130 X-6.973
N16135 X-6.734 Y10.718
N16140 X-6.733
N16145 X-6.507 Y10.704
N16150 X-6.506
N16155 X-6.295 Y10.69
N16160 X-6.293
N16165 X-6.097 Y10.675
N16170 X-6.095
N16175 X-5.914 Y10.661
N16180 X-5.912 Y10.66
N16185 X-5.807 Y10.651
N16190 X-5.819 Y10.654
N16195 X-5.967 Y10.7
N16200 X-6. Y10.712
N16205 X-6.138 Y10.78
N16210 X-6.17 Y10.799
N16215 X-6.299 Y10.891
N16220 X-6.326 Y10.913
N16225 X-6.448 Y11.033
N16230 X-6.468 Y11.055
N16235 X-6.584 Y11.204
N16240 X-6.598 Y11.225
N16245 X-6.708 Y11.406
N16250 X-6.718 Y11.423
N16255 X-6.824 Y11.638
N16260 X-6.831 Y11.652
N16265 X-6.934 Y11.903
N16270 X-6.938 Y11.912
N16275 X-6.989 Y12.052
N16280 X-6.991 Y12.057
N16285 X-7.042 Y12.207
N16290 X-7.043 Y12.212
N16295 X-7.094 Y12.372
N16300 X-7.095 Y12.376
N16305 X-7.146 Y12.547
N16310 X-7.147 Y12.551
N16315 X-7.198 Y12.733
N16320 X-7.199 Y12.736
N16325 X-7.25 Y12.93
N16330 X-7.251 Y12.932
N16335 X-7.303 Y13.137
N16340 Y13.139
N16345 X-7.356 Y13.356
N16350 Y13.358
N16355 X-7.41 Y13.587
N16360 Y13.589
N16365 X-7.464 Y13.83
N16370 X-7.465 Y13.832
N16375 X-7.52 Y14.086
N16380 Y14.087
N16385 X-7.576 Y14.352
N16390 X-7.744 Y15.052
N16395 X-7.837 Y15.4
N16400 X-7.933 Y15.733
N16405 X-8.03 Y16.041
N16410 X-8.127 Y16.315
N16415 X-8.173 Y16.433
N16420 X-8.218 Y16.538
N16425 X-8.26 Y16.628
N16430 X-8.302 Y16.707
N16435 X-8.304 Y16.709
N16440 X-8.572 Y17.221
N16445 X-9.731 Y16.583
N16450 X-10.028 Y16.42
N16455 X-10.029
N16460 X-10.34 Y16.249
N16465 X-10.664 Y16.073
N16470 X-10.999 Y15.891
N16475 Y15.89
N16480 X-11.696 Y15.513
N16485 X-12.419 Y15.123
N16490 X-12.42 Y15.122
N16495 X-13.895 Y14.331
N16500 X-14.494 Y14.011
N16505 X-14.443 Y14.
N16510 X-14.409 Y13.988
N16515 X-14.369 Y13.969
N16520 X-14.33 Y13.946
N16525 X-14.307 Y13.93
N16530 X-14.264 Y13.896
N16535 X-14.251 Y13.884
N16540 X-14.201 Y13.839
N16545 X-14.193 Y13.831
N16550 X-14.137 Y13.775
N16555 X-14.133 Y13.77
N16560 X-14.09 Y13.724
N16565 X-14.056 Y13.758
N16570 X-14.016 Y13.784
N16575 X-12.423 Y14.598
N16580 X-12.101 Y14.775
N16585 X-11.792 Y14.955
N16590 X-11.504 Y15.132
N16595 X-11.244 Y15.3
N16600 X-11.128 Y15.379
N16605 X-11.021 Y15.454
N16610 X-10.926 Y15.524
N16615 X-10.843 Y15.588
N16620 X-10.773 Y15.645
N16625 X-10.72 Y15.693
N16630 X-10.685 Y15.729
N16635 X-10.663 Y15.757
N16640 X-10.604 Y15.841
N16645 X-10.584 Y15.866
N16650 X-10.524 Y15.929
N16655 X-10.481 Y15.964
N16660 X-10.423 Y16.001
N16665 X-10.384 Y16.021
N16670 X-10.343 Y16.032
N16675 X-10.285 Y16.043
N16680 X-10.234 Y16.046
N16685 X-10.183 Y16.037
N16690 X-10.126 Y16.02
N16695 X-10.088 Y16.006
N16700 X-10.054 Y15.984
N16705 X-9.995 Y15.94
N16710 X-9.959 Y15.905
N16715 X-9.899 Y15.833
N16720 X-9.881 Y15.807
N16725 X-9.825 Y15.717
N16730 X-9.785 Y15.666
N16735 X-9.734 Y15.626
N16740 X-9.659 Y15.587
N16745 X-9.563 Y15.555
N16750 X-9.454 Y15.532
N16755 X-9.336 Y15.521
N16760 X-9.215 Y15.523
N16765 X-9.1 Y15.537
N16770 X-9.012 Y15.561
N16775 X-8.998 Y15.564
N16780 X-8.904 Y15.583
N16785 X-8.885 Y15.586
N16790 X-8.8 Y15.596
N16795 X-8.773 Y15.597
N16800 X-8.696 Y15.596
N16805 X-8.661 Y15.593
N16810 X-8.591 Y15.581
N16815 X-8.549 Y15.569
N16820 X-8.487 Y15.545
N16825 X-8.446 Y15.524
N16830 X-8.389 Y15.488
N16835 X-8.354 Y15.46
N16840 X-8.303 Y15.41
N16845 X-8.278 Y15.382
N16850 X-8.231 Y15.317
N16855 X-8.215 Y15.292
N16860 X-8.172 Y15.213
N16865 X-8.162 Y15.193
N16870 X-8.121 Y15.097
N16875 X-8.116 Y15.082
N16880 X-8.077 Y14.97
N16885 X-8.074 Y14.959
N16890 X-8.036 Y14.829
N16895 X-8.034 Y14.821
N16900 X-7.998 Y14.673
N16905 X-7.996 Y14.667
N16910 X-7.96 Y14.5
N16915 X-7.959 Y14.496
N16920 X-7.921 Y14.309
N16925 X-7.92 Y14.3
N16930 X-7.877 Y14.04
N16935 X-7.829 Y13.77
N16940 X-7.718 Y13.224
N16945 X-7.662 Y12.967
N16950 X-7.607 Y12.729
N16955 X-7.558 Y12.52
N16960 X-7.536 Y12.43
N16965 X-7.516 Y12.348
N16970 X-7.514 Y12.342
N16975 X-7.345 Y11.561
N16980 G2 X-7.563 Y11.29 I-0.218 J-0.047
N16985 G1 X-12.76
N16990 X-12.761
N16995 X-17.992 Y11.324
N17000 G2 X-18.078 Y11.753 I0.001 J0.223
N17005 G1 X-16.487 Y12.43
N17010 X-16.173 Y12.583
N17015 X-15.878 Y12.745
N17020 X-15.608 Y12.91
N17025 X-15.37 Y13.074
N17030 X-15.268 Y13.152
N17035 X-15.176 Y13.228
N17040 X-15.096 Y13.3
N17045 X-15.029 Y13.367
N17050 X-14.977 Y13.427
N17055 X-14.941 Y13.478
N17060 X-14.921 Y13.514
N17065 X-14.91 Y13.546
N17070 X-14.894 Y13.614
N17075 X-14.892 Y13.621
N17080 X-14.873 Y13.687
N17085 X-14.869 Y13.7
N17090 X-14.85 Y13.755
N17095 X-14.842 Y13.774
N17100 X-14.822 Y13.818
N17105 X-14.809 Y13.844
N17110 X-14.754 Y13.892 Z-1.009
N17115 X-14.721 Y13.916 Z-1.
N17120 X-14.754 Y13.892 Z-1.009
N17125 X-14.809 Y13.844 Z-1.04
N17130 X-15.33 Y13.567
N17135 X-15.671 Y13.386
N17140 X-16.002 Y13.211
N17145 X-16.003
N17150 X-16.322 Y13.043
N17155 X-16.629 Y12.882
N17160 X-16.921 Y12.73
N17165 Y12.729
N17170 X-17.196 Y12.586
N17175 X-17.197
N17180 X-17.455 Y12.452
N17185 X-17.694 Y12.329
N17190 X-17.695 Y12.328
N17195 X-17.913 Y12.217
N17200 X-17.914
N17205 X-18.11 Y12.117
N17210 X-18.111
N17215 X-18.284 Y12.03
N17220 X-18.285
N17225 X-18.433 Y11.957
N17230 X-18.435 Y11.956
N17235 X-18.556 Y11.899
N17240 X-18.56 Y11.897
N17245 X-18.652 Y11.855
N17250 X-18.66 Y11.851
N17255 X-18.723 Y11.825
N17260 X-18.749 Y11.817
N17265 X-18.777 Y11.809
N17270 X-18.798 Y11.802
N17275 X-18.8
N17280 X-18.836 Y11.791
N17285 X-18.837 Y11.79
N17290 X-18.884 Y11.776
N17295 X-18.941 Y11.759
N17300 X-19.08 Y11.718
N17305 X-19.249 Y11.666
N17310 X-19.444 Y11.604
N17315 X-19.658 Y11.534
N17320 X-19.886 Y11.457
N17325 X-20.123 Y11.371
N17330 X-20.135 Y11.368
N17335 X-20.203 Y11.347
N17340 X-20.207 Y11.346
N17345 X-20.29 Y11.323
N17350 X-20.293 Y11.322
N17355 X-20.39 Y11.297
N17360 X-20.392 Y11.296
N17365 X-20.503 Y11.269
N17370 X-20.505 Y11.268
N17375 X-20.628 Y11.238
N17380 X-20.63
N17385 X-20.766 Y11.206
N17390 X-20.768
N17395 X-20.916 Y11.172
N17400 X-20.918
N17405 X-21.078 Y11.136
N17410 X-21.079
N17415 X-21.251 Y11.098
N17420 X-21.252
N17425 X-21.435 Y11.058
N17430 X-21.436
N17435 X-21.63 Y11.017
N17440 X-21.834 Y10.974
N17445 X-22.27 Y10.884
N17450 X-22.271
N17455 X-22.74 Y10.789
N17460 X-22.741
N17465 X-23.087 Y10.721
N17470 X-22.741 Y10.789
N17475 X-22.74
N17480 X-22.271 Y10.884
N17485 X-22.27
N17490 X-21.834 Y10.974
N17495 X-21.63 Y11.017
N17500 X-21.436 Y11.058
N17505 X-21.435
N17510 X-21.252 Y11.098
N17515 X-21.251
N17520 X-21.079 Y11.136
N17525 X-21.078
N17530 X-20.918 Y11.172
N17535 X-20.916
N17540 X-20.768 Y11.206
N17545 X-20.766
N17550 X-20.63 Y11.238
N17555 X-20.628
N17560 X-20.505 Y11.268
N17565 X-20.503 Y11.269
N17570 X-20.392 Y11.296
N17575 X-20.39 Y11.297
N17580 X-20.293 Y11.322
N17585 X-20.29 Y11.323
N17590 X-20.207 Y11.346
N17595 X-20.203 Y11.347
N17600 X-20.135 Y11.368
N17605 X-20.123 Y11.371
N17610 X-19.886 Y11.457
N17615 X-19.658 Y11.534
N17620 X-19.444 Y11.604
N17625 X-19.249 Y11.666
N17630 X-19.08 Y11.718
N17635 X-18.941 Y11.759
N17640 X-18.884 Y11.776
N17645 X-18.837 Y11.79
N17650 X-18.836 Y11.791
N17655 X-18.8 Y11.802
N17660 X-18.798
N17665 X-18.777 Y11.809
N17670 X-18.749 Y11.817
N17675 X-18.723 Y11.825
N17680 X-18.66 Y11.851
N17685 X-18.652 Y11.855
N17690 X-18.56 Y11.897
N17695 X-18.556 Y11.899
N17700 X-18.435 Y11.956
N17705 X-18.433 Y11.957
N17710 X-18.285 Y12.03
N17715 X-18.284
N17720 X-18.111 Y12.117
N17725 X-18.11
N17730 X-17.914 Y12.217
N17735 X-17.913
N17740 X-17.695 Y12.328
N17745 X-17.694 Y12.329
N17750 X-17.455 Y12.452
N17755 X-17.197 Y12.586
N17760 X-17.196
N17765 X-16.921 Y12.729
N17770 Y12.73
N17775 X-16.629 Y12.882
N17780 X-16.322 Y13.043
N17785 X-16.003 Y13.211
N17790 X-16.002
N17795 X-15.671 Y13.386
N17800 X-15.33 Y13.567
N17805 X-14.809 Y13.844
N17810 X-14.822 Y13.818
N17815 X-14.842 Y13.774
N17820 X-14.85 Y13.755
N17825 X-14.869 Y13.7
N17830 X-14.873 Y13.687
N17835 X-14.892 Y13.621
N17840 X-14.894 Y13.614
N17845 X-14.91 Y13.546
N17850 X-14.921 Y13.514
N17855 X-14.941 Y13.478
N17860 X-14.977 Y13.427
N17865 X-15.029 Y13.367
N17870 X-15.096 Y13.3
N17875 X-15.176 Y13.228
N17880 X-15.268 Y13.152
N17885 X-15.37 Y13.074
N17890 X-15.608 Y12.91
N17895 X-15.878 Y12.745
N17900 X-16.173 Y12.583
N17905 X-16.487 Y12.43
N17910 X-18.078 Y11.753
N17915 G3 X-17.992 Y11.324 I0.087 J-0.205
N17920 G1 X-12.761 Y11.29
N17925 X-12.76
N17930 X-7.563
N17935 G3 X-7.345 Y11.561 I0. J0.223
N17940 G1 X-7.514 Y12.342
N17945 X-7.516 Y12.348
N17950 X-7.536 Y12.43
N17955 X-7.558 Y12.52
N17960 X-7.607 Y12.729
N17965 X-7.662 Y12.967
N17970 X-7.718 Y13.224
N17975 X-7.829 Y13.77
N17980 X-7.877 Y14.04
N17985 X-7.92 Y14.3
N17990 X-7.921 Y14.309
N17995 X-7.959 Y14.496
N18000 X-7.96 Y14.5
N18005 X-7.996 Y14.667
N18010 X-7.998 Y14.673
N18015 X-8.034 Y14.821
N18020 X-8.036 Y14.829
N18025 X-8.074 Y14.959
N18030 X-8.077 Y14.97
N18035 X-8.116 Y15.082
N18040 X-8.121 Y15.097
N18045 X-8.162 Y15.193
N18050 X-8.172 Y15.213
N18055 X-8.215 Y15.292
N18060 X-8.231 Y15.317
N18065 X-8.278 Y15.382
N18070 X-8.303 Y15.41
N18075 X-8.354 Y15.46
N18080 X-8.389 Y15.488
N18085 X-8.446 Y15.524
N18090 X-8.487 Y15.545
N18095 X-8.549 Y15.569
N18100 X-8.591 Y15.581
N18105 X-8.661 Y15.593
N18110 X-8.696 Y15.596
N18115 X-8.773 Y15.597
N18120 X-8.8 Y15.596
N18125 X-8.885 Y15.586
N18130 X-8.904 Y15.583
N18135 X-8.998 Y15.564
N18140 X-9.012 Y15.561
N18145 X-9.1 Y15.537
N18150 X-9.215 Y15.523
N18155 X-9.336 Y15.521
N18160 X-9.454 Y15.532
N18165 X-9.563 Y15.555
N18170 X-9.659 Y15.587
N18175 X-9.734 Y15.626
N18180 X-9.785 Y15.666
N18185 X-9.825 Y15.717
N18190 X-9.881 Y15.807
N18195 X-9.899 Y15.833
N18200 X-9.959 Y15.905
N18205 X-9.995 Y15.94
N18210 X-10.054 Y15.984
N18215 X-10.088 Y16.006
N18220 X-10.126 Y16.02
N18225 X-10.183 Y16.037
N18230 X-10.234 Y16.046
N18235 X-10.285 Y16.043
N18240 X-10.343 Y16.032
N18245 X-10.384 Y16.021
N18250 X-10.423 Y16.001
N18255 X-10.481 Y15.964
N18260 X-10.524 Y15.929
N18265 X-10.584 Y15.866
N18270 X-10.604 Y15.841
N18275 X-10.663 Y15.757
N18280 X-10.685 Y15.729
N18285 X-10.72 Y15.693
N18290 X-10.773 Y15.645
N18295 X-10.843 Y15.588
N18300 X-10.926 Y15.524
N18305 X-11.021 Y15.454
N18310 X-11.128 Y15.379
N18315 X-11.244 Y15.3
N18320 X-11.504 Y15.132
N18325 X-11.792 Y14.955
N18330 X-12.101 Y14.775
N18335 X-12.423 Y14.598
N18340 X-14.016 Y13.784
N18345 X-14.056 Y13.758
N18350 X-14.09 Y13.724
N18355 X-14.087 Y13.687 Z-1.
N18360 X-14.09 Y13.724 Z-1.04
N18365 X-14.133 Y13.77
N18370 X-14.137 Y13.775
N18375 X-14.193 Y13.831
N18380 X-14.201 Y13.839
N18385 X-14.251 Y13.884
N18390 X-14.264 Y13.896
N18395 X-14.307 Y13.93
N18400 X-14.33 Y13.946
N18405 X-14.369 Y13.969
N18410 X-14.409 Y13.988
N18415 X-14.443 Y14.
N18420 X-14.494 Y14.011
N18425 X-14.512 Y14.007 Z-1.031
N18430 X-14.562 Y13.995 Z-1.009
N18435 X-14.59 Y13.985 Z-1.
N18440 X-14.562 Y13.995 Z-1.009
N18445 X-14.512 Y14.007 Z-1.031
N18450 X-14.494 Y14.011 Z-1.04
N18455 X-13.895 Y14.331
N18460 X-12.42 Y15.122
N18465 X-12.419 Y15.123
N18470 X-11.696 Y15.513
N18475 X-10.999 Y15.89
N18480 Y15.891
N18485 X-10.664 Y16.073
N18490 X-10.34 Y16.249
N18495 X-10.029 Y16.42
N18500 X-10.028
N18505 X-9.731 Y16.583
N18510 X-8.572 Y17.221
N18515 X-8.562 Y17.252 Z-1.001
N18520 X-8.572 Y17.221 Z-1.04
N18525 X-8.304 Y16.709
N18530 X-8.302 Y16.707
N18535 X-8.26 Y16.628
N18540 X-8.218 Y16.538
N18545 X-8.173 Y16.433
N18550 X-8.127 Y16.315
N18555 X-8.03 Y16.041
N18560 X-7.933 Y15.733
N18565 X-7.837 Y15.4
N18570 X-7.744 Y15.052
N18575 X-7.576 Y14.352
N18580 X-7.52 Y14.087
N18585 Y14.086
N18590 X-7.465 Y13.832
N18595 X-7.464 Y13.83
N18600 X-7.41 Y13.589
N18605 Y13.587
N18610 X-7.356 Y13.358
N18615 Y13.356
N18620 X-7.303 Y13.139
N18625 Y13.137
N18630 X-7.251 Y12.932
N18635 X-7.25 Y12.93
N18640 X-7.199 Y12.736
N18645 X-7.198 Y12.733
N18650 X-7.147 Y12.551
N18655 X-7.146 Y12.547
N18660 X-7.095 Y12.376
N18665 X-7.094 Y12.372
N18670 X-7.043 Y12.212
N18675 X-7.042 Y12.207
N18680 X-6.991 Y12.057
N18685 X-6.989 Y12.052
N18690 X-6.938 Y11.912
N18695 X-6.934 Y11.903
N18700 X-6.831 Y11.652
N18705 X-6.824 Y11.638
N18710 X-6.718 Y11.423
N18715 X-6.708 Y11.406
N18720 X-6.598 Y11.225
N18725 X-6.584 Y11.204
N18730 X-6.468 Y11.055
N18735 X-6.448 Y11.033
N18740 X-6.326 Y10.913
N18745 X-6.299 Y10.891
N18750 X-6.17 Y10.799
N18755 X-6.138 Y10.78
N18760 X-6. Y10.712
N18765 X-5.967 Y10.7
N18770 X-5.819 Y10.654
N18775 X-5.807 Y10.651
N18780 X-5.629 Y10.627 Z-1.03
N18785 X-5.461 Y10.613 Z-1.039
N18790 X-5.453 Y10.612 Z-1.04
N18795 X-5.433 Y10.611
N18800 X-5.432
N18805 X-5.27 Y10.604
N18810 X-5.131 Y10.585
N18815 X-5.01 Y10.556
N18820 X-4.911 Y10.52
N18825 X-4.841 Y10.482
N18830 X-4.827 Y10.47
N18835 X-4.796 Y10.46 Z-1.02
N18840 X-4.779 Y10.452 Z-1.004
N18845 Y10.451
N18850 X-4.778
N18855 X-4.777 Y10.45 Z-1.
N18860 X-4.778 Y10.451 Z-1.004
N18865 X-4.779
N18870 Y10.452
N18875 X-4.796 Y10.46 Z-1.02
N18880 X-4.827 Y10.47 Z-1.04
N18885 X-4.88 Y10.475
N18890 X-4.965 Y10.496
N18895 X-5.077 Y10.535
N18900 X-5.083 Y10.537
N18905 X-5.138 Y10.555
N18910 X-5.156 Y10.56
N18915 X-5.231 Y10.576
N18920 X-5.242 Y10.578
N18925 X-5.336 Y10.595
N18930 X-5.343 Y10.596
N18935 X-5.453 Y10.612
N18940 G0 Z5.
N18945 X-14.221 Y12.885
N18950 Z4.
N18955 G1 Z-1.001 F333.33
N18960 X-14.202 Y12.865 Z-1.031 F1200.
N18965 X-14.197 Y12.858 Z-1.04
N18970 X-14.154 Y12.844
N18975 X-14.095 Y12.815
N18980 X-14.066 Y12.795
N18985 X-14.052 Y12.787
N18990 X-14.017 Y12.767
N18995 X-13.98 Y12.749
N19000 X-13.929 Y12.732
N19005 X-13.875 Y12.72
N19010 X-13.82 Y12.722
N19015 X-13.767 Y12.737
N19020 X-13.742 Y12.748
N19025 X-13.697 Y12.774
N19030 X-13.659 Y12.809
N19035 X-13.63 Y12.853
N19040 X-13.613 Y12.902
N19045 X-13.607 Y12.953
N19050 Y12.991
N19055 X-13.611 Y13.033
N19060 X-13.623 Y13.074
N19065 X-13.648 Y13.138
N19070 X-13.662 Y13.167
N19075 X-13.713 Y13.254
N19080 X-13.723 Y13.269
N19085 X-13.785 Y13.358
N19090 X-13.821 Y13.378 Z-1.009
N19095 X-13.831 Y13.383 Z-1.
N19100 X-13.821 Y13.378 Z-1.009
N19105 X-13.785 Y13.358 Z-1.04
N19110 X-12.8 Y13.329
N19115 X-12.797 Y13.328
N19120 X-12.665 Y13.326
N19125 X-12.547 Y13.321
N19130 X-12.44 Y13.312
N19135 X-12.347 Y13.299
N19140 X-12.186 Y13.264
N19145 X-12.072 Y13.22
N19150 X-12.001 Y13.174
N19155 X-11.962 Y13.13
N19160 X-11.94 Y13.079
N19165 X-11.931 Y13.006
N19170 X-11.937 Y12.947
N19175 X-11.952 Y12.903
N19180 X-11.972 Y12.872
N19185 X-11.998 Y12.847
N19190 X-12.035 Y12.828
N19195 X-12.086 Y12.814
N19200 X-12.155 Y12.81
N19205 X-12.258 Y12.822
N19210 X-12.271 Y12.823
N19215 X-12.404 Y12.831
N19220 X-12.419
N19225 X-12.56 Y12.83
N19230 X-12.58 Y12.829
N19235 X-12.866 Y12.801
N19240 X-12.887 Y12.798
N19245 X-13.023 Y12.772
N19250 X-13.039 Y12.768
N19255 X-13.164 Y12.735
N19260 X-13.184 Y12.728
N19265 X-13.293 Y12.687
N19270 X-13.321 Y12.674
N19275 X-13.408 Y12.627
N19280 X-13.492 Y12.584
N19285 X-13.565 Y12.555
N19290 X-13.638 Y12.537
N19295 X-13.71 Y12.527
N19300 X-13.779 Y12.526
N19305 X-13.846 Y12.533
N19310 X-13.908 Y12.547
N19315 X-13.966 Y12.568
N19320 X-14.018 Y12.594
N19325 X-14.065 Y12.626
N19330 X-14.105 Y12.663
N19335 X-14.138 Y12.703
N19340 X-14.164 Y12.747
N19345 X-14.184 Y12.795
N19350 X-14.196 Y12.847
N19355 X-14.197 Y12.858
N19360 G0 Z5.
N19365 X-7.623 Y19.763
N19370 Z4.
N19375 G1 Z-1. F333.33
N19380 X-7.552 Y19.633 Z-1.04 F1200.
N19385 X-7.218 Y19.203
N19390 X-7.19 Y19.192 Z-1.015
N19395 X-7.176 Y19.188 Z-1.
N19400 X-7.19 Y19.192 Z-1.015
N19405 X-7.218 Y19.203 Z-1.04
N19410 X-7.237 Y19.205
N19415 X-7.26 Y19.211
N19420 X-7.287 Y19.224
N19425 X-7.321 Y19.248
N19430 X-7.361 Y19.287
N19435 X-7.404 Y19.341
N19440 X-7.45 Y19.413
N19445 X-7.497 Y19.502
N19450 X-7.543 Y19.61
N19455 X-7.552 Y19.633
N19460 G0 Z5.
N19465 X-6.751 Y19.766
N19470 Z4.
N19475 G1 Z-1. F333.33
N19480 X-6.728 Y19.889 Z-1.04 F1200.
N19485 Y20.445
N19490 X-6.723 Y20.689
N19495 X-6.71 Y20.943
N19500 X-6.688 Y21.199
N19505 X-6.658 Y21.448
N19510 X-6.621 Y21.681
N19515 X-6.593 Y21.811
N19520 X-6.586 Y21.917 Z-1.01
N19525 X-6.584 Y21.946 Z-1.
N19530 X-6.586 Y21.917 Z-1.01
N19535 X-6.593 Y21.811 Z-1.04
N19540 X-6.589 Y21.769
N19545 X-6.575 Y21.603
N19550 X-6.562 Y21.421
N19555 X-6.551 Y21.066
N19560 X-6.565 Y20.734
N19565 X-6.601 Y20.425
N19570 X-6.656 Y20.143
N19575 X-6.727 Y19.89
N19580 X-6.728 Y19.889
N19585 G0 Z5.
N19590 X-8.768 Y20.812
N19595 Z4.
N19600 G1 Z-1. F333.33
N19605 X-8.763 Y20.806 Z-1.013 F1200.
N19610 X-8.753 Y20.788 Z-1.04
N19615 X-8.733 Y20.785
N19620 X-8.68 Y20.767
N19625 X-8.608 Y20.732
N19630 X-8.523 Y20.678
N19635 X-8.426 Y20.607
N19640 X-8.356 Y20.548
N19645 X-8.254 Y20.487 Z-1.
N19650 X-8.356 Y20.548 Z-1.04
N19655 X-8.38 Y20.552
N19660 X-8.484 Y20.566
N19665 X-8.496 Y20.568
N19670 X-8.577 Y20.574
N19675 X-8.634 Y20.587
N19680 X-8.681 Y20.607
N19685 X-8.719 Y20.63
N19690 X-8.745 Y20.654
N19695 X-8.759 Y20.673
N19700 X-8.763 Y20.683
N19705 X-8.765 Y20.694
N19710 X-8.761 Y20.755
N19715 X-8.753 Y20.788
N19720 G0 Z5.
N19725 X-5.906 Y19.12
N19730 Z4.
N19735 G1 Z-1. F333.33
N19740 X-5.907 Y19.094 Z-1.04 F1200.
N19745 X-5.921 Y19.086
N19750 X-5.965 Y19.046
N19755 X-6.019 Y18.982
N19760 X-6.076 Y18.895
N19765 X-6.13 Y18.796
N19770 X-6.231 Y18.556
N19775 X-6.302 Y18.304
N19780 X-6.323 Y18.189
N19785 X-6.334 Y18.081
N19790 X-6.335 Y17.991
N19795 X-6.327 Y17.925
N19800 X-6.316 Y17.892
N19805 X-6.296 Y17.862
N19810 X-6.277 Y17.838
N19815 X-6.243 Y17.797
N19820 X-6.198 Y17.744
N19825 X-6.142 Y17.679
N19830 X-6.077 Y17.603
N19835 X-6.004 Y17.518
N19840 X-5.923 Y17.425
N19845 X-5.835 Y17.323
N19850 X-5.643 Y17.1
N19855 X-5.642 Y17.099
N19860 X-5.432 Y16.852
N19865 X-5.431 Y16.851
N19870 X-5.208 Y16.587
N19875 X-5.207 Y16.585
N19880 X-4.979 Y16.309
N19885 X-4.978 Y16.308
N19890 X-4.712 Y15.983
N19895 X-4.459 Y15.676
N19900 X-4.219 Y15.386
N19905 X-3.993 Y15.112
N19910 X-3.779 Y14.856
N19915 X-3.577 Y14.615
N19920 X-3.387 Y14.39
N19925 X-3.207 Y14.18
N19930 X-3.038 Y13.985
N19935 X-2.88 Y13.804
N19940 X-2.731 Y13.638
N19945 X-2.591 Y13.485
N19950 X-2.46 Y13.345
N19955 X-2.337 Y13.218
N19960 X-2.223 Y13.104
N19965 X-2.116 Y13.001
N19970 X-2.016 Y12.911
N19975 X-1.923 Y12.831
N19980 X-1.837 Y12.763
N19985 X-1.76 Y12.707
N19990 X-1.617 Y12.619
N19995 X-1.5 Y12.567
N20000 X-1.4 Y12.541
N20005 X-1.308 Y12.535
N20010 X-1.215 Y12.547
N20015 X-1.099 Y12.578
N20020 X-1.098
N20025 X-0.897 Y12.632
N20030 X-0.886 Y12.635
N20035 X-0.666 Y12.682
N20040 X-0.657 Y12.684
N20045 X-0.421 Y12.725
N20050 X-0.413 Y12.727
N20055 X-0.163 Y12.761
N20060 X-0.156 Y12.762
N20065 X0.106 Y12.79
N20070 X0.112 Y12.791
N20075 X0.382 Y12.812
N20080 X0.39 Y12.813
N20085 X0.946 Y12.836
N20090 X0.957
N20095 X1.515 Y12.832
N20100 X1.527
N20105 X2.068 Y12.8
N20110 X2.077
N20115 X2.335 Y12.773
N20120 X2.342 Y12.772
N20125 X2.442 Y12.759
N20130 X2.464 Y12.75 Z-1.027
N20135 X2.511 Y12.732 Z-1.009
N20140 X2.533 Y12.725 Z-1.001
N20145 X2.538 Y12.724 Z-1.
N20150 X2.533 Y12.725 Z-1.001
N20155 X2.511 Y12.732 Z-1.009
N20160 X2.464 Y12.75 Z-1.027
N20165 X2.442 Y12.759 Z-1.04
N20170 X2.416 Y12.79
N20175 X2.404 Y12.806
N20180 X2.383 Y12.842
N20185 X2.369 Y12.881
N20190 X2.363 Y12.922
N20195 X2.362 Y12.941
N20200 X2.364 Y12.992
N20205 X2.379 Y13.041
N20210 X2.388 Y13.063
N20215 X2.418 Y13.114
N20220 X2.437 Y13.139
N20225 X2.46 Y13.164
N20230 X2.49 Y13.192
N20235 X2.505 Y13.205
N20240 X2.545 Y13.237
N20245 X2.556 Y13.245
N20250 X2.606 Y13.28
N20255 X2.614 Y13.285
N20260 X2.675 Y13.323
N20265 X2.68 Y13.327
N20270 X2.743 Y13.365
N20275 X2.84 Y13.434
N20280 X2.922 Y13.509
N20285 X2.994 Y13.593
N20290 X3.057 Y13.686
N20295 X3.111 Y13.791
N20300 X3.156 Y13.907
N20305 X3.192 Y14.036
N20310 X3.218 Y14.178
N20315 X3.234 Y14.333
N20320 X3.241 Y14.501
N20325 X3.239 Y14.589
N20330 X3.254 Y14.656 Z-1.009
N20335 X3.259 Y14.683 Z-1.001
N20340 Y14.685 Z-1.
N20345 Y14.683 Z-1.001
N20350 X3.254 Y14.656 Z-1.009
N20355 X3.239 Y14.589 Z-1.04
N20360 X3.194 Y14.508
N20365 X3.177 Y14.482
N20370 X3.08 Y14.353
N20375 X3.066 Y14.335
N20380 X2.94 Y14.199
N20385 X2.927 Y14.186
N20390 X2.772 Y14.042
N20395 X2.762 Y14.033
N20400 X2.577 Y13.88
N20405 X2.569 Y13.874
N20410 X2.354 Y13.713
N20415 X2.347 Y13.708
N20420 X2.177 Y13.59
N20425 X2.171 Y13.585
N20430 X2.016 Y13.486
N20435 X2.007 Y13.48
N20440 X1.867 Y13.399
N20445 X1.855 Y13.393
N20450 X1.73 Y13.33
N20455 X1.712 Y13.322
N20460 X1.602 Y13.279
N20465 X1.575 Y13.27
N20470 X1.479 Y13.246
N20475 X1.438 Y13.239
N20480 X1.356 Y13.234
N20485 X1.297 Y13.238
N20490 X1.229 Y13.252
N20495 X1.192 Y13.263
N20500 X1.158 Y13.28
N20505 X1.102 Y13.314
N20510 X1.071 Y13.337
N20515 X1.044 Y13.365
N20520 X1.001 Y13.418
N20525 X0.983 Y13.444
N20530 X0.969 Y13.472
N20535 X0.939 Y13.545
N20540 X0.926 Y13.588
N20545 X0.908 Y13.681
N20550 X0.904 Y13.711
N20555 X0.897 Y13.824
N20560 Y13.845
N20565 X0.902 Y13.979
N20570 X0.903 Y13.994
N20575 X0.919 Y14.147
N20580 X0.92 Y14.158
N20585 X0.926 Y14.198
N20590 X0.953 Y14.224 Z-1.
N20595 X0.926 Y14.198 Z-1.04
N20600 X0.915 Y14.197
N20605 X0.848 Y14.183
N20610 X0.761 Y14.154
N20615 X0.73 Y14.147
N20620 X0.625 Y14.129
N20625 X0.587 Y14.125
N20630 X0.548 Y14.129
N20635 X0.439 Y14.148
N20640 X0.383 Y14.166
N20645 X0.272 Y14.219
N20650 X0.235 Y14.241
N20655 X0.124 Y14.323
N20660 X0.1 Y14.343
N20665 X-0.009 Y14.45
N20670 X-0.026 Y14.468
N20675 X-0.13 Y14.597
N20680 X-0.142 Y14.613
N20685 X-0.24 Y14.759
N20690 X-0.25 Y14.774
N20695 X-0.339 Y14.932
N20700 X-0.347 Y14.947
N20705 X-0.425 Y15.115
N20710 X-0.432 Y15.131
N20715 X-0.498 Y15.304
N20720 X-0.503 Y15.32
N20725 X-0.554 Y15.494
N20730 X-0.559 Y15.514
N20735 X-0.592 Y15.685
N20740 X-0.596 Y15.709
N20745 X-0.61 Y15.873
N20750 X-0.611 Y15.903
N20755 X-0.603 Y16.056
N20760 X-0.598 Y16.094
N20765 X-0.588 Y16.14
N20770 X-0.543 Y16.25 Z-1.007
N20775 X-0.533 Y16.271 Z-1.005
N20780 X-0.507 Y16.32 Z-1.
N20785 X-0.533 Y16.271 Z-1.005
N20790 X-0.543 Y16.25 Z-1.007
N20795 X-0.588 Y16.14 Z-1.04
N20800 X-0.589
N20805 X-0.676 Y15.972
N20810 X-0.743 Y15.817
N20815 X-0.786 Y15.685
N20820 X-0.804 Y15.58
N20825 Y15.554
N20830 Y15.551
N20835 X-0.825 Y15.536 Z-1.
N20840 X-0.804 Y15.551 Z-1.04
N20845 X-0.774 Y15.533
N20850 X-0.698 Y15.478
N20855 X-0.66 Y15.442
N20860 X-0.586 Y15.357
N20865 X-0.565 Y15.328
N20870 X-0.496 Y15.216
N20875 X-0.484 Y15.193
N20880 X-0.422 Y15.059
N20885 X-0.414 Y15.038
N20890 X-0.361 Y14.887
N20895 X-0.356 Y14.867
N20900 X-0.315 Y14.703
N20905 X-0.312 Y14.683
N20910 X-0.286 Y14.509
N20915 X-0.283 Y14.488
N20920 X-0.274 Y14.31
N20925 Y14.297
N20930 X-0.275 Y14.171
N20935 Y14.167
N20940 X-0.278 Y14.055
N20945 Y14.049
N20950 X-0.282 Y13.951
N20955 X-0.283 Y13.944
N20960 X-0.29 Y13.859
N20965 X-0.291 Y13.848
N20970 X-0.3 Y13.777
N20975 X-0.303 Y13.761
N20980 X-0.314 Y13.704
N20985 X-0.321 Y13.679
N20990 X-0.336 Y13.635
N20995 X-0.354 Y13.594
N21000 X-0.372 Y13.563
N21005 X-0.394 Y13.531
N21010 X-0.422 Y13.503
N21015 X-0.443 Y13.486
N21020 X-0.491 Y13.455
N21025 X-0.546 Y13.438
N21030 X-0.57 Y13.433
N21035 X-0.623 Y13.43
N21040 X-0.675 Y13.44
N21045 X-0.703 Y13.448
N21050 X-0.734 Y13.46
N21055 X-0.762 Y13.476
N21060 X-0.794 Y13.498
N21065 X-0.823 Y13.521
N21070 X-0.858 Y13.555
N21075 X-0.874 Y13.571
N21080 X-0.913 Y13.617
N21085 X-0.922 Y13.628
N21090 X-0.96 Y13.678
N21095 X-0.966 Y13.698 Z-1.028
N21100 X-0.979 Y13.745 Z-1.
N21105 X-0.966 Y13.698 Z-1.028
N21110 X-0.96 Y13.678 Z-1.04
N21115 X-0.961 Y13.656
N21120 X-0.966 Y13.624
N21125 X-0.987 Y13.522
N21130 X-0.999 Y13.485
N21135 X-1.032 Y13.401
N21140 X-1.054 Y13.359
N21145 X-1.098 Y13.295
N21150 X-1.117 Y13.271
N21155 X-1.138 Y13.25
N21160 X-1.19 Y13.206
N21165 X-1.221 Y13.184
N21170 X-1.255 Y13.168
N21175 X-1.313 Y13.146
N21180 X-1.354 Y13.135
N21185 X-1.397 Y13.132
N21190 X-1.458 Y13.133
N21195 X-1.498 Y13.138
N21200 X-1.537 Y13.149
N21205 X-1.6 Y13.175
N21210 X-1.629 Y13.189
N21215 X-1.655 Y13.207
N21220 X-1.727 Y13.264
N21225 X-1.752 Y13.288
N21230 X-1.814 Y13.355
N21235 X-1.834 Y13.38
