%
O03434 (fase 2 )
(Using G0 which travels along dogleg path.)
(T1 D=20. CR=0.4 - ZMIN=-4.9 - fresa)
(T2 D=12. CR=0. - ZMIN=-12. - Fresa cilindrica)
(T7 D=8. CR=0. TAPER=45deg - ZMIN=-10. - utensile per smusso)
(T10 D=6. CR=3. - ZMIN=-11. - Ispezione)
N10 G90 G94 G17
N15 G21
N20 G53 G0 Z0.

(Spianatura3)
N25 T1 M6
N30 S5000 M3
N35 G17 G90 G94
N40 G54
N45 M8
N50 G0 X63. Y-36.43
N55 G43 Z15. H1
N60 T10
N65 G0 Z5.
N70 G1 Z1.1 F333.33
N75 G18 G3 X61. Z-0.9 I-2. K0. F1000.
N80 G1 X60.01
N85 X-60.01
N90 G17 G2 Y-22.995 I0. J6.718
N95 G1 X60.01
N100 G3 Y-9.56 I0. J6.718
N105 G1 X-60.01
N110 G2 Y3.875 I0. J6.718
N115 G1 X60.01
N120 G3 Y17.31 I0. J6.718
N125 G1 X-60.01
N130 G2 Y30.746 I0. J6.718
N135 G1 X60.01
N140 G18 G2 X62.01 Z1.1 I0. K2.
N145 G0 Z5.
N150 X63. Y-36.43
N155 G1 Z-0.9 F333.33
N160 G3 X61. Z-2.9 I-2. K0. F1000.
N165 G1 X60.01
N170 X-60.01
N175 G17 G2 Y-22.995 I0. J6.718
N180 G1 X60.01
N185 G3 Y-9.56 I0. J6.718
N190 G1 X-60.01
N195 G2 Y3.875 I0. J6.718
N200 G1 X60.01
N205 G3 Y17.31 I0. J6.718
N210 G1 X-60.01
N215 G2 Y30.746 I0. J6.718
N220 G1 X60.01
N225 G18 G2 X62.01 Z-0.9 I0. K2.
N230 G0 Z5.
N235 X63. Y-36.43
N240 G1 Z-2.9 F333.33
N245 G3 X61. Z-4.9 I-2. K0. F1000.
N250 G1 X60.01
N255 X-60.01
N260 G17 G2 Y-22.995 I0. J6.718
N265 G1 X60.01
N270 G3 Y-9.56 I0. J6.718
N275 G1 X-60.01
N280 G2 Y3.875 I0. J6.718
N285 G1 X60.01
N290 G3 Y17.31 I0. J6.718
N295 G1 X-60.01
N300 G2 Y30.746 I0. J6.718
N305 G1 X60.01
N310 G18 G2 X62.01 Z-2.9 I0. K2.
N315 G0 Z15.
N320 M9
N325 M5
N330 G53 G0 Z0.

(Spianatura3 2)
N335 M1
N340 T10 M6
N345 G17 G90 G94
N350 G54
N355 G0 X0. Y31.494
N360 G43 Z55. H10
N365 T2
N370 G65 P9832
N375 G65 P9810 Z5. F1000.
N380 G65 P9811 Z-5. Q10. S1.
N385 G65 P9810 Z5.
N390 G0 Z55.
N395 G65 P9833

(Spianatura3 3)
N400 G54
N405 G0 X0. Y0.
N410 G65 P9832
N415 G0 Z55.
N420 G65 P9810 Z5. F1000.
N425 G65 P9812 Z-11. X96. R12. Q10. S1.
N430 G65 P9812 Z-11. Y76. R12. Q10. S1.
N435 G65 P9810 Z5.
N440 G0 Z55.
N445 G65 P9833
N450 M5
N455 G53 G0 Z0.

(Spianatura3 4)
N460 M1
N465 T2 M6
N470 S6000 M3
N475 G17 G90 G94
N480 G54
N485 M8
N490 G0 X-50.939 Y-52.668
N495 G43 Z15. H2
N500 T7
N505 G0 Z5.
N510 Z-1.8
N515 G1 Z-3. F550.
N520 Z-5.
N525 G3 X-50. Y-46.135 I-29.678 J7.602
N530 G1 Y-45.896
N535 X-50.251 Y-44.665
N540 X-50.451 Y-43.425
N545 X-50.609 Y-42.18
N550 X-50.727 Y-41.001
N555 X-50.793 Y-40.615
N560 X-50.912 Y-40.242
N565 X-51.082 Y-39.889
N570 X-51.3 Y-39.564
N575 X-51.441 Y-39.382
N580 X-51.695 Y-39.022
N585 X-51.929 Y-38.683
N590 X-52.393 Y-37.943
N595 X-52.593 Y-37.583
N600 X-52.786 Y-37.224
N605 X-52.96 Y-36.864
N610 X-53.007 Y-36.75
N615 X-53.096 Y-36.504
N620 X-53.223 Y-36.145
N625 X-53.474 Y-35.425
N630 X-53.582 Y-35.066
N635 X-53.725 Y-34.513
N640 X-53.758 Y-34.347
N645 X-53.853 Y-33.627
N650 X-53.895 Y-33.268
N655 X-53.936 Y-32.908
N660 X-53.967 Y-32.548
N665 X-53.998 Y-31.829
N670 X-54. Y-31.469
N675 Y31.469
N680 X-53.998 Y31.829
N685 X-53.967 Y32.548
N690 X-53.936 Y32.908
N695 X-53.895 Y33.268
N700 X-53.853 Y33.627
N705 X-53.758 Y34.347
N710 X-53.725 Y34.513
N715 X-53.582 Y35.066
N720 X-53.474 Y35.425
N725 X-53.223 Y36.145
N730 X-53.096 Y36.504
N735 X-53.007 Y36.75
N740 X-52.96 Y36.864
N745 X-52.786 Y37.224
N750 X-52.593 Y37.583
N755 X-52.393 Y37.943
N760 X-51.929 Y38.683
N765 X-51.695 Y39.022
N770 X-51.441 Y39.382
N775 X-51.21 Y39.68
N780 X-51.154 Y39.741
N785 X-50.85 Y40.067
N790 X-50.097 Y40.82
N795 X-49.772 Y41.125
N800 X-49.712 Y41.18
N805 X-49.413 Y41.42
N810 X-48.73 Y41.899
N815 X-47.976 Y42.373
N820 X-47.616 Y42.576
N825 X-47.257 Y42.768
N830 X-46.897 Y42.946
N835 X-46.819 Y42.978
N840 X-46.538 Y43.085
N845 X-45.816 Y43.338
N850 X-45.46 Y43.462
N855 X-45.101 Y43.573
N860 X-44.619 Y43.697
N865 X-44.382 Y43.753
N870 X-43.663 Y43.848
N875 X-43.304 Y43.891
N880 X-42.944 Y43.932
N885 X-42.585 Y43.967
N890 X-41.866 Y43.996
N895 X-41.507 Y44.
N900 X41.507
N905 X41.866 Y43.996
N910 X42.585 Y43.967
N915 X42.944 Y43.932
N920 X43.304 Y43.891
N925 X43.663 Y43.848
N930 X44.382 Y43.753
N935 X44.619 Y43.697
N940 X45.101 Y43.573
N945 X45.46 Y43.462
N950 X46.179 Y43.211
N955 X46.538 Y43.085
N960 X46.819 Y42.978
N965 X46.897 Y42.946
N970 X47.257 Y42.768
N975 X47.616 Y42.576
N980 X47.976 Y42.373
N985 X48.73 Y41.899
N990 X49.413 Y41.42
N995 X49.712 Y41.18
N1000 X49.772 Y41.125
N1005 X50.097 Y40.82
N1010 X50.85 Y40.067
N1015 X51.154 Y39.741
N1020 X51.21 Y39.68
N1025 X51.441 Y39.382
N1030 X51.695 Y39.022
N1035 X51.929 Y38.683
N1040 X52.393 Y37.943
N1045 X52.593 Y37.583
N1050 X52.786 Y37.224
N1055 X52.96 Y36.864
N1060 X53.007 Y36.75
N1065 X53.096 Y36.504
N1070 X53.223 Y36.145
N1075 X53.474 Y35.425
N1080 X53.582 Y35.066
N1085 X53.725 Y34.513
N1090 X53.758 Y34.347
N1095 X53.853 Y33.627
N1100 X53.895 Y33.268
N1105 X53.936 Y32.908
N1110 X53.967 Y32.548
N1115 X53.998 Y31.829
N1120 X54. Y31.469
N1125 Y-31.469
N1130 X53.998 Y-31.829
N1135 X53.967 Y-32.548
N1140 X53.936 Y-32.908
N1145 X53.895 Y-33.268
N1150 X53.853 Y-33.627
N1155 X53.758 Y-34.347
N1160 X53.725 Y-34.513
N1165 X53.582 Y-35.066
N1170 X53.474 Y-35.425
N1175 X53.223 Y-36.145
N1180 X53.096 Y-36.504
N1185 X53.007 Y-36.75
N1190 X52.96 Y-36.864
N1195 X52.786 Y-37.224
N1200 X52.593 Y-37.583
N1205 X52.393 Y-37.943
N1210 X51.929 Y-38.683
N1215 X51.695 Y-39.022
N1220 X51.441 Y-39.382
N1225 X51.21 Y-39.68
N1230 X51.154 Y-39.741
N1235 X50.85 Y-40.067
N1240 X50.097 Y-40.82
N1245 X49.772 Y-41.125
N1250 X49.712 Y-41.18
N1255 X49.413 Y-41.42
N1260 X48.73 Y-41.899
N1265 X47.976 Y-42.373
N1270 X47.616 Y-42.576
N1275 X47.257 Y-42.768
N1280 X46.897 Y-42.946
N1285 X46.819 Y-42.978
N1290 X46.538 Y-43.085
N1295 X45.816 Y-43.338
N1300 X45.46 Y-43.462
N1305 X45.101 Y-43.573
N1310 X44.619 Y-43.697
N1315 X44.382 Y-43.753
N1320 X43.663 Y-43.848
N1325 X43.304 Y-43.891
N1330 X42.944 Y-43.932
N1335 X42.585 Y-43.967
N1340 X41.866 Y-43.996
N1345 X41.507 Y-44.
N1350 X-41.507
N1355 X-41.866 Y-43.996
N1360 X-42.585 Y-43.967
N1365 X-42.944 Y-43.932
N1370 X-43.304 Y-43.891
N1375 X-43.663 Y-43.848
N1380 X-44.382 Y-43.753
N1385 X-44.619 Y-43.697
N1390 X-45.101 Y-43.573
N1395 X-45.46 Y-43.462
N1400 X-46.179 Y-43.211
N1405 X-46.538 Y-43.085
N1410 X-46.819 Y-42.978
N1415 X-46.897 Y-42.946
N1420 X-47.257 Y-42.768
N1425 X-47.616 Y-42.576
N1430 X-47.976 Y-42.373
N1435 X-48.73 Y-41.899
N1440 X-49.413 Y-41.42
N1445 X-49.712 Y-41.18
N1450 X-49.772 Y-41.125
N1455 X-50.097 Y-40.82
N1460 X-50.85 Y-40.067
N1465 X-51.185 Y-39.708
N1470 X-51.21 Y-39.68
N1475 X-51.3 Y-39.564
N1480 G3 X-51.958 Y-39.161 I-0.922 J-0.768
N1485 G1 X-52.089 Y-39.132 Z-4.992
N1490 X-52.218 Y-39.102 Z-4.97
N1495 X-52.345 Y-39.074 Z-4.933
N1500 X-52.466 Y-39.047 Z-4.881
N1505 X-52.581 Y-39.021 Z-4.816
N1510 X-52.688 Y-38.996 Z-4.738
N1515 X-52.786 Y-38.974 Z-4.649
N1520 X-52.873 Y-38.955 Z-4.548
N1525 X-52.949 Y-38.938 Z-4.438
N1530 X-53.013 Y-38.923 Z-4.321
N1535 X-53.063 Y-38.912 Z-4.196
N1540 X-53.099 Y-38.904 Z-4.067
N1545 X-53.121 Y-38.899 Z-3.934
N1550 X-53.129 Y-38.897 Z-3.8
N1555 G0 Z15.

(Spianatura3 5)
N1560 G0 X-12.134 Y-0.709
N1565 G0 Z15.
N1570 Z5.
N1575 Z2.55
N1580 G3 X-3.717 Y-5.291 Z2.159 I5.842 J0.709 F333.33
N1585 X-2.133 Y4.15 Z1.768 I-2.573 J5.285
N1590 X-11.563 Y2.569 Z1.377 I-4.152 J-4.151
N1595 X-6.998 Y-5.82 Z0.986 I5.272 J-2.568
N1600 X-0.565 Y1.224 Z0.595 I0.707 J5.814
N1605 X-9.311 Y5.003 Z0.204 I-5.72 J-1.227
N1610 X-10.03 Y-4.487 Z-0.188 I3.023 J-5.001
N1615 X-0.835 Y-2.073 Z-0.579 I3.737 J4.484
N1620 X-6.11 Y5.822 Z-0.97 I-5.451 J2.068
N1625 X-11.846 Y-1.731 Z-1.361 I-0.176 J-5.82
N1630 X-2.846 Y-4.686 Z-1.752 I5.553 J1.73
N1635 X-2.988 Y4.775 Z-2.143 I-3.443 J4.679
N1640 X-11.874 Y1.558 Z-2.534 I-3.297 J-4.775
N1645 X-5.942 Y-5.784 Z-2.925 I5.583 J-1.557
N1650 X-0.942 Y2.209 Z-3.316 I-0.349 J5.778
N1655 X-10.119 Y4.325 Z-3.707 I-5.342 J-2.212
N1660 X-9.126 Y-5.028 Z-4.098 I3.83 J-4.323
N1665 X-0.618 Y-1.044 Z-4.489 I2.834 J5.024
N1670 X-7.152 Y5.691 Z-4.88 I-5.667 J1.039
N1675 X-11.383 Y-2.673 Z-5.271 I0.866 J-5.689
N1680 X-2.107 Y-3.941 Z-5.662 I5.09 J2.671
N1685 X-3.931 Y5.229 Z-6.054 I-4.18 J3.935
N1690 X-11.996 Y0.519 Z-6.445 I-2.354 J-5.229
N1695 X-4.921 Y-5.561 Z-6.836 I5.704 J-0.518
N1700 X-1.486 Y3.1 Z-7.227 I-1.369 J5.555
N1705 X-10.782 Y3.522 Z-7.618 I-4.798 J-3.102
N1710 X-8.151 Y-5.393 Z-8.009 I4.493 J-3.52
N1715 X-0.592 Y-0.004 Z-8.4 I1.859 J5.388
N1720 X-11.992 I-5.7 J0.
N1725 X-0.592 I5.7 J0.
N1730 G1 X-0.58 Y1.251 F550.
N1735 X-0.571 Y1.329
N1740 X-0.561 Y1.479
N1745 X-0.56 Y1.629
N1750 X-0.568 Y1.779
N1755 X-0.583 Y1.928
N1760 X-0.605 Y2.076
N1765 X-0.634 Y2.223
N1770 X-0.669 Y2.369
N1775 X-0.71 Y2.514
N1780 X-0.756 Y2.657
N1785 X-0.807 Y2.798
N1790 X-0.862 Y2.937
N1795 X-0.923 Y3.075
N1800 X-0.989 Y3.214
N1805 X-1.062 Y3.355
N1810 X-1.141 Y3.496
N1815 X-1.226 Y3.637
N1820 X-1.318 Y3.778
N1825 X-1.415 Y3.918
N1830 X-1.519 Y4.057
N1835 X-1.629 Y4.195
N1840 X-1.745 Y4.331
N1845 X-1.866 Y4.465
N1850 X-1.993 Y4.597
N1855 X-2.126 Y4.725
N1860 X-2.264 Y4.851
N1865 X-2.408 Y4.973
N1870 X-2.556 Y5.091
N1875 X-2.71 Y5.205
N1880 X-2.868 Y5.315
N1885 X-3.03 Y5.42
N1890 X-3.197 Y5.521
N1895 X-3.368 Y5.616
N1900 X-3.542 Y5.707
N1905 X-3.72 Y5.792
N1910 X-3.902 Y5.872
N1915 X-4.086 Y5.945
N1920 X-4.274 Y6.014
N1925 X-4.464 Y6.076
N1930 X-4.657 Y6.132
N1935 X-4.851 Y6.182
N1940 X-5.048 Y6.226
N1945 X-5.246 Y6.264
N1950 X-5.446 Y6.295
N1955 X-5.647 Y6.319
N1960 X-5.849 Y6.338
N1965 X-6.052 Y6.349
N1970 X-6.256 Y6.355
N1975 X-6.459 Y6.353
N1980 X-6.663 Y6.345
N1985 X-6.866 Y6.33
N1990 X-7.07 Y6.309
N1995 X-7.272 Y6.281
N2000 X-7.474 Y6.247
N2005 X-7.674 Y6.206
N2010 X-7.873 Y6.159
N2015 X-8.071 Y6.105
N2020 X-8.267 Y6.045
N2025 X-8.461 Y5.978
N2030 X-8.653 Y5.906
N2035 X-8.842 Y5.827
N2040 X-9.029 Y5.741
N2045 X-9.213 Y5.65
N2050 X-9.394 Y5.553
N2055 X-9.572 Y5.45
N2060 X-9.746 Y5.342
N2065 X-9.917 Y5.228
N2070 X-10.084 Y5.108
N2075 X-10.247 Y4.983
N2080 X-10.406 Y4.853
N2085 X-10.561 Y4.717
N2090 X-10.711 Y4.577
N2095 X-10.857 Y4.432
N2100 X-10.998 Y4.282
N2105 X-11.134 Y4.128
N2110 X-11.265 Y3.969
N2115 X-11.391 Y3.806
N2120 X-11.512 Y3.64
N2125 X-11.627 Y3.469
N2130 X-11.736 Y3.295
N2135 X-11.84 Y3.117
N2140 X-11.938 Y2.936
N2145 X-12.03 Y2.752
N2150 X-12.116 Y2.565
N2155 X-12.196 Y2.376
N2160 X-12.27 Y2.184
N2165 X-12.338 Y1.989
N2170 X-12.399 Y1.793
N2175 X-12.454 Y1.594
N2180 X-12.503 Y1.394
N2185 X-12.545 Y1.193
N2190 X-12.58 Y0.99
N2195 X-12.609 Y0.786
N2200 X-12.631 Y0.581
N2205 X-12.647 Y0.376
N2210 X-12.656 Y0.171
N2215 X-12.658 Y-0.035
N2220 X-12.654 Y-0.241
N2225 X-12.643 Y-0.447
N2230 X-12.625 Y-0.652
N2235 X-12.601 Y-0.856
N2240 X-12.57 Y-1.06
N2245 X-12.533 Y-1.262
N2250 X-12.489 Y-1.463
N2255 X-12.438 Y-1.663
N2260 X-12.382 Y-1.861
N2265 X-12.318 Y-2.057
N2270 X-12.249 Y-2.251
N2275 X-12.173 Y-2.442
N2280 X-12.091 Y-2.631
N2285 X-12.003 Y-2.817
N2290 X-11.909 Y-3.
N2295 X-11.81 Y-3.18
N2300 X-11.704 Y-3.357
N2305 X-11.593 Y-3.53
N2310 X-11.476 Y-3.7
N2315 X-11.354 Y-3.866
N2320 X-11.226 Y-4.027
N2325 X-11.094 Y-4.185
N2330 X-10.956 Y-4.338
N2335 X-10.813 Y-4.486
N2340 X-10.666 Y-4.63
N2345 X-10.514 Y-4.769
N2350 X-10.358 Y-4.903
N2355 X-10.197 Y-5.032
N2360 X-10.033 Y-5.156
N2365 X-9.864 Y-5.274
N2370 X-9.692 Y-5.387
N2375 X-9.516 Y-5.494
N2380 X-9.337 Y-5.595
N2385 X-9.155 Y-5.691
N2390 X-8.969 Y-5.781
N2395 X-8.781 Y-5.864
N2400 X-8.59 Y-5.941
N2405 X-8.397 Y-6.013
N2410 X-8.202 Y-6.078
N2415 X-8.004 Y-6.136
N2420 X-7.805 Y-6.188
N2425 X-7.604 Y-6.234
N2430 X-7.402 Y-6.273
N2435 X-7.199 Y-6.306
N2440 X-6.995 Y-6.332
N2445 X-6.79 Y-6.351
N2450 X-6.584 Y-6.364
N2455 X-6.378 Y-6.37
N2460 X-6.173
N2465 X-5.967 Y-6.362
N2470 X-5.761 Y-6.349
N2475 X-5.557 Y-6.328
N2480 X-5.352 Y-6.301
N2485 X-5.149 Y-6.267
N2490 X-4.947 Y-6.227
N2495 X-4.747 Y-6.18
N2500 X-4.548 Y-6.127
N2505 X-4.351 Y-6.068
N2510 X-4.156 Y-6.002
N2515 X-3.963 Y-5.929
N2520 X-3.773 Y-5.851
N2525 X-3.585 Y-5.767
N2530 X-3.4 Y-5.676
N2535 X-3.218 Y-5.58
N2540 X-3.04 Y-5.477
N2545 X-2.864 Y-5.369
N2550 X-2.693 Y-5.256
N2555 X-2.525 Y-5.136
N2560 X-2.361 Y-5.012
N2565 X-2.201 Y-4.882
N2570 X-2.045 Y-4.747
N2575 X-1.894 Y-4.607
N2580 X-1.748 Y-4.463
N2585 X-1.606 Y-4.314
N2590 X-1.469 Y-4.16
N2595 X-1.337 Y-4.002
N2600 X-1.21 Y-3.839
N2605 X-1.089 Y-3.673
N2610 X-0.973 Y-3.503
N2615 X-0.863 Y-3.329
N2620 X-0.758 Y-3.152
N2625 X-0.659 Y-2.971
N2630 X-0.566 Y-2.787
N2635 X-0.479 Y-2.601
N2640 X-0.398 Y-2.412
N2645 X-0.324 Y-2.22
N2650 X-0.255 Y-2.026
N2655 X-0.184 Y-1.802
N2660 X-0.107 Y-1.528
N2665 X-0.006 Y-1.118
N2670 X0.072 Y-0.754
N2675 X0.127 Y-0.444
N2680 X0.168 Y-0.167
N2685 X0.197 Y0.088
N2690 X0.216 Y0.327
N2695 X0.227 Y0.553
N2700 X0.23 Y0.771
N2705 X0.227 Y0.982
N2710 X0.217 Y1.187
N2715 X0.201 Y1.387
N2720 X0.178 Y1.584
N2725 X0.15 Y1.778
N2730 X0.115 Y1.969
N2735 X0.075 Y2.158
N2740 X0.029 Y2.345
N2745 X-0.024 Y2.53
N2750 X-0.082 Y2.713
N2755 X-0.146 Y2.895
N2760 X-0.217 Y3.075
N2765 X-0.293 Y3.253
N2770 X-0.375 Y3.429
N2775 X-0.464 Y3.604
N2780 X-0.558 Y3.776
N2785 X-0.659 Y3.946
N2790 X-0.765 Y4.114
N2795 X-0.878 Y4.279
N2800 X-0.997 Y4.441
N2805 X-1.121 Y4.601
N2810 X-1.252 Y4.757
N2815 X-1.388 Y4.91
N2820 X-1.53 Y5.059
N2825 X-1.677 Y5.204
N2830 X-1.83 Y5.346
N2835 X-1.989 Y5.483
N2840 X-2.152 Y5.615
N2845 X-2.321 Y5.743
N2850 X-2.495 Y5.866
N2855 X-2.673 Y5.984
N2860 X-2.856 Y6.096
N2865 X-3.043 Y6.203
N2870 X-3.234 Y6.305
N2875 X-3.429 Y6.4
N2880 X-3.628 Y6.489
N2885 X-3.83 Y6.572
N2890 X-4.035 Y6.649
N2895 X-4.243 Y6.719
N2900 X-4.454 Y6.783
N2905 X-4.668 Y6.84
N2910 X-4.884 Y6.89
N2915 X-5.102 Y6.933
N2920 X-5.321 Y6.969
N2925 X-5.542 Y6.999
N2930 X-5.764 Y7.021
N2935 X-5.987 Y7.036
N2940 X-6.211 Y7.043
N2945 X-6.436 Y7.044
N2950 X-6.66 Y7.037
N2955 X-6.885 Y7.023
N2960 X-7.109 Y7.001
N2965 X-7.333 Y6.973
N2970 X-7.555 Y6.937
N2975 X-7.777 Y6.893
N2980 X-7.998 Y6.843
N2985 X-8.216 Y6.786
N2990 X-8.433 Y6.721
N2995 X-8.648 Y6.649
N3000 X-8.861 Y6.571
N3005 X-9.071 Y6.485
N3010 X-9.279 Y6.393
N3015 X-9.483 Y6.294
N3020 X-9.685 Y6.188
N3025 X-9.882 Y6.076
N3030 X-10.077 Y5.958
N3035 X-10.267 Y5.833
N3040 X-10.453 Y5.702
N3045 X-10.635 Y5.565
N3050 X-10.812 Y5.423
N3055 X-10.985 Y5.274
N3060 X-11.153 Y5.12
N3065 X-11.316 Y4.961
N3070 X-11.474 Y4.796
N3075 X-11.626 Y4.627
N3080 X-11.773 Y4.452
N3085 X-11.914 Y4.273
N3090 X-12.05 Y4.089
N3095 X-12.179 Y3.901
N3100 X-12.302 Y3.709
N3105 X-12.419 Y3.513
N3110 X-12.529 Y3.313
N3115 X-12.633 Y3.11
N3120 X-12.731 Y2.904
N3125 X-12.821 Y2.694
N3130 X-12.905 Y2.482
N3135 X-12.982 Y2.267
N3140 X-13.052 Y2.049
N3145 X-13.115 Y1.83
N3150 X-13.171 Y1.608
N3155 X-13.219 Y1.385
N3160 X-13.261 Y1.161
N3165 X-13.295 Y0.935
N3170 X-13.321 Y0.708
N3175 X-13.341 Y0.48
N3180 X-13.353 Y0.252
N3185 X-13.357 Y0.024
N3190 X-13.355 Y-0.205
N3195 X-13.345 Y-0.433
N3200 X-13.327 Y-0.661
N3205 X-13.302 Y-0.888
N3210 X-13.27 Y-1.114
N3215 X-13.23 Y-1.339
N3220 X-13.184 Y-1.563
N3225 X-13.13 Y-1.785
N3230 X-13.069 Y-2.005
N3235 X-13. Y-2.223
N3240 X-12.925 Y-2.439
N3245 X-12.843 Y-2.652
N3250 X-12.754 Y-2.862
N3255 X-12.658 Y-3.07
N3260 X-12.556 Y-3.274
N3265 X-12.447 Y-3.475
N3270 X-12.331 Y-3.672
N3275 X-12.21 Y-3.865
N3280 X-12.082 Y-4.055
N3285 X-11.948 Y-4.24
N3290 X-11.808 Y-4.42
N3295 X-11.662 Y-4.596
N3300 X-11.511 Y-4.768
N3305 X-11.354 Y-4.934
N3310 X-11.192 Y-5.095
N3315 X-11.025 Y-5.251
N3320 X-10.853 Y-5.401
N3325 X-10.676 Y-5.546
N3330 X-10.494 Y-5.685
N3335 X-10.309 Y-5.818
N3340 X-10.118 Y-5.944
N3345 X-9.924 Y-6.065
N3350 X-9.727 Y-6.179
N3355 X-9.525 Y-6.287
N3360 X-9.32 Y-6.388
N3365 X-9.112 Y-6.483
N3370 X-8.901 Y-6.571
N3375 X-8.688 Y-6.652
N3380 X-8.471 Y-6.726
N3385 X-8.253 Y-6.793
N3390 X-8.032 Y-6.853
N3395 X-7.81 Y-6.905
N3400 X-7.586 Y-6.951
N3405 X-7.361 Y-6.989
N3410 X-7.134 Y-7.02
N3415 X-6.907 Y-7.043
N3420 X-6.679 Y-7.06
N3425 X-6.451 Y-7.068
N3430 X-6.222 Y-7.07
N3435 X-5.994 Y-7.064
N3440 X-5.766 Y-7.051
N3445 X-5.538 Y-7.03
N3450 X-5.311 Y-7.002
N3455 X-5.086 Y-6.966
N3460 X-4.861 Y-6.924
N3465 X-4.638 Y-6.874
N3470 X-4.417 Y-6.817
N3475 X-4.198 Y-6.753
N3480 X-3.98 Y-6.681
N3485 X-3.766 Y-6.603
N3490 X-3.554 Y-6.518
N3495 X-3.345 Y-6.426
N3500 X-3.138 Y-6.327
N3505 X-2.936 Y-6.222
N3510 X-2.736 Y-6.11
N3515 X-2.541 Y-5.992
N3520 X-2.349 Y-5.868
N3525 X-2.162 Y-5.737
N3530 X-1.978 Y-5.601
N3535 X-1.8 Y-5.458
N3540 X-1.626 Y-5.31
N3545 X-1.457 Y-5.156
N3550 X-1.292 Y-4.997
N3555 X-1.134 Y-4.833
N3560 X-0.98 Y-4.664
N3565 X-0.832 Y-4.49
N3570 X-0.69 Y-4.311
N3575 X-0.554 Y-4.127
N3580 X-0.423 Y-3.938
N3585 X-0.295 Y-3.742
N3590 X-0.172 Y-3.537
N3595 X-0.044 Y-3.308
N3600 X0.083 Y-3.063
N3605 X0.203 Y-2.81
N3610 X0.318 Y-2.549
N3615 X0.424 Y-2.283
N3620 X0.521 Y-2.015
N3625 X0.609 Y-1.747
N3630 X0.686 Y-1.481
N3635 X0.754 Y-1.218
N3640 X0.812 Y-0.958
N3645 X0.86 Y-0.7
N3650 X0.9 Y-0.446
N3655 X0.931 Y-0.194
N3660 X0.953 Y0.054
N3665 X0.967 Y0.3
N3670 X0.973 Y0.542
N3675 X0.971 Y0.782
N3680 X0.962 Y1.018
N3685 X0.945 Y1.251
N3690 X0.92 Y1.482
N3695 X0.889 Y1.71
N3700 X0.85 Y1.936
N3705 X0.805 Y2.159
N3710 X0.752 Y2.38
N3715 X0.692 Y2.599
N3720 X0.626 Y2.815
N3725 X0.553 Y3.028
N3730 X0.472 Y3.239
N3735 X0.385 Y3.447
N3740 X0.292 Y3.652
N3745 X0.191 Y3.855
N3750 X0.084 Y4.054
N3755 X-0.029 Y4.25
N3760 X-0.15 Y4.443
N3765 X-0.276 Y4.632
N3770 X-0.409 Y4.818
N3775 X-0.549 Y5.
N3780 X-0.694 Y5.177
N3785 X-0.846 Y5.351
N3790 X-1.004 Y5.52
N3795 X-1.168 Y5.684
N3800 X-1.337 Y5.843
N3805 X-1.512 Y5.998
N3810 X-1.693 Y6.147
N3815 X-1.879 Y6.29
N3820 X-2.07 Y6.428
N3825 X-2.266 Y6.56
N3830 X-2.467 Y6.686
N3835 X-2.673 Y6.806
N3840 X-2.883 Y6.92
N3845 X-3.097 Y7.027
N3850 X-3.315 Y7.127
N3855 X-3.536 Y7.221
N3860 X-3.761 Y7.307
N3865 X-3.99 Y7.386
N3870 X-4.221 Y7.458
N3875 X-4.456 Y7.523
N3880 X-4.692 Y7.58
N3885 X-4.931 Y7.63
N3890 X-5.172 Y7.672
N3895 X-5.415 Y7.706
N3900 X-5.659 Y7.732
N3905 X-5.904 Y7.751
N3910 X-6.15 Y7.762
N3915 X-6.396 Y7.764
N3920 X-6.643 Y7.759
N3925 X-6.89 Y7.746
N3930 X-7.137 Y7.724
N3935 X-7.383 Y7.695
N3940 X-7.628 Y7.658
N3945 X-7.873 Y7.612
N3950 X-8.116 Y7.559
N3955 X-8.357 Y7.498
N3960 X-8.596 Y7.429
N3965 X-8.834 Y7.352
N3970 X-9.069 Y7.268
N3975 X-9.301 Y7.176
N3980 X-9.53 Y7.076
N3985 X-9.756 Y6.969
N3990 X-9.979 Y6.855
N3995 X-10.197 Y6.734
N4000 X-10.412 Y6.605
N4005 X-10.623 Y6.47
N4010 X-10.83 Y6.327
N4015 X-11.031 Y6.178
N4020 X-11.228 Y6.023
N4025 X-11.42 Y5.861
N4030 X-11.607 Y5.693
N4035 X-11.788 Y5.519
N4040 X-11.963 Y5.339
N4045 X-12.133 Y5.154
N4050 X-12.296 Y4.963
N4055 X-12.454 Y4.767
N4060 X-12.604 Y4.565
N4065 X-12.749 Y4.359
N4070 X-12.886 Y4.149
N4075 X-13.017 Y3.934
N4080 X-13.141 Y3.715
N4085 X-13.258 Y3.492
N4090 X-13.367 Y3.265
N4095 X-13.469 Y3.035
N4100 X-13.564 Y2.802
N4105 X-13.651 Y2.565
N4110 X-13.73 Y2.326
N4115 X-13.801 Y2.085
N4120 X-13.865 Y1.841
N4125 X-13.921 Y1.596
N4130 X-13.969 Y1.348
N4135 X-14.008 Y1.099
N4140 X-14.04 Y0.849
N4145 X-14.064 Y0.599
N4150 X-14.079 Y0.347
N4155 X-14.086 Y0.095
N4160 Y-0.157
N4165 X-14.077 Y-0.409
N4170 X-14.06 Y-0.66
N4175 X-14.034 Y-0.911
N4180 X-14.001 Y-1.16
N4185 X-13.96 Y-1.409
N4190 X-13.91 Y-1.656
N4195 X-13.853 Y-1.902
N4200 X-13.788 Y-2.145
N4205 X-13.715 Y-2.386
N4210 X-13.634 Y-2.625
N4215 X-13.545 Y-2.861
N4220 X-13.449 Y-3.094
N4225 X-13.345 Y-3.324
N4230 X-13.234 Y-3.55
N4235 X-13.116 Y-3.773
N4240 X-12.991 Y-3.991
N4245 X-12.858 Y-4.206
N4250 X-12.719 Y-4.416
N4255 X-12.573 Y-4.622
N4260 X-12.42 Y-4.822
N4265 X-12.262 Y-5.018
N4270 X-12.096 Y-5.208
N4275 X-11.925 Y-5.393
N4280 X-11.748 Y-5.573
N4285 X-11.565 Y-5.746
N4290 X-11.377 Y-5.914
N4295 X-11.183 Y-6.075
N4300 X-10.984 Y-6.23
N4305 X-10.78 Y-6.378
N4310 X-10.572 Y-6.52
N4315 X-10.359 Y-6.655
N4320 X-10.142 Y-6.783
N4325 X-9.92 Y-6.904
N4330 X-9.695 Y-7.018
N4335 X-9.467 Y-7.124
N4340 X-9.235 Y-7.223
N4345 X-9. Y-7.315
N4350 X-8.762 Y-7.398
N4355 X-8.522 Y-7.474
N4360 X-8.279 Y-7.542
N4365 X-8.034 Y-7.603
N4370 X-7.788 Y-7.655
N4375 X-7.54 Y-7.7
N4380 X-7.29 Y-7.736
N4385 X-7.04 Y-7.764
N4390 X-6.788 Y-7.784
N4395 X-6.537 Y-7.796
N4400 X-6.284 Y-7.8
N4405 X-6.032 Y-7.796
N4410 X-5.781 Y-7.783
N4415 X-5.529 Y-7.763
N4420 X-5.279 Y-7.734
N4425 X-5.029 Y-7.697
N4430 X-4.781 Y-7.652
N4435 X-4.535 Y-7.599
N4440 X-4.29 Y-7.539
N4445 X-4.048 Y-7.47
N4450 X-3.807 Y-7.393
N4455 X-3.57 Y-7.309
N4460 X-3.335 Y-7.217
N4465 X-3.103 Y-7.118
N4470 X-2.875 Y-7.011
N4475 X-2.65 Y-6.897
N4480 X-2.429 Y-6.776
N4485 X-2.212 Y-6.647
N4490 X-2. Y-6.512
N4495 X-1.791 Y-6.37
N4500 X-1.588 Y-6.221
N4505 X-1.389 Y-6.065
N4510 X-1.196 Y-5.904
N4515 X-1.007 Y-5.735
N4520 X-0.823 Y-5.56
N4525 X-0.643 Y-5.377
N4530 X-0.465 Y-5.184
N4535 X-0.291 Y-4.982
N4540 X-0.12 Y-4.771
N4545 X0.046 Y-4.552
N4550 X0.207 Y-4.325
N4555 X0.361 Y-4.091
N4560 X0.51 Y-3.849
N4565 X0.651 Y-3.601
N4570 X0.785 Y-3.348
N4575 X0.911 Y-3.09
N4580 X1.029 Y-2.828
N4585 X1.137 Y-2.564
N4590 X1.237 Y-2.296
N4595 X1.327 Y-2.028
N4600 X1.408 Y-1.758
N4605 X1.48 Y-1.487
N4610 X1.543 Y-1.217
N4615 X1.597 Y-0.947
N4620 X1.641 Y-0.677
N4625 X1.676 Y-0.408
N4630 X1.703 Y-0.141
N4635 X1.72 Y0.126
N4640 X1.729 Y0.391
N4645 Y0.655
N4650 X1.721 Y0.917
N4655 X1.705 Y1.177
N4660 X1.68 Y1.435
N4665 X1.647 Y1.692
N4670 X1.606 Y1.946
N4675 X1.557 Y2.198
N4680 X1.499 Y2.447
N4685 X1.434 Y2.694
N4690 X1.362 Y2.938
N4695 X1.281 Y3.18
N4700 X1.193 Y3.418
N4705 X1.097 Y3.653
N4710 X0.993 Y3.885
N4715 X0.883 Y4.114
N4720 X0.764 Y4.339
N4725 X0.639 Y4.56
N4730 X0.506 Y4.777
N4735 X0.366 Y4.99
N4740 X0.22 Y5.199
N4745 X0.066 Y5.403
N4750 X-0.095 Y5.602
N4755 X-0.262 Y5.797
N4760 X-0.436 Y5.986
N4765 X-0.616 Y6.17
N4770 X-0.802 Y6.348
N4775 X-0.995 Y6.521
N4780 X-1.193 Y6.688
N4785 X-1.397 Y6.848
N4790 X-1.607 Y7.002
N4795 X-1.822 Y7.15
N4800 X-2.042 Y7.291
N4805 X-2.267 Y7.425
N4810 X-2.497 Y7.552
N4815 X-2.732 Y7.672
N4820 X-2.97 Y7.784
N4825 X-3.213 Y7.889
N4830 X-3.459 Y7.986
N4835 X-3.71 Y8.076
N4840 X-3.963 Y8.157
N4845 X-4.219 Y8.23
N4850 X-4.478 Y8.295
N4855 X-4.74 Y8.352
N4860 X-5.003 Y8.4
N4865 X-5.269 Y8.44
N4870 X-5.536 Y8.472
N4875 X-5.804 Y8.494
N4880 X-6.074 Y8.508
N4885 X-6.344 Y8.514
N4890 X-6.614 Y8.51
N4895 X-6.885 Y8.498
N4900 X-7.155 Y8.477
N4905 X-7.425 Y8.447
N4910 X-7.694 Y8.409
N4915 X-7.962 Y8.362
N4920 X-8.228 Y8.306
N4925 X-8.493 Y8.241
N4930 X-8.756 Y8.168
N4935 X-9.017 Y8.086
N4940 X-9.275 Y7.996
N4945 X-9.53 Y7.898
N4950 X-9.782 Y7.791
N4955 X-10.03 Y7.676
N4960 X-10.275 Y7.553
N4965 X-10.516 Y7.422
N4970 X-10.753 Y7.283
N4975 X-10.985 Y7.137
N4980 X-11.213 Y6.983
N4985 X-11.435 Y6.821
N4990 X-11.653 Y6.653
N4995 X-11.864 Y6.477
N5000 X-12.071 Y6.295
N5005 X-12.271 Y6.106
N5010 X-12.465 Y5.911
N5015 X-12.653 Y5.709
N5020 X-12.834 Y5.501
N5025 X-13.008 Y5.288
N5030 X-13.175 Y5.069
N5035 X-13.336 Y4.844
N5040 X-13.489 Y4.615
N5045 X-13.634 Y4.38
N5050 X-13.772 Y4.141
N5055 X-13.902 Y3.898
N5060 X-14.024 Y3.65
N5065 X-14.139 Y3.399
N5070 X-14.244 Y3.144
N5075 X-14.342 Y2.886
N5080 X-14.431 Y2.624
N5085 X-14.512 Y2.36
N5090 X-14.584 Y2.093
N5095 X-14.648 Y1.824
N5100 X-14.703 Y1.554
N5105 X-14.749 Y1.281
N5110 X-14.786 Y1.007
N5115 X-14.814 Y0.732
N5120 X-14.834 Y0.457
N5125 X-14.844 Y0.18
N5130 X-14.846 Y-0.096
N5135 X-14.839 Y-0.373
N5140 X-14.822 Y-0.649
N5145 X-14.797 Y-0.924
N5150 X-14.763 Y-1.198
N5155 X-14.72 Y-1.472
N5160 X-14.668 Y-1.743
N5165 X-14.608 Y-2.013
N5170 X-14.538 Y-2.281
N5175 X-14.461 Y-2.546
N5180 X-14.374 Y-2.809
N5185 X-14.279 Y-3.069
N5190 X-14.176 Y-3.325
N5195 X-14.065 Y-3.579
N5200 X-13.945 Y-3.828
N5205 X-13.817 Y-4.073
N5210 X-13.682 Y-4.315
N5215 X-13.539 Y-4.551
N5220 X-13.388 Y-4.783
N5225 X-13.23 Y-5.01
N5230 X-13.064 Y-5.232
N5235 X-12.892 Y-5.448
N5240 X-12.712 Y-5.659
N5245 X-12.526 Y-5.863
N5250 X-12.333 Y-6.062
N5255 X-12.134 Y-6.254
N5260 X-11.929 Y-6.44
N5265 X-11.718 Y-6.619
N5270 X-11.502 Y-6.791
N5275 X-11.28 Y-6.955
N5280 X-11.052 Y-7.113
N5285 X-10.82 Y-7.263
N5290 X-10.583 Y-7.406
N5295 X-10.341 Y-7.541
N5300 X-10.095 Y-7.668
N5305 X-9.846 Y-7.787
N5310 X-9.592 Y-7.898
N5315 X-9.335 Y-8.
N5320 X-9.075 Y-8.094
N5325 X-8.812 Y-8.18
N5330 X-8.546 Y-8.257
N5335 X-8.278 Y-8.326
N5340 X-8.008 Y-8.386
N5345 X-7.736 Y-8.437
N5350 X-7.463 Y-8.479
N5355 X-7.188 Y-8.513
N5360 X-6.913 Y-8.537
N5365 X-6.636 Y-8.553
N5370 X-6.36 Y-8.559
N5375 X-6.083 Y-8.557
N5380 X-5.807 Y-8.546
N5385 X-5.531 Y-8.526
N5390 X-5.256 Y-8.497
N5395 X-4.981 Y-8.459
N5400 X-4.709 Y-8.412
N5405 X-4.438 Y-8.356
N5410 X-4.169 Y-8.292
N5415 X-3.902 Y-8.219
N5420 X-3.637 Y-8.137
N5425 X-3.376 Y-8.047
N5430 X-3.117 Y-7.949
N5435 X-2.862 Y-7.842
N5440 X-2.61 Y-7.727
N5445 X-2.363 Y-7.604
N5450 X-2.119 Y-7.473
N5455 X-1.879 Y-7.334
N5460 X-1.643 Y-7.186
N5465 X-1.411 Y-7.031
N5470 X-1.182 Y-6.867
N5475 X-0.958 Y-6.695
N5480 X-0.738 Y-6.514
N5485 X-0.523 Y-6.325
N5490 X-0.312 Y-6.128
N5495 X-0.106 Y-5.922
N5500 X0.095 Y-5.708
N5505 X0.29 Y-5.486
N5510 X0.479 Y-5.257
N5515 X0.662 Y-5.02
N5520 X0.838 Y-4.776
N5525 X1.007 Y-4.525
N5530 X1.168 Y-4.268
N5535 X1.321 Y-4.006
N5540 X1.465 Y-3.739
N5545 X1.6 Y-3.467
N5550 X1.727 Y-3.192
N5555 X1.844 Y-2.913
N5560 X1.952 Y-2.631
N5565 X2.051 Y-2.347
N5570 X2.14 Y-2.06
N5575 X2.219 Y-1.772
N5580 X2.289 Y-1.483
N5585 X2.349 Y-1.192
N5590 X2.4 Y-0.902
N5595 X2.441 Y-0.611
N5600 X2.472 Y-0.32
N5605 X2.494 Y-0.029
N5610 X2.506 Y0.261
N5615 X2.509 Y0.549
N5620 X2.502 Y0.837
N5625 X2.487 Y1.124
N5630 X2.462 Y1.408
N5635 X2.428 Y1.692
N5640 X2.385 Y1.973
N5645 X2.333 Y2.251
N5650 X2.273 Y2.528
N5655 X2.203 Y2.802
N5660 X2.125 Y3.073
N5665 X2.038 Y3.341
N5670 X1.943 Y3.606
N5675 X1.839 Y3.868
N5680 X1.726 Y4.126
N5685 X1.606 Y4.38
N5690 X1.477 Y4.63
N5695 X1.341 Y4.876
N5700 X1.196 Y5.117
N5705 X1.044 Y5.354
N5710 X0.883 Y5.586
N5715 X0.716 Y5.813
N5720 X0.541 Y6.034
N5725 X0.358 Y6.25
N5730 X0.168 Y6.461
N5735 X-0.028 Y6.665
N5740 X-0.231 Y6.863
N5745 X-0.441 Y7.055
N5750 X-0.658 Y7.24
N5755 X-0.88 Y7.418
N5760 X-1.109 Y7.59
N5765 X-1.344 Y7.754
N5770 X-1.584 Y7.911
N5775 X-1.829 Y8.06
N5780 X-2.08 Y8.201
N5785 X-2.335 Y8.335
N5790 X-2.596 Y8.46
N5795 X-2.86 Y8.577
N5800 X-3.129 Y8.686
N5805 X-3.401 Y8.786
N5810 X-3.677 Y8.877
N5815 X-3.957 Y8.96
N5820 X-4.239 Y9.033
N5825 X-4.524 Y9.098
N5830 X-4.811 Y9.153
N5835 X-5.101 Y9.199
N5840 X-5.392 Y9.236
N5845 X-5.685 Y9.263
N5850 X-5.978 Y9.281
N5855 X-6.273 Y9.29
N5860 X-6.568 Y9.289
N5865 X-6.863 Y9.278
N5870 X-7.158 Y9.258
N5875 X-7.453 Y9.228
N5880 X-7.747 Y9.188
N5885 X-8.04 Y9.14
N5890 X-8.331 Y9.081
N5895 X-8.62 Y9.013
N5900 X-8.908 Y8.936
N5905 X-9.193 Y8.85
N5910 X-9.475 Y8.754
N5915 X-9.754 Y8.649
N5920 X-10.03 Y8.535
N5925 X-10.302 Y8.412
N5930 X-10.571 Y8.28
N5935 X-10.835 Y8.139
N5940 X-11.094 Y7.99
N5945 X-11.349 Y7.833
N5950 X-11.599 Y7.667
N5955 X-11.843 Y7.493
N5960 X-12.082 Y7.312
N5965 X-12.315 Y7.122
N5970 X-12.541 Y6.925
N5975 X-12.762 Y6.721
N5980 X-12.975 Y6.51
N5985 X-13.182 Y6.292
N5990 X-13.381 Y6.067
N5995 X-13.574 Y5.836
N6000 X-13.759 Y5.598
N6005 X-13.936 Y5.355
N6010 X-14.105 Y5.106
N6015 X-14.266 Y4.852
N6020 X-14.419 Y4.592
N6025 X-14.563 Y4.328
N6030 X-14.699 Y4.059
N6035 X-14.826 Y3.786
N6040 X-14.944 Y3.508
N6045 X-15.053 Y3.227
N6050 X-15.153 Y2.943
N6055 X-15.244 Y2.655
N6060 X-15.325 Y2.365
N6065 X-15.397 Y2.072
N6070 X-15.459 Y1.777
N6075 X-15.512 Y1.48
N6080 X-15.556 Y1.181
N6085 X-15.589 Y0.882
N6090 X-15.613 Y0.581
N6095 X-15.627 Y0.279
N6100 X-15.632 Y-0.022
N6105 X-15.626 Y-0.324
N6110 X-15.611 Y-0.626
N6115 X-15.586 Y-0.926
N6120 X-15.552 Y-1.226
N6125 X-15.508 Y-1.525
N6130 X-15.454 Y-1.822
N6135 X-15.39 Y-2.117
N6140 X-15.317 Y-2.41
N6145 X-15.235 Y-2.701
N6150 X-15.143 Y-2.988
N6155 X-15.042 Y-3.273
N6160 X-14.932 Y-3.554
N6165 X-14.813 Y-3.831
N6170 X-14.684 Y-4.105
N6175 X-14.547 Y-4.374
N6180 X-14.402 Y-4.639
N6185 X-14.248 Y-4.898
N6190 X-14.086 Y-5.153
N6195 X-13.915 Y-5.402
N6200 X-13.737 Y-5.646
N6205 X-13.55 Y-5.884
N6210 X-13.356 Y-6.115
N6215 X-13.155 Y-6.341
N6220 X-12.947 Y-6.559
N6225 X-12.731 Y-6.771
N6230 X-12.509 Y-6.976
N6235 X-12.281 Y-7.173
N6240 X-12.046 Y-7.363
N6245 X-11.805 Y-7.545
N6250 X-11.558 Y-7.719
N6255 X-11.306 Y-7.886
N6260 X-11.048 Y-8.044
N6265 X-10.786 Y-8.193
N6270 X-10.519 Y-8.334
N6275 X-10.247 Y-8.467
N6280 X-9.972 Y-8.59
N6285 X-9.692 Y-8.705
N6290 X-9.409 Y-8.81
N6295 X-9.123 Y-8.906
N6300 X-8.833 Y-8.993
N6305 X-8.541 Y-9.07
N6310 X-8.247 Y-9.138
N6315 X-7.951 Y-9.197
N6320 X-7.653 Y-9.246
N6325 X-7.353 Y-9.285
N6330 X-7.052 Y-9.314
N6335 X-6.751 Y-9.334
N6340 X-6.449 Y-9.344
N6345 X-6.147
N6350 X-5.845 Y-9.335
N6355 X-5.544 Y-9.315
N6360 X-5.243 Y-9.286
N6365 X-4.943 Y-9.247
N6370 X-4.645 Y-9.199
N6375 X-4.349 Y-9.141
N6380 X-4.054 Y-9.073
N6385 X-3.762 Y-8.996
N6390 X-3.473 Y-8.91
N6395 X-3.186 Y-8.814
N6400 X-2.902 Y-8.709
N6405 X-2.621 Y-8.594
N6410 X-2.344 Y-8.47
N6415 X-2.07 Y-8.337
N6420 X-1.8 Y-8.195
N6425 X-1.533 Y-8.043
N6430 X-1.271 Y-7.883
N6435 X-1.013 Y-7.713
N6440 X-0.759 Y-7.534
N6445 X-0.509 Y-7.346
N6450 X-0.265 Y-7.149
N6455 X-0.026 Y-6.944
N6460 X0.207 Y-6.729
N6465 X0.434 Y-6.506
N6470 X0.655 Y-6.275
N6475 X0.869 Y-6.036
N6480 X1.076 Y-5.79
N6485 X1.276 Y-5.536
N6490 X1.467 Y-5.275
N6495 X1.651 Y-5.008
N6500 X1.825 Y-4.734
N6505 X1.991 Y-4.455
N6510 X2.148 Y-4.171
N6515 X2.296 Y-3.882
N6520 X2.434 Y-3.588
N6525 X2.562 Y-3.291
N6530 X2.68 Y-2.99
N6535 X2.789 Y-2.686
N6540 X2.887 Y-2.379
N6545 X2.975 Y-2.07
N6550 X3.053 Y-1.759
N6555 X3.121 Y-1.446
N6560 X3.178 Y-1.132
N6565 X3.225 Y-0.818
N6570 X3.262 Y-0.503
N6575 X3.288 Y-0.187
N6580 X3.305 Y0.128
N6585 X3.311 Y0.442
N6590 X3.306 Y0.756
N6595 X3.292 Y1.069
N6600 X3.268 Y1.381
N6605 X3.233 Y1.691
N6610 X3.189 Y1.999
N6615 X3.135 Y2.305
N6620 X3.071 Y2.609
N6625 X2.998 Y2.91
N6630 X2.914 Y3.208
N6635 X2.822 Y3.503
N6640 X2.72 Y3.795
N6645 X2.608 Y4.083
N6650 X2.488 Y4.367
N6655 X2.358 Y4.647
N6660 X2.219 Y4.922
N6665 X2.072 Y5.193
N6670 X1.916 Y5.46
N6675 X1.751 Y5.721
N6680 X1.577 Y5.977
N6685 X1.396 Y6.227
N6690 X1.206 Y6.471
N6695 X1.009 Y6.709
N6700 X0.803 Y6.941
N6705 X0.59 Y7.167
N6710 X0.37 Y7.385
N6715 X0.142 Y7.597
N6720 X-0.093 Y7.801
N6725 X-0.334 Y7.998
N6730 X-0.582 Y8.188
N6735 X-0.837 Y8.369
N6740 X-1.097 Y8.543
N6745 X-1.364 Y8.708
N6750 X-1.635 Y8.864
N6755 X-1.913 Y9.012
N6760 X-2.195 Y9.151
N6765 X-2.482 Y9.281
N6770 X-2.774 Y9.402
N6775 X-3.069 Y9.514
N6780 X-3.369 Y9.616
N6785 X-3.672 Y9.709
N6790 X-3.979 Y9.791
N6795 X-4.288 Y9.864
N6800 X-4.6 Y9.927
N6805 X-4.914 Y9.98
N6810 X-5.23 Y10.023
N6815 X-5.548 Y10.056
N6820 X-5.867 Y10.078
N6825 X-6.187 Y10.09
N6830 X-6.508 Y10.091
N6835 X-6.829 Y10.083
N6840 X-7.15 Y10.064
N6845 X-7.47 Y10.034
N6850 X-7.79 Y9.994
N6855 X-8.108 Y9.944
N6860 X-8.425 Y9.883
N6865 X-8.74 Y9.812
N6870 X-9.053 Y9.731
N6875 X-9.363 Y9.64
N6880 X-9.671 Y9.539
N6885 X-9.975 Y9.427
N6890 X-10.276 Y9.306
N6895 X-10.573 Y9.175
N6900 X-10.865 Y9.035
N6905 X-11.153 Y8.885
N6910 X-11.437 Y8.725
N6915 X-11.715 Y8.557
N6920 X-11.988 Y8.379
N6925 X-12.254 Y8.193
N6930 X-12.515 Y7.998
N6935 X-12.77 Y7.795
N6940 X-13.018 Y7.583
N6945 X-13.259 Y7.363
N6950 X-13.493 Y7.136
N6955 X-13.72 Y6.901
N6960 X-13.939 Y6.659
N6965 X-14.15 Y6.409
N6970 X-14.353 Y6.153
N6975 X-14.548 Y5.891
N6980 X-14.734 Y5.622
N6985 X-14.911 Y5.347
N6990 X-15.08 Y5.067
N6995 X-15.239 Y4.781
N7000 X-15.389 Y4.49
N7005 X-15.529 Y4.195
N7010 X-15.66 Y3.895
N7015 X-15.782 Y3.59
N7020 X-15.893 Y3.282
N7025 X-15.994 Y2.971
N7030 X-16.086 Y2.656
N7035 X-16.167 Y2.339
N7040 X-16.237 Y2.019
N7045 X-16.298 Y1.697
N7050 X-16.348 Y1.373
N7055 X-16.387 Y1.047
N7060 X-16.416 Y0.721
N7065 X-16.434 Y0.393
N7070 X-16.442 Y0.065
N7075 X-16.439 Y-0.263
N7080 X-16.426 Y-0.59
N7085 X-16.401 Y-0.917
N7090 X-16.367 Y-1.244
N7095 X-16.322 Y-1.568
N7100 X-16.266 Y-1.892
N7105 X-16.2 Y-2.213
N7110 X-16.123 Y-2.532
N7115 X-16.037 Y-2.849
N7120 X-15.94 Y-3.162
N7125 X-15.833 Y-3.472
N7130 X-15.716 Y-3.779
N7135 X-15.589 Y-4.081
N7140 X-15.452 Y-4.38
N7145 X-15.306 Y-4.674
N7150 X-15.15 Y-4.963
N7155 X-14.985 Y-5.246
N7160 X-14.811 Y-5.525
N7165 X-14.629 Y-5.797
N7170 X-14.437 Y-6.064
N7175 X-14.237 Y-6.324
N7180 X-14.028 Y-6.578
N7185 X-13.812 Y-6.824
N7190 X-13.587 Y-7.064
N7195 X-13.355 Y-7.296
N7200 X-13.116 Y-7.521
N7205 X-12.869 Y-7.737
N7210 X-12.616 Y-7.946
N7215 X-12.356 Y-8.146
N7220 X-12.089 Y-8.338
N7225 X-11.817 Y-8.521
N7230 X-11.539 Y-8.695
N7235 X-11.255 Y-8.86
N7240 X-10.966 Y-9.016
N7245 X-10.672 Y-9.163
N7250 X-10.374 Y-9.3
N7255 X-10.071 Y-9.427
N7260 X-9.765 Y-9.544
N7265 X-9.454 Y-9.651
N7270 X-9.141 Y-9.749
N7275 X-8.824 Y-9.836
N7280 X-8.505 Y-9.912
N7285 X-8.183 Y-9.979
N7290 X-7.86 Y-10.035
N7295 X-7.535 Y-10.08
N7300 X-7.208 Y-10.115
N7305 X-6.881 Y-10.139
N7310 X-6.553 Y-10.153
N7315 X-6.225 Y-10.156
N7320 X-5.896 Y-10.149
N7325 X-5.569 Y-10.131
N7330 X-5.241 Y-10.102
N7335 X-4.915 Y-10.063
N7340 X-4.591 Y-10.013
N7345 X-4.267 Y-9.953
N7350 X-3.946 Y-9.882
N7355 X-3.627 Y-9.801
N7360 X-3.31 Y-9.709
N7365 X-2.996 Y-9.607
N7370 X-2.685 Y-9.495
N7375 X-2.377 Y-9.372
N7380 X-2.072 Y-9.239
N7385 X-1.771 Y-9.096
N7390 X-1.474 Y-8.943
N7395 X-1.181 Y-8.78
N7400 X-0.892 Y-8.607
N7405 X-0.609 Y-8.424
N7410 X-0.33 Y-8.232
N7415 X-0.057 Y-8.029
N7420 X0.21 Y-7.818
N7425 X0.472 Y-7.597
N7430 X0.726 Y-7.367
N7435 X0.974 Y-7.128
N7440 X1.215 Y-6.881
N7445 X1.448 Y-6.625
N7450 X1.673 Y-6.362
N7455 X1.89 Y-6.091
N7460 X2.098 Y-5.813
N7465 X2.298 Y-5.527
N7470 X2.488 Y-5.236
N7475 X2.669 Y-4.938
N7480 X2.84 Y-4.634
N7485 X3.001 Y-4.325
N7490 X3.152 Y-4.011
N7495 X3.292 Y-3.693
N7500 X3.423 Y-3.37
N7505 X3.542 Y-3.044
N7510 X3.651 Y-2.715
N7515 X3.749 Y-2.383
N7520 X3.836 Y-2.048
N7525 X3.912 Y-1.712
N7530 X3.977 Y-1.374
N7535 X4.03 Y-1.034
N7540 X4.073 Y-0.694
N7545 X4.105 Y-0.352
N7550 X4.125 Y-0.011
N7555 X4.135 Y0.33
N7560 X4.134 Y0.671
N7565 X4.121 Y1.01
N7570 X4.098 Y1.349
N7575 X4.063 Y1.686
N7580 X4.018 Y2.022
N7585 X3.962 Y2.355
N7590 X3.896 Y2.687
N7595 X3.818 Y3.015
N7600 X3.731 Y3.341
N7605 X3.633 Y3.663
N7610 X3.524 Y3.982
N7615 X3.406 Y4.296
N7620 X3.277 Y4.607
N7625 X3.138 Y4.914
N7630 X2.99 Y5.215
N7635 X2.832 Y5.512
N7640 X2.664 Y5.804
N7645 X2.487 Y6.09
N7650 X2.301 Y6.37
N7655 X2.106 Y6.644
N7660 X1.901 Y6.912
N7665 X1.689 Y7.173
N7670 X1.467 Y7.428
N7675 X1.238 Y7.675
N7680 X1. Y7.915
N7685 X0.754 Y8.147
N7690 X0.501 Y8.372
N7695 X0.241 Y8.588
N7700 X-0.027 Y8.796
N7705 X-0.302 Y8.996
N7710 X-0.583 Y9.187
N7715 X-0.87 Y9.369
N7720 X-1.164 Y9.541
N7725 X-1.464 Y9.704
N7730 X-1.768 Y9.858
N7735 X-2.079 Y10.002
N7740 X-2.394 Y10.136
N7745 X-2.713 Y10.26
N7750 X-3.037 Y10.373
N7755 X-3.364 Y10.477
N7760 X-3.696 Y10.569
N7765 X-4.03 Y10.651
N7770 X-4.368 Y10.722
N7775 X-4.707 Y10.783
N7780 X-5.049 Y10.832
N7785 X-5.393 Y10.87
N7790 X-5.738 Y10.898
N7795 X-6.085 Y10.914
N7800 X-6.432 Y10.919
N7805 X-6.779 Y10.912
N7810 X-7.127 Y10.895
N7815 X-7.473 Y10.866
N7820 X-7.82 Y10.826
N7825 X-8.165 Y10.774
N7830 X-8.508 Y10.712
N7835 X-8.85 Y10.638
N7840 X-9.189 Y10.553
N7845 X-9.525 Y10.458
N7850 X-9.859 Y10.351
N7855 X-10.189 Y10.234
N7860 X-10.516 Y10.105
N7865 X-10.838 Y9.967
N7870 X-11.156 Y9.817
N7875 X-11.469 Y9.658
N7880 X-11.777 Y9.488
N7885 X-12.079 Y9.309
N7890 X-12.376 Y9.119
N7895 X-12.667 Y8.92
N7900 X-12.951 Y8.712
N7905 X-13.228 Y8.494
N7910 X-13.498 Y8.268
N7915 X-13.761 Y8.033
N7920 X-14.017 Y7.789
N7925 X-14.264 Y7.537
N7930 X-14.503 Y7.277
N7935 X-14.734 Y7.009
N7940 X-14.956 Y6.734
N7945 X-15.169 Y6.452
N7950 X-15.373 Y6.163
N7955 X-15.568 Y5.868
N7960 X-15.753 Y5.566
N7965 X-15.928 Y5.258
N7970 X-16.093 Y4.945
N7975 X-16.248 Y4.627
N7980 X-16.392 Y4.303
N7985 X-16.526 Y3.975
N7990 X-16.65 Y3.643
N7995 X-16.762 Y3.307
N8000 X-16.864 Y2.968
N8005 X-16.955 Y2.625
N8010 X-17.034 Y2.279
N8015 X-17.103 Y1.932
N8020 X-17.16 Y1.582
N8025 X-17.206 Y1.23
N8030 X-17.24 Y0.877
N8035 X-17.263 Y0.523
N8040 X-17.275 Y0.168
N8045 Y-0.187
N8050 X-17.263 Y-0.541
N8055 X-17.24 Y-0.896
N8060 X-17.206 Y-1.249
N8065 X-17.16 Y-1.601
N8070 X-17.103 Y-1.951
N8075 X-17.034 Y-2.3
N8080 X-16.955 Y-2.646
N8085 X-16.864 Y-2.989
N8090 X-16.762 Y-3.329
N8095 X-16.649 Y-3.666
N8100 X-16.526 Y-3.998
N8105 X-16.391 Y-4.327
N8110 X-16.246 Y-4.651
N8115 X-16.091 Y-4.971
N8120 X-15.925 Y-5.285
N8125 X-15.75 Y-5.593
N8130 X-15.564 Y-5.896
N8135 X-15.369 Y-6.193
N8140 X-15.164 Y-6.483
N8145 X-14.95 Y-6.767
N8150 X-14.727 Y-7.043
N8155 X-14.495 Y-7.312
N8160 X-14.254 Y-7.573
N8165 X-14.006 Y-7.827
N8170 X-13.749 Y-8.072
N8175 X-13.484 Y-8.309
N8180 X-13.212 Y-8.537
N8185 X-12.932 Y-8.757
N8190 X-12.646 Y-8.967
N8195 X-12.353 Y-9.168
N8200 X-12.053 Y-9.359
N8205 X-11.748 Y-9.54
N8210 X-11.437 Y-9.712
N8215 X-11.12 Y-9.873
N8220 X-10.799 Y-10.024
N8225 X-10.472 Y-10.164
N8230 X-10.142 Y-10.294
N8235 X-9.807 Y-10.413
N8240 X-9.468 Y-10.521
N8245 X-9.127 Y-10.619
N8250 X-8.782 Y-10.705
N8255 X-8.435 Y-10.78
N8260 X-8.085 Y-10.843
N8265 X-7.734 Y-10.896
N8270 X-7.381 Y-10.937
N8275 X-7.027 Y-10.966
N8280 X-6.672 Y-10.984
N8285 X-6.317 Y-10.991
N8290 X-5.961 Y-10.986
N8295 X-5.606 Y-10.969
N8300 X-5.251 Y-10.941
N8305 X-4.898 Y-10.902
N8310 X-4.545 Y-10.851
N8315 X-4.194 Y-10.789
N8320 X-3.845 Y-10.715
N8325 X-3.498 Y-10.63
N8330 X-3.153 Y-10.534
N8335 X-2.811 Y-10.426
N8340 X-2.472 Y-10.307
N8345 X-2.136 Y-10.177
N8350 X-1.804 Y-10.036
N8355 X-1.476 Y-9.884
N8360 X-1.152 Y-9.721
N8365 X-0.833 Y-9.547
N8370 X-0.519 Y-9.362
N8375 X-0.21 Y-9.167
N8380 X0.093 Y-8.961
N8385 X0.39 Y-8.745
N8390 X0.681 Y-8.519
N8395 X0.965 Y-8.283
N8400 X1.242 Y-8.038
N8405 X1.511 Y-7.783
N8410 X1.772 Y-7.519
N8415 X2.025 Y-7.247
N8420 X2.27 Y-6.966
N8425 X2.505 Y-6.677
N8430 X2.732 Y-6.38
N8435 X2.948 Y-6.075
N8440 X3.155 Y-5.764
N8445 X3.352 Y-5.446
N8450 X3.539 Y-5.122
N8455 X3.714 Y-4.792
N8460 X3.88 Y-4.457
N8465 X4.034 Y-4.116
N8470 X4.176 Y-3.771
N8475 X4.308 Y-3.422
N8480 X4.428 Y-3.069
N8485 X4.536 Y-2.713
N8490 X4.633 Y-2.354
N8495 X4.718 Y-1.992
N8500 X4.791 Y-1.628
N8505 X4.853 Y-1.263
N8510 X4.902 Y-0.896
N8515 X4.939 Y-0.529
N8520 X4.965 Y-0.161
N8525 X4.979 Y0.207
N8530 X4.98 Y0.576
N8535 X4.97 Y0.943
N8540 X4.948 Y1.309
N8545 X4.914 Y1.675
N8550 X4.868 Y2.038
N8555 X4.811 Y2.399
N8560 X4.742 Y2.759
N8565 X4.662 Y3.115
N8570 X4.57 Y3.468
N8575 X4.467 Y3.818
N8580 X4.352 Y4.164
N8585 X4.227 Y4.507
N8590 X4.091 Y4.845
N8595 X3.943 Y5.178
N8600 X3.786 Y5.506
N8605 X3.617 Y5.829
N8610 X3.438 Y6.147
N8615 X3.249 Y6.458
N8620 X3.05 Y6.763
N8625 X2.841 Y7.062
N8630 X2.623 Y7.354
N8635 X2.395 Y7.639
N8640 X2.158 Y7.917
N8645 X1.912 Y8.187
N8650 X1.657 Y8.449
N8655 X1.393 Y8.702
N8660 X1.122 Y8.948
N8665 X0.842 Y9.184
N8670 X0.555 Y9.412
N8675 X0.26 Y9.63
N8680 X-0.043 Y9.839
N8685 X-0.352 Y10.039
N8690 X-0.667 Y10.228
N8695 X-0.989 Y10.407
N8700 X-1.317 Y10.576
N8705 X-1.651 Y10.734
N8710 X-1.99 Y10.882
N8715 X-2.334 Y11.019
N8720 X-2.682 Y11.145
N8725 X-3.035 Y11.259
N8730 X-3.391 Y11.362
N8735 X-3.751 Y11.454
N8740 X-4.115 Y11.534
N8745 X-4.481 Y11.602
N8750 X-4.849 Y11.659
N8755 X-5.22 Y11.704
N8760 X-5.592 Y11.736
N8765 X-5.965 Y11.757
N8770 X-6.339 Y11.766
N8775 X-6.714 Y11.762
N8780 X-7.089 Y11.746
N8785 X-7.463 Y11.718
N8790 X-7.836 Y11.679
N8795 X-8.209 Y11.627
N8800 X-8.579 Y11.562
N8805 X-8.948 Y11.486
N8810 X-9.315 Y11.398
N8815 X-9.678 Y11.298
N8820 X-10.039 Y11.187
N8825 X-10.396 Y11.063
N8830 X-10.749 Y10.928
N8835 X-11.097 Y10.782
N8840 X-11.441 Y10.624
N8845 X-11.78 Y10.455
N8850 X-12.114 Y10.275
N8855 X-12.441 Y10.085
N8860 X-12.763 Y9.884
N8865 X-13.078 Y9.672
N8870 X-13.386 Y9.45
N8875 X-13.687 Y9.218
N8880 X-13.98 Y8.977
N8885 X-14.266 Y8.726
N8890 X-14.543 Y8.466
N8895 X-14.812 Y8.197
N8900 X-15.072 Y7.919
N8905 X-15.323 Y7.633
N8910 X-15.565 Y7.339
N8915 X-15.798 Y7.037
N8920 X-16.02 Y6.727
N8925 X-16.232 Y6.411
N8930 X-16.435 Y6.088
N8935 X-16.626 Y5.758
N8940 X-16.807 Y5.422
N8945 X-16.977 Y5.08
N8950 X-17.136 Y4.733
N8955 X-17.284 Y4.381
N8960 X-17.42 Y4.025
N8965 X-17.544 Y3.664
N8970 X-17.657 Y3.299
N8975 X-17.758 Y2.93
N8980 X-17.847 Y2.559
N8985 X-17.924 Y2.185
N8990 X-17.989 Y1.808
N8995 X-18.042 Y1.429
N9000 X-18.082 Y1.049
N9005 X-18.111 Y0.668
N9010 X-18.126 Y0.286
N9015 X-18.13 Y-0.096
N9020 X-18.121 Y-0.479
N9025 X-18.099 Y-0.861
N9030 X-18.066 Y-1.242
N9035 X-18.02 Y-1.621
N9040 X-17.962 Y-1.999
N9045 X-17.891 Y-2.376
N9050 X-17.809 Y-2.749
N9055 X-17.714 Y-3.12
N9060 X-17.608 Y-3.487
N9065 X-17.489 Y-3.851
N9070 X-17.359 Y-4.211
N9075 X-17.217 Y-4.567
N9080 X-17.064 Y-4.917
N9085 X-16.9 Y-5.263
N9090 X-16.725 Y-5.603
N9095 X-16.538 Y-5.938
N9100 X-16.341 Y-6.266
N9105 X-16.134 Y-6.587
N9110 X-15.916 Y-6.902
N9115 X-15.688 Y-7.21
N9120 X-15.45 Y-7.51
N9125 X-15.203 Y-7.802
N9130 X-14.946 Y-8.086
N9135 X-14.68 Y-8.361
N9140 X-14.406 Y-8.628
N9145 X-14.123 Y-8.886
N9150 X-13.831 Y-9.134
N9155 X-13.532 Y-9.373
N9160 X-13.226 Y-9.603
N9165 X-12.912 Y-9.822
N9170 X-12.591 Y-10.031
N9175 X-12.263 Y-10.229
N9180 X-11.93 Y-10.417
N9185 X-11.59 Y-10.594
N9190 X-11.245 Y-10.76
N9195 X-10.894 Y-10.914
N9200 X-10.539 Y-11.057
N9205 X-10.18 Y-11.189
N9210 X-9.816 Y-11.309
N9215 X-9.449 Y-11.417
N9220 X-9.078 Y-11.513
N9225 X-8.704 Y-11.597
N9230 X-8.328 Y-11.669
N9235 X-7.95 Y-11.729
N9240 X-7.57 Y-11.776
N9245 X-7.188 Y-11.811
N9250 X-6.806 Y-11.834
N9255 X-6.423 Y-11.845
N9260 X-6.039 Y-11.843
N9265 X-5.656 Y-11.828
N9270 X-5.273 Y-11.802
N9275 X-4.89 Y-11.762
N9280 X-4.509 Y-11.711
N9285 X-4.129 Y-11.647
N9290 X-3.751 Y-11.571
N9295 X-3.376 Y-11.482
N9300 X-3.002 Y-11.381
N9305 X-2.632 Y-11.268
N9310 X-2.265 Y-11.143
N9315 X-1.901 Y-11.006
N9320 X-1.541 Y-10.857
N9325 X-1.186 Y-10.696
N9330 X-0.835 Y-10.523
N9335 X-0.489 Y-10.339
N9340 X-0.149 Y-10.143
N9345 X0.185 Y-9.935
N9350 X0.513 Y-9.717
N9355 X0.835 Y-9.488
N9360 X1.15 Y-9.247
N9365 X1.457 Y-8.997
N9370 X1.757 Y-8.736
N9375 X2.048 Y-8.465
N9380 X2.331 Y-8.185
N9385 X2.605 Y-7.895
N9390 X2.869 Y-7.596
N9395 X3.125 Y-7.288
N9400 X3.37 Y-6.972
N9405 X3.605 Y-6.649
N9410 X3.83 Y-6.317
N9415 X4.043 Y-5.978
N9420 X4.246 Y-5.633
N9425 X4.438 Y-5.281
N9430 X4.618 Y-4.924
N9435 X4.786 Y-4.56
N9440 X4.942 Y-4.192
N9445 X5.087 Y-3.819
N9450 X5.219 Y-3.442
N9455 X5.338 Y-3.061
N9460 X5.446 Y-2.677
N9465 X5.54 Y-2.289
N9470 X5.622 Y-1.9
N9475 X5.692 Y-1.508
N9480 X5.748 Y-1.114
N9485 X5.792 Y-0.719
N9490 X5.823 Y-0.324
N9495 X5.841 Y0.072
N9500 X5.846 Y0.468
N9505 X5.839 Y0.863
N9510 X5.818 Y1.258
N9515 X5.785 Y1.652
N9520 X5.74 Y2.044
N9525 X5.682 Y2.434
N9530 X5.611 Y2.821
N9535 X5.528 Y3.206
N9540 X5.432 Y3.588
N9545 X5.324 Y3.966
N9550 X5.204 Y4.341
N9555 X5.072 Y4.711
N9560 X4.928 Y5.076
N9565 X4.773 Y5.437
N9570 X4.606 Y5.793
N9575 X4.427 Y6.143
N9580 X4.237 Y6.487
N9585 X4.037 Y6.824
N9590 X3.825 Y7.155
N9595 X3.603 Y7.48
N9600 X3.37 Y7.796
N9605 X3.127 Y8.106
N9610 X2.874 Y8.407
N9615 X2.611 Y8.7
N9620 X2.339 Y8.985
N9625 X2.058 Y9.261
N9630 X1.767 Y9.528
N9635 X1.468 Y9.786
N9640 X1.161 Y10.034
N9645 X0.845 Y10.272
N9650 X0.522 Y10.5
N9655 X0.191 Y10.717
N9660 X-0.147 Y10.924
N9665 X-0.492 Y11.12
N9670 X-0.843 Y11.305
N9675 X-1.2 Y11.478
N9680 X-1.564 Y11.641
N9685 X-1.932 Y11.791
N9690 X-2.306 Y11.93
N9695 X-2.684 Y12.056
N9700 X-3.066 Y12.171
N9705 X-3.453 Y12.273
N9710 X-3.843 Y12.362
N9715 X-4.235 Y12.439
N9720 X-4.631 Y12.503
N9725 X-5.029 Y12.555
N9730 X-5.428 Y12.594
N9735 X-5.829 Y12.619
N9740 X-6.231 Y12.632
N9745 X-6.634
N9750 X-7.036 Y12.619
N9755 X-7.439 Y12.592
N9760 X-7.84 Y12.553
N9765 X-8.241 Y12.501
N9770 X-8.639 Y12.435
N9775 X-9.036 Y12.357
N9780 X-9.431 Y12.266
N9785 X-9.822 Y12.162
N9790 X-10.21 Y12.046
N9795 X-10.595 Y11.917
N9800 X-10.975 Y11.775
N9805 X-11.351 Y11.621
N9810 X-11.722 Y11.455
N9815 X-12.087 Y11.277
N9820 X-12.447 Y11.087
N9825 X-12.8 Y10.886
N9830 X-13.148 Y10.673
N9835 X-13.488 Y10.448
N9840 X-13.821 Y10.213
N9845 X-14.146 Y9.967
N9850 X-14.463 Y9.711
N9855 X-14.772 Y9.444
N9860 X-15.072 Y9.168
N9865 X-15.364 Y8.881
N9870 X-15.646 Y8.585
N9875 X-15.918 Y8.281
N9880 X-16.181 Y7.967
N9885 X-16.433 Y7.645
N9890 X-16.675 Y7.315
N9895 X-16.906 Y6.977
N9900 X-17.126 Y6.632
N9905 X-17.335 Y6.28
N9910 X-17.532 Y5.921
N9915 X-17.718 Y5.556
N9920 X-17.892 Y5.185
N9925 X-18.054 Y4.808
N9930 X-18.203 Y4.427
N9935 X-18.34 Y4.04
N9940 X-18.465 Y3.65
N9945 X-18.577 Y3.255
N9950 X-18.676 Y2.857
N9955 X-18.763 Y2.456
N9960 X-18.836 Y2.052
N9965 X-18.896 Y1.646
N9970 X-18.943 Y1.239
N9975 X-18.977 Y0.829
N9980 X-18.997 Y0.419
N9985 X-19.005 Y0.009
N9990 X-18.999 Y-0.402
N9995 X-18.98 Y-0.812
N10000 X-18.947 Y-1.221
N10005 X-18.901 Y-1.629
N10010 X-18.842 Y-2.036
N10015 X-18.77 Y-2.44
N10020 X-18.685 Y-2.842
N10025 X-18.587 Y-3.241
N10030 X-18.476 Y-3.637
N10035 X-18.353 Y-4.029
N10040 X-18.217 Y-4.417
N10045 X-18.068 Y-4.8
N10050 X-17.907 Y-5.178
N10055 X-17.734 Y-5.551
N10060 X-17.549 Y-5.917
N10065 X-17.352 Y-6.278
N10070 X-17.143 Y-6.632
N10075 X-16.923 Y-6.98
N10080 X-16.692 Y-7.32
N10085 X-16.45 Y-7.652
N10090 X-16.198 Y-7.977
N10095 X-15.935 Y-8.293
N10100 X-15.662 Y-8.6
N10105 X-15.379 Y-8.899
N10110 X-15.087 Y-9.188
N10115 X-14.786 Y-9.467
N10120 X-14.475 Y-9.737
N10125 X-14.156 Y-9.997
N10130 X-13.829 Y-10.246
N10135 X-13.494 Y-10.484
N10140 X-13.152 Y-10.711
N10145 X-12.802 Y-10.928
N10150 X-12.445 Y-11.132
N10155 X-12.082 Y-11.326
N10160 X-11.713 Y-11.507
N10165 X-11.339 Y-11.676
N10170 X-10.959 Y-11.833
N10175 X-10.574 Y-11.978
N10180 X-10.184 Y-12.11
N10185 X-9.791 Y-12.23
N10190 X-9.394 Y-12.337
N10195 X-8.993 Y-12.43
N10200 X-8.59 Y-12.511
N10205 X-8.184 Y-12.579
N10210 X-7.776 Y-12.634
N10215 X-7.366 Y-12.675
N10220 X-6.955 Y-12.704
N10225 X-6.543 Y-12.718
N10230 X-6.131 Y-12.72
N10235 X-5.719 Y-12.708
N10240 X-5.306 Y-12.683
N10245 X-4.895 Y-12.645
N10250 X-4.484 Y-12.593
N10255 X-4.075 Y-12.528
N10260 X-3.668 Y-12.449
N10265 X-3.263 Y-12.358
N10270 X-2.861 Y-12.253
N10275 X-2.461 Y-12.135
N10280 X-2.066 Y-12.004
N10285 X-1.673 Y-11.86
N10290 X-1.286 Y-11.703
N10295 X-0.902 Y-11.534
N10300 X-0.524 Y-11.352
N10305 X-0.152 Y-11.157
N10310 X0.215 Y-10.95
N10315 X0.576 Y-10.731
N10320 X0.93 Y-10.5
N10325 X1.276 Y-10.257
N10330 X1.616 Y-10.003
N10335 X1.947 Y-9.738
N10340 X2.27 Y-9.462
N10345 X2.584 Y-9.175
N10350 X2.889 Y-8.877
N10355 X3.185 Y-8.57
N10360 X3.471 Y-8.253
N10365 X3.747 Y-7.927
N10370 X4.012 Y-7.591
N10375 X4.266 Y-7.247
N10380 X4.51 Y-6.895
N10385 X4.741 Y-6.535
N10390 X4.961 Y-6.168
N10395 X5.169 Y-5.794
N10400 X5.365 Y-5.413
N10405 X5.548 Y-5.026
N10410 X5.719 Y-4.634
N10415 X5.877 Y-4.236
N10420 X6.022 Y-3.834
N10425 X6.154 Y-3.428
N10430 X6.272 Y-3.017
N10435 X6.377 Y-2.604
N10440 X6.469 Y-2.187
N10445 X6.547 Y-1.768
N10450 X6.611 Y-1.347
N10455 X6.662 Y-0.925
N10460 X6.699 Y-0.501
N10465 X6.722 Y-0.077
N10470 X6.731 Y0.348
N10475 X6.727 Y0.772
N10480 X6.709 Y1.195
N10485 X6.677 Y1.618
N10490 X6.632 Y2.039
N10495 X6.573 Y2.458
N10500 X6.501 Y2.874
N10505 X6.415 Y3.288
N10510 X6.316 Y3.699
N10515 X6.204 Y4.106
N10520 X6.079 Y4.51
N10525 X5.941 Y4.908
N10530 X5.79 Y5.302
N10535 X5.626 Y5.691
N10540 X5.45 Y6.075
N10545 X5.262 Y6.452
N10550 X5.061 Y6.823
N10555 X4.849 Y7.188
N10560 X4.625 Y7.546
N10565 X4.389 Y7.896
N10570 X4.142 Y8.238
N10575 X3.884 Y8.573
N10580 X3.616 Y8.899
N10585 X3.336 Y9.216
N10590 X3.047 Y9.524
N10595 X2.748 Y9.823
N10600 X2.438 Y10.113
N10605 X2.12 Y10.392
N10610 X1.792 Y10.661
N10615 X1.456 Y10.919
N10620 X1.111 Y11.167
N10625 X0.759 Y11.403
N10630 X0.398 Y11.628
N10635 X0.03 Y11.842
N10640 X-0.345 Y12.043
N10645 X-0.726 Y12.233
N10650 X-1.114 Y12.41
N10655 X-1.508 Y12.575
N10660 X-1.907 Y12.727
N10665 X-2.311 Y12.866
N10670 X-2.72 Y12.993
N10675 X-3.133 Y13.106
N10680 X-3.55 Y13.205
N10685 X-3.97 Y13.291
N10690 X-4.393 Y13.364
N10695 X-4.818 Y13.423
N10700 X-5.246 Y13.468
N10705 X-5.675 Y13.5
N10710 X-6.106 Y13.517
N10715 X-6.537 Y13.521
N10720 X-6.968 Y13.51
N10725 X-7.399 Y13.486
N10730 X-7.829 Y13.448
N10735 X-8.258 Y13.396
N10740 X-8.686 Y13.329
N10745 X-9.111 Y13.25
N10750 X-9.534 Y13.156
N10755 X-9.954 Y13.048
N10760 X-10.371 Y12.927
N10765 X-10.784 Y12.793
N10770 X-11.192 Y12.645
N10775 X-11.596 Y12.484
N10780 X-11.994 Y12.31
N10785 X-12.387 Y12.123
N10790 X-12.774 Y11.923
N10795 X-13.154 Y11.71
N10800 X-13.528 Y11.486
N10805 X-13.894 Y11.249
N10810 X-14.252 Y11.001
N10815 X-14.603 Y10.741
N10820 X-14.945 Y10.469
N10825 X-15.278 Y10.187
N10830 X-15.602 Y9.893
N10835 X-15.916 Y9.59
N10840 X-16.221 Y9.276
N10845 X-16.515 Y8.953
N10850 X-16.799 Y8.62
N10855 X-17.072 Y8.277
N10860 X-17.334 Y7.927
N10865 X-17.585 Y7.567
N10870 X-17.823 Y7.2
N10875 X-18.05 Y6.825
N10880 X-18.265 Y6.443
N10885 X-18.467 Y6.054
N10890 X-18.657 Y5.659
N10895 X-18.834 Y5.257
N10900 X-18.997 Y4.85
N10905 X-19.148 Y4.438
N10910 X-19.285 Y4.021
N10915 X-19.408 Y3.6
N10920 X-19.518 Y3.175
N10925 X-19.615 Y2.747
N10930 X-19.697 Y2.315
N10935 X-19.765 Y1.882
N10940 X-19.819 Y1.446
N10945 X-19.859 Y1.008
N10950 X-19.885 Y0.57
N10955 X-19.897 Y0.13
N10960 X-19.895 Y-0.309
N10965 X-19.878 Y-0.748
N10970 X-19.847 Y-1.187
N10975 X-19.802 Y-1.624
N10980 X-19.743 Y-2.06
N10985 X-19.67 Y-2.493
N10990 X-19.582 Y-2.924
N10995 X-19.481 Y-3.352
N11000 X-19.366 Y-3.776
N11005 X-19.238 Y-4.197
N11010 X-19.096 Y-4.613
N11015 X-18.94 Y-5.025
N11020 X-18.772 Y-5.431
N11025 X-18.59 Y-5.831
N11030 X-18.395 Y-6.226
N11035 X-18.188 Y-6.614
N11040 X-17.968 Y-6.995
N11045 X-17.736 Y-7.369
N11050 X-17.492 Y-7.735
N11055 X-17.236 Y-8.093
N11060 X-16.969 Y-8.442
N11065 X-16.691 Y-8.783
N11070 X-16.402 Y-9.115
N11075 X-16.102 Y-9.437
N11080 X-15.792 Y-9.749
N11085 X-15.472 Y-10.051
N11090 X-15.143 Y-10.343
N11095 X-14.804 Y-10.623
N11100 X-14.456 Y-10.893
N11105 X-14.1 Y-11.151
N11110 X-13.735 Y-11.398
N11115 X-13.363 Y-11.633
N11120 X-12.983 Y-11.855
N11125 X-12.597 Y-12.065
N11130 X-12.203 Y-12.263
N11135 X-11.804 Y-12.448
N11140 X-11.399 Y-12.62
N11145 X-10.988 Y-12.778
N11150 X-10.573 Y-12.923
N11155 X-10.153 Y-13.055
N11160 X-9.728 Y-13.173
N11165 X-9.3 Y-13.277
N11170 X-8.869 Y-13.368
N11175 X-8.435 Y-13.444
N11180 X-7.999 Y-13.507
N11185 X-7.561 Y-13.555
N11190 X-7.121 Y-13.589
N11195 X-6.68 Y-13.609
N11200 X-6.238 Y-13.615
N11205 X-5.797 Y-13.606
N11210 X-5.355 Y-13.583
N11215 X-4.914 Y-13.546
N11220 X-4.474 Y-13.494
N11225 X-4.035 Y-13.429
N11230 X-3.598 Y-13.349
N11235 X-3.164 Y-13.254
N11240 X-2.732 Y-13.146
N11245 X-2.303 Y-13.023
N11250 X-1.878 Y-12.887
N11255 X-1.457 Y-12.737
N11260 X-1.041 Y-12.573
N11265 X-0.63 Y-12.395
N11270 X-0.223 Y-12.204
N11275 X0.177 Y-11.999
N11280 X0.571 Y-11.782
N11285 X0.958 Y-11.551
N11290 X1.338 Y-11.308
N11295 X1.711 Y-11.052
N11300 X2.076 Y-10.784
N11305 X2.432 Y-10.503
N11310 X2.779 Y-10.212
N11315 X3.117 Y-9.908
N11320 X3.446 Y-9.594
N11325 X3.764 Y-9.269
N11330 X4.072 Y-8.934
N11335 X4.369 Y-8.588
N11340 X4.655 Y-8.233
N11345 X4.93 Y-7.869
N11350 X5.192 Y-7.496
N11355 X5.443 Y-7.114
N11360 X5.681 Y-6.725
N11365 X5.906 Y-6.328
N11370 X6.119 Y-5.923
N11375 X6.318 Y-5.513
N11380 X6.504 Y-5.096
N11385 X6.676 Y-4.673
N11390 X6.834 Y-4.246
N11395 X6.979 Y-3.813
N11400 X7.109 Y-3.376
N11405 X7.225 Y-2.936
N11410 X7.327 Y-2.492
N11415 X7.414 Y-2.045
N11420 X7.486 Y-1.597
N11425 X7.545 Y-1.146
N11430 X7.588 Y-0.694
N11435 X7.617 Y-0.241
N11440 X7.631 Y0.213
N11445 X7.63 Y0.666
N11450 X7.615 Y1.119
N11455 X7.585 Y1.571
N11460 X7.541 Y2.022
N11465 X7.482 Y2.47
N11470 X7.409 Y2.917
N11475 X7.321 Y3.36
N11480 X7.219 Y3.8
N11485 X7.103 Y4.237
N11490 X6.973 Y4.669
N11495 X6.829 Y5.097
N11500 X6.671 Y5.52
N11505 X6.5 Y5.938
N11510 X6.315 Y6.35
N11515 X6.117 Y6.755
N11520 X5.906 Y7.154
N11525 X5.683 Y7.546
N11530 X5.446 Y7.931
N11535 X5.198 Y8.308
N11540 X4.937 Y8.677
N11545 X4.664 Y9.037
N11550 X4.38 Y9.388
N11555 X4.084 Y9.73
N11560 X3.778 Y10.063
N11565 X3.46 Y10.385
N11570 X3.132 Y10.697
N11575 X2.794 Y10.999
N11580 X2.447 Y11.29
N11585 X2.09 Y11.569
N11590 X1.724 Y11.837
N11595 X1.349 Y12.093
N11600 X0.966 Y12.337
N11605 X0.574 Y12.569
N11610 X0.176 Y12.788
N11615 X-0.23 Y12.994
N11620 X-0.643 Y13.187
N11625 X-1.062 Y13.367
N11630 X-1.487 Y13.533
N11635 X-1.917 Y13.686
N11640 X-2.353 Y13.824
N11645 X-2.793 Y13.949
N11650 X-3.237 Y14.059
N11655 X-3.685 Y14.156
N11660 X-4.136 Y14.237
N11665 X-4.59 Y14.304
N11670 X-5.046 Y14.356
N11675 X-5.504 Y14.394
N11680 X-5.963 Y14.417
N11685 X-6.423 Y14.425
N11690 X-6.883 Y14.418
N11695 X-7.343 Y14.396
N11700 X-7.803 Y14.359
N11705 X-8.262 Y14.307
N11710 X-8.719 Y14.241
N11715 X-9.173 Y14.16
N11720 X-9.626 Y14.064
N11725 X-10.075 Y13.953
N11730 X-10.52 Y13.828
N11735 X-10.962 Y13.688
N11740 X-11.399 Y13.534
N11745 X-11.831 Y13.366
N11750 X-12.258 Y13.184
N11755 X-12.679 Y12.988
N11760 X-13.094 Y12.779
N11765 X-13.501 Y12.556
N11770 X-13.902 Y12.32
N11775 X-14.295 Y12.071
N11780 X-14.68 Y11.809
N11785 X-15.056 Y11.535
N11790 X-15.423 Y11.249
N11795 X-15.781 Y10.951
N11800 X-16.13 Y10.641
N11805 X-16.468 Y10.32
N11810 X-16.796 Y9.988
N11815 X-17.113 Y9.646
N11820 X-17.419 Y9.294
N11825 X-17.713 Y8.931
N11830 X-17.996 Y8.559
N11835 X-18.267 Y8.179
N11840 X-18.525 Y7.789
N11845 X-18.77 Y7.391
N11850 X-19.003 Y6.986
N11855 X-19.222 Y6.573
N11860 X-19.428 Y6.153
N11865 X-19.621 Y5.726
N11870 X-19.799 Y5.294
N11875 X-19.964 Y4.856
N11880 X-20.114 Y4.412
N11885 X-20.25 Y3.964
N11890 X-20.371 Y3.512
N11895 X-20.478 Y3.056
N11900 X-20.569 Y2.597
N11905 X-20.646 Y2.134
N11910 X-20.708 Y1.67
N11915 X-20.755 Y1.204
N11920 X-20.787 Y0.736
N11925 X-20.804 Y0.268
N11930 X-20.805 Y-0.201
N11935 X-20.792 Y-0.67
N11940 X-20.763 Y-1.138
N11945 X-20.719 Y-1.604
N11950 X-20.66 Y-2.07
N11955 X-20.586 Y-2.533
N11960 X-20.497 Y-2.993
N11965 X-20.393 Y-3.451
N11970 X-20.275 Y-3.905
N11975 X-20.142 Y-4.354
N11980 X-19.994 Y-4.8
N11985 X-19.832 Y-5.24
N11990 X-19.656 Y-5.675
N11995 X-19.466 Y-6.104
N12000 X-19.262 Y-6.526
N12005 X-19.044 Y-6.942
N12010 X-18.814 Y-7.351
N12015 X-18.57 Y-7.752
N12020 X-18.313 Y-8.145
N12025 X-18.044 Y-8.529
N12030 X-17.762 Y-8.904
N12035 X-17.468 Y-9.271
N12040 X-17.163 Y-9.627
N12045 X-16.846 Y-9.974
N12050 X-16.519 Y-10.31
N12055 X-16.18 Y-10.635
N12060 X-15.831 Y-10.949
N12065 X-15.473 Y-11.252
N12070 X-15.104 Y-11.543
N12075 X-14.727 Y-11.822
N12080 X-14.34 Y-12.088
N12085 X-13.945 Y-12.342
N12090 X-13.542 Y-12.583
N12095 X-13.132 Y-12.811
N12100 X-12.714 Y-13.025
N12105 X-12.29 Y-13.226
N12110 X-11.859 Y-13.413
N12115 X-11.423 Y-13.586
N12120 X-10.981 Y-13.745
N12125 X-10.534 Y-13.89
N12130 X-10.082 Y-14.02
N12135 X-9.626 Y-14.135
N12140 X-9.167 Y-14.236
N12145 X-8.705 Y-14.322
N12150 X-8.24 Y-14.392
N12155 X-7.772 Y-14.448
N12160 X-7.303 Y-14.489
N12165 X-6.833 Y-14.514
N12170 X-6.361 Y-14.524
N12175 X-5.89 Y-14.519
N12180 X-5.418 Y-14.499
N12185 X-4.947 Y-14.464
N12190 X-4.476 Y-14.413
N12195 X-4.008 Y-14.347
N12200 X-3.541 Y-14.265
N12205 X-3.076 Y-14.169
N12210 X-2.615 Y-14.057
N12215 X-2.156 Y-13.931
N12220 X-1.702 Y-13.789
N12225 X-1.252 Y-13.633
N12230 X-0.806 Y-13.462
N12235 X-0.366 Y-13.277
N12240 X0.069 Y-13.077
N12245 X0.497 Y-12.862
N12250 X0.919 Y-12.634
N12255 X1.334 Y-12.392
N12260 X1.741 Y-12.137
N12265 X2.14 Y-11.868
N12270 X2.531 Y-11.586
N12275 X2.913 Y-11.291
N12280 X3.285 Y-10.984
N12285 X3.648 Y-10.664
N12290 X4. Y-10.333
N12295 X4.342 Y-9.99
N12300 X4.673 Y-9.636
N12305 X4.992 Y-9.272
N12310 X5.3 Y-8.897
N12315 X5.595 Y-8.512
N12320 X5.878 Y-8.118
N12325 X6.148 Y-7.714
N12330 X6.405 Y-7.302
N12335 X6.648 Y-6.882
N12340 X6.878 Y-6.455
N12345 X7.094 Y-6.02
N12350 X7.295 Y-5.578
N12355 X7.482 Y-5.13
N12360 X7.655 Y-4.676
N12365 X7.813 Y-4.218
N12370 X7.955 Y-3.754
N12375 X8.083 Y-3.286
N12380 X8.195 Y-2.815
N12385 X8.293 Y-2.34
N12390 X8.374 Y-1.863
N12395 X8.44 Y-1.384
N12400 X8.491 Y-0.903
N12405 X8.526 Y-0.42
N12410 X8.545 Y0.063
N12415 X8.549 Y0.546
N12420 X8.537 Y1.028
N12425 X8.51 Y1.51
N12430 X8.467 Y1.991
N12435 X8.408 Y2.469
N12440 X8.334 Y2.946
N12445 X8.245 Y3.419
N12450 X8.14 Y3.89
N12455 X8.021 Y4.356
N12460 X7.886 Y4.819
N12465 X7.737 Y5.276
N12470 X7.572 Y5.729
N12475 X7.394 Y6.176
N12480 X7.201 Y6.617
N12485 X6.993 Y7.051
N12490 X6.772 Y7.478
N12495 X6.537 Y7.899
N12500 X6.289 Y8.311
N12505 X6.027 Y8.715
N12510 X5.753 Y9.111
N12515 X5.466 Y9.497
N12520 X5.166 Y9.875
N12525 X4.854 Y10.242
N12530 X4.53 Y10.599
N12535 X4.195 Y10.946
N12540 X3.848 Y11.282
N12545 X3.491 Y11.607
N12550 X3.123 Y11.92
N12555 X2.745 Y12.221
N12560 X2.358 Y12.51
N12565 X1.961 Y12.787
N12570 X1.555 Y13.05
N12575 X1.14 Y13.301
N12580 X0.718 Y13.538
N12585 X0.287 Y13.761
N12590 X-0.151 Y13.971
N12595 X-0.595 Y14.166
N12600 X-1.046 Y14.347
N12605 X-1.503 Y14.514
N12610 X-1.965 Y14.666
N12615 X-2.433 Y14.803
N12620 X-2.905 Y14.924
N12625 X-3.381 Y15.031
N12630 X-3.86 Y15.122
N12635 X-4.343 Y15.198
N12640 X-4.828 Y15.258
N12645 X-5.315 Y15.302
N12650 X-5.803 Y15.331
N12655 X-6.293 Y15.343
N12660 X-6.783 Y15.34
N12665 X-7.273 Y15.321
N12670 X-7.762 Y15.287
N12675 X-8.251 Y15.236
N12680 X-8.738 Y15.17
N12685 X-9.222 Y15.087
N12690 X-9.704 Y14.99
N12695 X-10.183 Y14.876
N12700 X-10.659 Y14.747
N12705 X-11.13 Y14.603
N12710 X-11.596 Y14.443
N12715 X-12.058 Y14.268
N12720 X-12.513 Y14.079
N12725 X-12.963 Y13.874
N12730 X-13.406 Y13.656
N12735 X-13.842 Y13.422
N12740 X-14.27 Y13.175
N12745 X-14.69 Y12.914
N12750 X-15.102 Y12.639
N12755 X-15.505 Y12.351
N12760 X-15.898 Y12.05
N12765 X-16.282 Y11.736
N12770 X-16.655 Y11.41
N12775 X-17.018 Y11.072
N12780 X-17.37 Y10.722
N12785 X-17.711 Y10.361
N12790 X-18.039 Y9.989
N12795 X-18.356 Y9.607
N12800 X-18.66 Y9.214
N12805 X-18.952 Y8.812
N12810 X-19.23 Y8.4
N12815 X-19.495 Y7.979
N12820 X-19.746 Y7.55
N12825 X-19.983 Y7.113
N12830 X-20.206 Y6.668
N12835 X-20.415 Y6.216
N12840 X-20.609 Y5.758
N12845 X-20.788 Y5.293
N12850 X-20.952 Y4.823
N12855 X-21.101 Y4.348
N12860 X-21.234 Y3.868
N12865 X-21.352 Y3.384
N12870 X-21.454 Y2.896
N12875 X-21.54 Y2.406
N12880 X-21.61 Y1.912
N12885 X-21.665 Y1.417
N12890 X-21.703 Y0.92
N12895 X-21.725 Y0.422
N12900 X-21.731 Y-0.077
N12905 X-21.721 Y-0.575
N12910 X-21.695 Y-1.073
N12915 X-21.653 Y-1.57
N12920 X-21.594 Y-2.066
N12925 X-21.52 Y-2.559
N12930 X-21.43 Y-3.05
N12935 X-21.324 Y-3.537
N12940 X-21.202 Y-4.021
N12945 X-21.064 Y-4.501
N12950 X-20.912 Y-4.976
N12955 X-20.743 Y-5.446
N12960 X-20.56 Y-5.91
N12965 X-20.362 Y-6.368
N12970 X-20.149 Y-6.819
N12975 X-19.922 Y-7.264
N12980 X-19.68 Y-7.7
N12985 X-19.425 Y-8.129
N12990 X-19.155 Y-8.549
N12995 X-18.872 Y-8.961
N13000 X-18.576 Y-9.363
N13005 X-18.268 Y-9.755
N13010 X-17.946 Y-10.137
N13015 X-17.613 Y-10.509
N13020 X-17.267 Y-10.869
N13025 X-16.91 Y-11.218
N13030 X-16.542 Y-11.556
N13035 X-16.163 Y-11.881
N13040 X-15.774 Y-12.194
N13045 X-15.375 Y-12.494
N13050 X-14.967 Y-12.781
N13055 X-14.549 Y-13.055
N13060 X-14.123 Y-13.316
N13065 X-13.688 Y-13.562
N13070 X-13.246 Y-13.794
N13075 X-12.797 Y-14.012
N13080 X-12.34 Y-14.215
N13085 X-11.877 Y-14.403
N13090 X-11.408 Y-14.576
N13095 X-10.934 Y-14.734
N13100 X-10.455 Y-14.877
N13105 X-9.971 Y-15.004
N13110 X-9.484 Y-15.115
N13115 X-8.992 Y-15.211
N13120 X-8.498 Y-15.291
N13125 X-8.001 Y-15.355
N13130 X-7.502 Y-15.402
N13135 X-7.002 Y-15.434
N13140 X-6.501 Y-15.449
N13145 X-5.998 Y-15.448
N13150 X-5.496 Y-15.431
N13155 X-4.995 Y-15.398
N13160 X-4.494 Y-15.348
N13165 X-3.994 Y-15.282
N13170 X-3.497 Y-15.2
N13175 X-3.002 Y-15.102
N13180 X-2.51 Y-14.988
N13185 X-2.021 Y-14.857
N13190 X-1.537 Y-14.711
N13195 X-1.056 Y-14.549
N13200 X-0.581 Y-14.372
N13205 X-0.111 Y-14.179
N13210 X0.353 Y-13.97
N13215 X0.81 Y-13.747
N13220 X1.26 Y-13.508
N13225 X1.703 Y-13.255
N13230 X2.138 Y-12.988
N13235 X2.564 Y-12.706
N13240 X2.982 Y-12.41
N13245 X3.39 Y-12.101
N13250 X3.788 Y-11.778
N13255 X4.176 Y-11.443
N13260 X4.553 Y-11.094
N13265 X4.919 Y-10.734
N13270 X5.273 Y-10.362
N13275 X5.615 Y-9.978
N13280 X5.945 Y-9.583
N13285 X6.262 Y-9.177
N13290 X6.566 Y-8.762
N13295 X6.856 Y-8.336
N13300 X7.133 Y-7.902
N13305 X7.395 Y-7.458
N13310 X7.643 Y-7.007
N13315 X7.876 Y-6.547
N13320 X8.094 Y-6.08
N13325 X8.296 Y-5.607
N13330 X8.484 Y-5.127
N13335 X8.656 Y-4.642
N13340 X8.811 Y-4.151
N13345 X8.951 Y-3.656
N13350 X9.075 Y-3.157
N13355 X9.183 Y-2.654
N13360 X9.274 Y-2.148
N13365 X9.349 Y-1.639
N13370 X9.407 Y-1.129
N13375 X9.449 Y-0.617
N13380 X9.474 Y-0.104
N13385 X9.482 Y0.409
N13390 X9.474 Y0.922
N13395 X9.45 Y1.435
N13400 X9.408 Y1.946
N13405 X9.351 Y2.455
N13410 X9.277 Y2.962
N13415 X9.186 Y3.466
N13420 X9.08 Y3.967
N13425 X8.957 Y4.464
N13430 X8.818 Y4.957
N13435 X8.664 Y5.445
N13440 X8.493 Y5.927
N13445 X8.308 Y6.404
N13450 X8.106 Y6.875
N13455 X7.89 Y7.339
N13460 X7.659 Y7.795
N13465 X7.413 Y8.244
N13470 X7.153 Y8.685
N13475 X6.879 Y9.117
N13480 X6.591 Y9.54
N13485 X6.289 Y9.954
N13490 X5.974 Y10.358
N13495 X5.646 Y10.751
N13500 X5.305 Y11.134
N13505 X4.952 Y11.506
N13510 X4.587 Y11.866
N13515 X4.21 Y12.215
N13520 X3.822 Y12.551
N13525 X3.424 Y12.875
N13530 X3.014 Y13.186
N13535 X2.595 Y13.483
N13540 X2.166 Y13.767
N13545 X1.728 Y14.037
N13550 X1.281 Y14.293
N13555 X0.826 Y14.535
N13560 X0.363 Y14.761
N13565 X-0.107 Y14.973
N13570 X-0.585 Y15.17
N13575 X-1.068 Y15.351
N13580 X-1.558 Y15.517
N13585 X-2.053 Y15.666
N13590 X-2.553 Y15.8
N13595 X-3.057 Y15.918
N13600 X-3.565 Y16.019
N13605 X-4.077 Y16.104
N13610 X-4.591 Y16.172
N13615 X-5.108 Y16.224
N13620 X-5.626 Y16.259
N13625 X-6.146 Y16.277
N13630 X-6.666 Y16.278
N13635 X-7.186 Y16.263
N13640 X-7.706 Y16.231
N13645 X-8.225 Y16.181
N13650 X-8.742 Y16.116
N13655 X-9.258 Y16.033
N13660 X-9.77 Y15.934
N13665 X-10.279 Y15.818
N13670 X-10.785 Y15.685
N13675 X-11.286 Y15.537
N13680 X-11.783 Y15.372
N13685 X-12.274 Y15.191
N13690 X-12.759 Y14.994
N13695 X-13.238 Y14.781
N13700 X-13.71 Y14.553
N13705 X-14.175 Y14.31
N13710 X-14.632 Y14.051
N13715 X-15.08 Y13.778
N13720 X-15.519 Y13.491
N13725 X-15.949 Y13.189
N13730 X-16.37 Y12.873
N13735 X-16.78 Y12.544
N13740 X-17.179 Y12.202
N13745 X-17.567 Y11.847
N13750 X-17.944 Y11.479
N13755 X-18.308 Y11.099
N13760 X-18.66 Y10.707
N13765 X-19. Y10.305
N13770 X-19.326 Y9.891
N13775 X-19.639 Y9.467
N13780 X-19.938 Y9.032
N13785 X-20.223 Y8.589
N13790 X-20.494 Y8.136
N13795 X-20.75 Y7.674
N13800 X-20.991 Y7.205
N13805 X-21.216 Y6.727
N13810 X-21.426 Y6.243
N13815 X-21.62 Y5.752
N13820 X-21.799 Y5.255
N13825 X-21.961 Y4.752
N13830 X-22.107 Y4.244
N13835 X-22.236 Y3.732
N13840 X-22.349 Y3.215
N13845 X-22.445 Y2.696
N13850 X-22.525 Y2.173
N13855 X-22.587 Y1.648
N13860 X-22.632 Y1.121
N13865 X-22.66 Y0.593
N13870 X-22.672 Y0.064
N13875 X-22.666 Y-0.465
N13880 X-22.642 Y-0.994
N13885 X-22.602 Y-1.521
N13890 X-22.545 Y-2.047
N13895 X-22.471 Y-2.571
N13900 X-22.38 Y-3.093
N13905 X-22.272 Y-3.611
N13910 X-22.147 Y-4.125
N13915 X-22.006 Y-4.635
N13920 X-21.848 Y-5.141
N13925 X-21.675 Y-5.641
N13930 X-21.485 Y-6.135
N13935 X-21.279 Y-6.623
N13940 X-21.057 Y-7.104
N13945 X-20.82 Y-7.577
N13950 X-20.568 Y-8.043
N13955 X-20.301 Y-8.5
N13960 X-20.019 Y-8.949
N13965 X-19.723 Y-9.388
N13970 X-19.413 Y-9.817
N13975 X-19.089 Y-10.236
N13980 X-18.751 Y-10.644
N13985 X-18.401 Y-11.042
N13990 X-18.038 Y-11.427
N13995 X-17.662 Y-11.801
N14000 X-17.275 Y-12.162
N14005 X-16.876 Y-12.511
N14010 X-16.467 Y-12.847
N14015 X-16.046 Y-13.169
N14020 X-15.615 Y-13.478
N14025 X-15.175 Y-13.772
N14030 X-14.725 Y-14.052
N14035 X-14.266 Y-14.318
N14040 X-13.799 Y-14.568
N14045 X-13.324 Y-14.804
N14050 X-12.842 Y-15.023
N14055 X-12.353 Y-15.227
N14060 X-11.857 Y-15.416
N14065 X-11.355 Y-15.588
N14070 X-10.848 Y-15.744
N14075 X-10.336 Y-15.883
N14080 X-9.819 Y-16.006
N14085 X-9.299 Y-16.112
N14090 X-8.775 Y-16.201
N14095 X-8.248 Y-16.274
N14100 X-7.72 Y-16.329
N14105 X-7.189 Y-16.367
N14110 X-6.657 Y-16.388
N14115 X-6.124 Y-16.392
N14120 X-5.591 Y-16.379
N14125 X-5.058 Y-16.348
N14130 X-4.526 Y-16.3
N14135 X-3.996 Y-16.235
N14140 X-3.468 Y-16.152
N14145 X-2.942 Y-16.053
N14150 X-2.419 Y-15.936
N14155 X-1.899 Y-15.803
N14160 X-1.384 Y-15.652
N14165 X-0.873 Y-15.485
N14170 X-0.368 Y-15.302
N14175 X0.132 Y-15.101
N14180 X0.626 Y-14.885
N14185 X1.112 Y-14.652
N14190 X1.592 Y-14.404
N14195 X2.063 Y-14.14
N14200 X2.527 Y-13.861
N14205 X2.981 Y-13.566
N14210 X3.426 Y-13.257
N14215 X3.861 Y-12.933
N14220 X4.286 Y-12.595
N14225 X4.699 Y-12.244
N14230 X5.102 Y-11.878
N14235 X5.493 Y-11.5
N14240 X5.871 Y-11.109
N14245 X6.237 Y-10.706
N14250 X6.59 Y-10.291
N14255 X6.929 Y-9.865
N14260 X7.255 Y-9.428
N14265 X7.566 Y-8.98
N14270 X7.863 Y-8.523
N14275 X8.144 Y-8.056
N14280 X8.411 Y-7.58
N14285 X8.662 Y-7.096
N14290 X8.897 Y-6.604
N14295 X9.117 Y-6.104
N14300 X9.319 Y-5.598
N14305 X9.506 Y-5.086
N14310 X9.676 Y-4.568
N14315 X9.828 Y-4.044
N14320 X9.964 Y-3.517
N14325 X10.083 Y-2.985
N14330 X10.184 Y-2.45
N14335 X10.268 Y-1.912
N14340 X10.335 Y-1.371
N14345 X10.384 Y-0.829
N14350 X10.415 Y-0.286
N14355 X10.429 Y0.257
N14360 X10.425 Y0.801
N14365 X10.404 Y1.344
N14370 X10.365 Y1.886
N14375 X10.309 Y2.427
N14380 X10.235 Y2.965
N14385 X10.144 Y3.5
N14390 X10.036 Y4.032
N14395 X9.91 Y4.56
N14400 X9.768 Y5.084
N14405 X9.609 Y5.602
N14410 X9.433 Y6.116
N14415 X9.24 Y6.623
N14420 X9.032 Y7.124
N14425 X8.807 Y7.618
N14430 X8.566 Y8.104
N14435 X8.31 Y8.582
N14440 X8.038 Y9.052
N14445 X7.751 Y9.513
N14450 X7.45 Y9.964
N14455 X7.134 Y10.405
N14460 X6.804 Y10.837
N14465 X6.459 Y11.257
N14470 X6.102 Y11.666
N14475 X5.731 Y12.063
N14480 X5.348 Y12.449
N14485 X4.952 Y12.822
N14490 X4.544 Y13.182
N14495 X4.124 Y13.528
N14500 X3.693 Y13.862
N14505 X3.252 Y14.181
N14510 X2.8 Y14.486
N14515 X2.338 Y14.776
N14520 X1.867 Y15.052
N14525 X1.387 Y15.312
N14530 X0.899 Y15.556
N14535 X0.402 Y15.785
N14540 X-0.101 Y15.998
N14545 X-0.612 Y16.195
N14550 X-1.129 Y16.375
N14555 X-1.652 Y16.538
N14560 X-2.18 Y16.684
N14565 X-2.713 Y16.813
N14570 X-3.251 Y16.926
N14575 X-3.792 Y17.02
N14580 X-4.336 Y17.097
N14585 X-4.882 Y17.157
N14590 X-5.431 Y17.199
N14595 X-5.981 Y17.223
N14600 X-6.531 Y17.229
N14605 X-7.082 Y17.218
N14610 X-7.633 Y17.189
N14615 X-8.183 Y17.142
N14620 X-8.731 Y17.077
N14625 X-9.277 Y16.994
N14630 X-9.821 Y16.894
N14635 X-10.361 Y16.776
N14640 X-10.897 Y16.641
N14645 X-11.429 Y16.488
N14650 X-11.956 Y16.318
N14655 X-12.478 Y16.131
N14660 X-12.994 Y15.927
N14665 X-13.502 Y15.707
N14670 X-14.004 Y15.47
N14675 X-14.498 Y15.216
N14680 X-14.984 Y14.947
N14685 X-15.461 Y14.663
N14690 X-15.929 Y14.362
N14695 X-16.387 Y14.047
N14700 X-16.834 Y13.717
N14705 X-17.271 Y13.372
N14710 X-17.697 Y13.014
N14715 X-18.111 Y12.642
N14720 X-18.513 Y12.256
N14725 X-18.903 Y11.857
N14730 X-19.279 Y11.446
N14735 X-19.642 Y11.023
N14740 X-19.991 Y10.589
N14745 X-20.326 Y10.143
N14750 X-20.647 Y9.686
N14755 X-20.953 Y9.219
N14760 X-21.243 Y8.742
N14765 X-21.518 Y8.256
N14770 X-21.778 Y7.762
N14775 X-22.021 Y7.259
N14780 X-22.248 Y6.748
N14785 X-22.458 Y6.23
N14790 X-22.651 Y5.706
N14795 X-22.828 Y5.176
N14800 X-22.987 Y4.64
N14805 X-23.129 Y4.099
N14810 X-23.253 Y3.553
N14815 X-23.359 Y3.004
N14820 X-23.448 Y2.452
N14825 X-23.519 Y1.897
N14830 X-23.572 Y1.34
N14835 X-23.607 Y0.781
N14840 X-23.624 Y0.222
N14845 X-23.622 Y-0.338
N14850 X-23.603 Y-0.898
N14855 X-23.565 Y-1.456
N14860 X-23.51 Y-2.013
N14865 X-23.436 Y-2.569
N14870 X-23.345 Y-3.121
N14875 X-23.235 Y-3.67
N14880 X-23.108 Y-4.216
N14885 X-22.964 Y-4.757
N14890 X-22.802 Y-5.293
N14895 X-22.622 Y-5.824
N14900 X-22.426 Y-6.349
N14905 X-22.213 Y-6.867
N14910 X-21.983 Y-7.378
N14915 X-21.736 Y-7.881
N14920 X-21.474 Y-8.376
N14925 X-21.195 Y-8.863
N14930 X-20.902 Y-9.34
N14935 X-20.592 Y-9.807
N14940 X-20.268 Y-10.264
N14945 X-19.929 Y-10.711
N14950 X-19.576 Y-11.146
N14955 X-19.209 Y-11.57
N14960 X-18.828 Y-11.981
N14965 X-18.435 Y-12.38
N14970 X-18.028 Y-12.766
N14975 X-17.61 Y-13.139
N14980 X-17.179 Y-13.498
N14985 X-16.737 Y-13.843
N14990 X-16.284 Y-14.174
N14995 X-15.821 Y-14.49
N15000 X-15.348 Y-14.79
N15005 X-14.865 Y-15.076
N15010 X-14.373 Y-15.345
N15015 X-13.872 Y-15.598
N15020 X-13.364 Y-15.836
N15025 X-12.848 Y-16.056
N15030 X-12.325 Y-16.26
N15035 X-11.796 Y-16.447
N15040 X-11.26 Y-16.617
N15045 X-10.72 Y-16.769
N15050 X-10.174 Y-16.904
N15055 X-9.624 Y-17.021
N15060 X-9.071 Y-17.121
N15065 X-8.514 Y-17.202
N15070 X-7.955 Y-17.266
N15075 X-7.394 Y-17.311
N15080 X-6.831 Y-17.338
N15085 X-6.267 Y-17.347
N15090 X-5.703 Y-17.338
N15095 X-5.139 Y-17.311
N15100 X-4.576 Y-17.265
N15105 X-4.014 Y-17.201
N15110 X-3.454 Y-17.119
N15115 X-2.897 Y-17.019
N15120 X-2.343 Y-16.9
N15125 X-1.792 Y-16.764
N15130 X-1.246 Y-16.61
N15135 X-0.704 Y-16.438
N15140 X-0.168 Y-16.248
N15145 X0.362 Y-16.041
N15150 X0.886 Y-15.817
N15155 X1.403 Y-15.576
N15160 X1.912 Y-15.318
N15165 X2.413 Y-15.043
N15170 X2.905 Y-14.752
N15175 X3.388 Y-14.445
N15180 X3.861 Y-14.123
N15185 X4.324 Y-13.785
N15190 X4.776 Y-13.432
N15195 X5.216 Y-13.064
N15200 X5.645 Y-12.682
N15205 X6.061 Y-12.286
N15210 X6.465 Y-11.877
N15215 X6.855 Y-11.455
N15220 X7.231 Y-11.02
N15225 X7.594 Y-10.573
N15230 X7.942 Y-10.114
N15235 X8.275 Y-9.644
N15240 X8.592 Y-9.164
N15245 X8.894 Y-8.673
N15250 X9.18 Y-8.173
N15255 X9.45 Y-7.664
N15260 X9.703 Y-7.147
N15265 X9.939 Y-6.621
N15270 X10.158 Y-6.088
N15275 X10.36 Y-5.549
N15280 X10.544 Y-5.003
N15285 X10.711 Y-4.452
N15290 X10.859 Y-3.895
N15295 X10.99 Y-3.335
N15300 X11.102 Y-2.77
N15305 X11.196 Y-2.202
N15310 X11.271 Y-1.632
N15315 X11.328 Y-1.06
N15320 X11.366 Y-0.486
N15325 X11.386 Y0.089
N15330 X11.387 Y0.663
N15335 X11.37 Y1.238
N15340 X11.334 Y1.811
N15345 X11.279 Y2.383
N15350 X11.207 Y2.953
N15355 X11.115 Y3.519
N15360 X11.006 Y4.083
N15365 X10.878 Y4.642
N15370 X10.732 Y5.197
N15375 X10.569 Y5.747
N15380 X10.388 Y6.292
N15385 X10.189 Y6.83
N15390 X9.973 Y7.362
N15395 X9.74 Y7.886
N15400 X9.49 Y8.402
N15405 X9.223 Y8.91
N15410 X8.941 Y9.41
N15415 X8.642 Y9.9
N15420 X8.327 Y10.38
N15425 X7.997 Y10.849
N15430 X7.652 Y11.308
N15435 X7.292 Y11.756
N15440 X6.918 Y12.192
N15445 X6.53 Y12.615
N15450 X6.128 Y13.026
N15455 X5.713 Y13.424
N15460 X5.285 Y13.809
N15465 X4.844 Y14.179
N15470 X4.392 Y14.536
N15475 X3.929 Y14.877
N15480 X3.454 Y15.204
N15485 X2.969 Y15.515
N15490 X2.473 Y15.811
N15495 X1.968 Y16.09
N15500 X1.455 Y16.353
N15505 X0.932 Y16.6
N15510 X0.402 Y16.829
N15515 X-0.136 Y17.042
N15520 X-0.681 Y17.237
N15525 X-1.232 Y17.414
N15530 X-1.788 Y17.574
N15535 X-2.35 Y17.715
N15540 X-2.917 Y17.839
N15545 X-3.487 Y17.944
N15550 X-4.061 Y18.031
N15555 X-4.638 Y18.099
N15560 X-5.217 Y18.148
N15565 X-5.798 Y18.179
N15570 X-6.379 Y18.191
N15575 X-6.961 Y18.184
N15580 X-7.543 Y18.158
N15585 X-8.124 Y18.113
N15590 X-8.704 Y18.05
N15595 X-9.281 Y17.968
N15600 X-9.856 Y17.867
N15605 X-10.428 Y17.748
N15610 X-10.996 Y17.61
N15615 X-11.559 Y17.453
N15620 X-12.117 Y17.279
N15625 X-12.67 Y17.086
N15630 X-13.216 Y16.876
N15635 X-13.755 Y16.648
N15640 X-14.287 Y16.403
N15645 X-14.811 Y16.14
N15650 X-15.326 Y15.86
N15655 X-15.833 Y15.564
N15660 X-16.329 Y15.252
N15665 X-16.816 Y14.923
N15670 X-17.292 Y14.579
N15675 X-17.756 Y14.219
N15680 X-18.209 Y13.845
N15685 X-18.65 Y13.456
N15690 X-19.078 Y13.052
N15695 X-19.492 Y12.635
N15700 X-19.894 Y12.205
N15705 X-20.281 Y11.762
N15710 X-20.654 Y11.306
N15715 X-21.012 Y10.838
N15720 X-21.354 Y10.359
N15725 X-21.681 Y9.869
N15730 X-21.993 Y9.369
N15735 X-22.288 Y8.858
N15740 X-22.566 Y8.339
N15745 X-22.827 Y7.81
N15750 X-23.072 Y7.273
N15755 X-23.298 Y6.729
N15760 X-23.507 Y6.177
N15765 X-23.699 Y5.619
N15770 X-23.872 Y5.054
N15775 X-24.026 Y4.485
N15780 X-24.163 Y3.91
N15785 X-24.28 Y3.331
N15790 X-24.379 Y2.749
N15795 X-24.459 Y2.164
N15800 X-24.52 Y1.576
N15805 X-24.562 Y0.987
N15810 X-24.585 Y0.397
N15815 X-24.589 Y-0.194
N15820 X-24.574 Y-0.785
N15825 X-24.539 Y-1.375
N15830 X-24.486 Y-1.964
N15835 X-24.414 Y-2.55
N15840 X-24.322 Y-3.135
N15845 X-24.212 Y-3.715
N15850 X-24.083 Y-4.292
N15855 X-23.935 Y-4.865
N15860 X-23.769 Y-5.433
N15865 X-23.585 Y-5.995
N15870 X-23.383 Y-6.55
N15875 X-23.162 Y-7.099
N15880 X-22.925 Y-7.641
N15885 X-22.669 Y-8.174
N15890 X-22.397 Y-8.699
N15895 X-22.107 Y-9.216
N15900 X-21.802 Y-9.722
N15905 X-21.48 Y-10.218
N15910 X-21.142 Y-10.704
N15915 X-20.788 Y-11.178
N15920 X-20.419 Y-11.641
N15925 X-20.036 Y-12.092
N15930 X-19.638 Y-12.53
N15935 X-19.226 Y-12.955
N15940 X-18.801 Y-13.366
N15945 X-18.362 Y-13.764
N15950 X-17.911 Y-14.147
N15955 X-17.448 Y-14.515
N15960 X-16.973 Y-14.868
N15965 X-16.487 Y-15.206
N15970 X-15.99 Y-15.528
N15975 X-15.483 Y-15.834
N15980 X-14.966 Y-16.123
N15985 X-14.44 Y-16.395
N15990 X-13.905 Y-16.65
N15995 X-13.363 Y-16.888
N16000 X-12.813 Y-17.108
N16005 X-12.255 Y-17.31
N16010 X-11.692 Y-17.495
N16015 X-11.122 Y-17.661
N16020 X-10.548 Y-17.808
N16025 X-9.969 Y-17.937
N16030 X-9.385 Y-18.047
N16035 X-8.798 Y-18.138
N16040 X-8.208 Y-18.211
N16045 X-7.616 Y-18.264
N16050 X-7.022 Y-18.298
N16055 X-6.427 Y-18.313
N16060 X-5.832 Y-18.308
N16065 X-5.236 Y-18.285
N16070 X-4.641 Y-18.242
N16075 X-4.048 Y-18.179
N16080 X-3.456 Y-18.098
N16085 X-2.867 Y-17.997
N16090 X-2.281 Y-17.878
N16095 X-1.699 Y-17.739
N16100 X-1.121 Y-17.581
N16105 X-0.548 Y-17.405
N16110 X0.019 Y-17.21
N16115 X0.581 Y-16.997
N16120 X1.135 Y-16.765
N16125 X1.682 Y-16.516
N16130 X2.222 Y-16.248
N16135 X2.752 Y-15.964
N16140 X3.274 Y-15.661
N16145 X3.786 Y-15.342
N16150 X4.288 Y-15.007
N16155 X4.779 Y-14.655
N16160 X5.259 Y-14.287
N16165 X5.726 Y-13.904
N16170 X6.182 Y-13.505
N16175 X6.624 Y-13.092
N16180 X7.053 Y-12.664
N16185 X7.469 Y-12.223
N16190 X7.869 Y-11.768
N16195 X8.256 Y-11.3
N16200 X8.627 Y-10.82
N16205 X8.982 Y-10.328
N16210 X9.321 Y-9.825
N16215 X9.644 Y-9.311
N16220 X9.95 Y-8.786
N16225 X10.239 Y-8.252
N16230 X10.511 Y-7.709
N16235 X10.765 Y-7.157
N16240 X11.001 Y-6.598
N16245 X11.218 Y-6.031
N16250 X11.418 Y-5.457
N16255 X11.598 Y-4.878
N16260 X11.76 Y-4.293
N16265 X11.903 Y-3.703
N16270 X12.026 Y-3.109
N16275 X12.13 Y-2.511
N16280 X12.215 Y-1.91
N16285 X12.281 Y-1.307
N16290 X12.326 Y-0.703
N16295 X12.353 Y-0.097
N16300 X12.359 Y0.509
N16305 X12.346 Y1.115
N16310 X12.314 Y1.72
N16315 X12.262 Y2.324
N16320 X12.19 Y2.925
N16325 X12.099 Y3.524
N16330 X11.989 Y4.119
N16335 X11.86 Y4.711
N16340 X11.711 Y5.297
N16345 X11.544 Y5.879
N16350 X11.358 Y6.455
N16355 X11.153 Y7.025
N16360 X10.93 Y7.587
N16365 X10.689 Y8.143
N16370 X10.43 Y8.69
N16375 X10.154 Y9.228
N16380 X9.86 Y9.758
N16385 X9.55 Y10.277
N16390 X9.222 Y10.787
N16395 X8.879 Y11.285
N16400 X8.519 Y11.773
N16405 X8.143 Y12.248
N16410 X7.753 Y12.711
N16415 X7.347 Y13.162
N16420 X6.927 Y13.599
N16425 X6.493 Y14.023
N16430 X6.046 Y14.432
N16435 X5.585 Y14.827
N16440 X5.111 Y15.207
N16445 X4.625 Y15.572
N16450 X4.128 Y15.921
N16455 X3.619 Y16.253
N16460 X3.099 Y16.57
N16465 X2.57 Y16.869
N16470 X2.03 Y17.151
N16475 X1.482 Y17.416
N16480 X0.925 Y17.663
N16485 X0.36 Y17.892
N16490 X-0.212 Y18.103
N16495 X-0.792 Y18.295
N16500 X-1.377 Y18.469
N16505 X-1.968 Y18.623
N16510 X-2.564 Y18.759
N16515 X-3.164 Y18.875
N16520 X-3.61 Y18.946
N16525 X-3.783 Y18.969
N16530 X-3.957 Y18.983
N16535 X-4.131 Y18.987
N16540 X-7.371
N16545 X-8.52 Y18.93
N16550 X-8.994 Y18.891
N16555 X-9.486 Y18.834
N16560 X-9.996 Y18.758
N16565 X-10.521 Y18.663
N16570 X-11.056 Y18.548
N16575 X-11.599 Y18.413
N16580 X-12.147 Y18.258
N16585 X-12.697 Y18.082
N16590 X-13.247 Y17.887
N16595 X-13.796 Y17.672
N16600 X-14.342 Y17.437
N16605 X-14.884 Y17.183
N16610 X-15.42 Y16.911
N16615 X-15.95 Y16.62
N16620 X-16.472 Y16.31
N16625 X-16.986 Y15.982
N16630 X-17.49 Y15.637
N16635 X-17.984 Y15.275
N16640 X-18.468 Y14.897
N16645 X-18.94 Y14.502
N16650 X-19.399 Y14.091
N16655 X-19.846 Y13.665
N16660 X-20.279 Y13.225
N16665 X-20.698 Y12.77
N16670 X-21.102 Y12.302
N16675 X-21.492 Y11.82
N16680 X-21.866 Y11.326
N16685 X-22.223 Y10.82
N16690 X-22.565 Y10.302
N16695 X-22.889 Y9.773
N16700 X-23.197 Y9.234
N16705 X-23.487 Y8.685
N16710 X-23.759 Y8.127
N16715 X-24.013 Y7.56
N16720 X-24.248 Y6.985
N16725 X-24.465 Y6.402
N16730 X-24.663 Y5.813
N16735 X-24.842 Y5.217
N16740 X-25.002 Y4.616
N16745 X-25.142 Y4.01
N16750 X-25.262 Y3.4
N16755 X-25.363 Y2.786
N16760 X-25.443 Y2.169
N16765 X-25.504 Y1.55
N16770 X-25.545 Y0.929
N16775 X-25.562 Y0.39
N16780 X-25.563 Y0.317
N16785 Y0.
N16790 X-25.5 Y-1.254
N16795 X-25.458 Y-1.844
N16800 X-25.396 Y-2.437
N16805 X-25.315 Y-3.033
N16810 X-25.213 Y-3.63
N16815 X-25.092 Y-4.226
N16820 X-24.95 Y-4.821
N16825 X-24.79 Y-5.412
N16830 X-24.609 Y-6.
N16835 X-24.409 Y-6.583
N16840 X-24.19 Y-7.161
N16845 X-23.952 Y-7.732
N16850 X-23.695 Y-8.296
N16855 X-23.42 Y-8.851
N16860 X-23.127 Y-9.398
N16865 X-22.816 Y-9.936
N16870 X-22.488 Y-10.464
N16875 X-22.142 Y-10.981
N16880 X-21.78 Y-11.487
N16885 X-21.402 Y-11.981
N16890 X-21.007 Y-12.463
N16895 X-20.598 Y-12.932
N16900 X-20.173 Y-13.387
N16905 X-19.733 Y-13.829
N16910 X-19.28 Y-14.256
N16915 X-18.812 Y-14.668
N16920 X-18.332 Y-15.065
N16925 X-17.839 Y-15.447
N16930 X-17.334 Y-15.812
N16935 X-16.817 Y-16.161
N16940 X-16.289 Y-16.493
N16945 X-15.75 Y-16.808
N16950 X-15.202 Y-17.105
N16955 X-14.644 Y-17.385
N16960 X-14.077 Y-17.646
N16965 X-13.502 Y-17.889
N16970 X-12.919 Y-18.113
N16975 X-12.329 Y-18.319
N16980 X-11.733 Y-18.505
N16985 X-11.131 Y-18.672
N16990 X-10.523 Y-18.819
N16995 X-10.049 Y-18.918
N17000 X-9.826 Y-18.957
N17005 X-9.601 Y-18.98
N17010 X-9.375 Y-18.987
N17015 X-4.494
N17020 X-3.779 Y-18.952
N17025 X-3.338 Y-18.915
N17030 X-2.871 Y-18.861
N17035 X-2.39 Y-18.79
N17040 X-1.901 Y-18.702
N17045 X-1.393 Y-18.592
N17050 X-0.87 Y-18.462
N17055 X-0.335 Y-18.31
N17060 X0.207 Y-18.137
N17065 X0.754 Y-17.943
N17070 X1.304 Y-17.728
N17075 X1.853 Y-17.492
N17080 X2.401 Y-17.235
N17085 X2.944 Y-16.959
N17090 X3.482 Y-16.663
N17095 X4.013 Y-16.348
N17100 X4.537 Y-16.014
N17105 X5.052 Y-15.662
N17110 X5.557 Y-15.292
N17115 X6.052 Y-14.905
N17120 X6.535 Y-14.5
N17125 X7.006 Y-14.079
N17130 X7.464 Y-13.643
N17135 X7.909 Y-13.191
N17140 X8.339 Y-12.724
N17145 X8.754 Y-12.242
N17150 X9.155 Y-11.748
N17155 X9.539 Y-11.24
N17160 X9.907 Y-10.719
N17165 X10.258 Y-10.187
N17170 X10.591 Y-9.643
N17175 X10.907 Y-9.089
N17180 X11.206 Y-8.524
N17185 X11.485 Y-7.95
N17190 X11.746 Y-7.367
N17195 X11.988 Y-6.776
N17200 X12.211 Y-6.178
N17205 X12.415 Y-5.572
N17210 X12.598 Y-4.961
N17215 X12.762 Y-4.344
N17220 X12.906 Y-3.721
N17225 X13.03 Y-3.095
N17230 X13.133 Y-2.465
N17235 X13.216 Y-1.832
N17240 X13.278 Y-1.197
N17245 X13.32 Y-0.56
N17250 X13.341 Y0.077
N17255 Y0.715
N17260 X13.321 Y1.353
N17265 X13.28 Y1.989
N17270 X13.219 Y2.624
N17275 X13.137 Y3.256
N17280 X13.035 Y3.885
N17285 X12.912 Y4.511
N17290 X12.77 Y5.132
N17295 X12.607 Y5.748
N17300 X12.425 Y6.358
N17305 X12.223 Y6.963
N17310 X12.001 Y7.56
N17315 X11.761 Y8.15
N17320 X11.501 Y8.732
N17325 X11.223 Y9.305
N17330 X10.926 Y9.869
N17335 X10.611 Y10.423
N17340 X10.278 Y10.967
N17345 X9.928 Y11.5
N17350 X9.561 Y12.021
N17355 X9.177 Y12.53
N17360 X8.777 Y13.027
N17365 X8.36 Y13.51
N17370 X7.929 Y13.98
N17375 X7.482 Y14.436
N17380 X7.02 Y14.877
N17385 X6.544 Y15.303
N17390 X6.055 Y15.714
N17395 X5.552 Y16.109
N17400 X5.037 Y16.488
N17405 X4.51 Y16.849
N17410 X3.971 Y17.194
N17415 X3.42 Y17.521
N17420 X2.86 Y17.831
N17425 X2.289 Y18.122
N17430 X1.709 Y18.395
N17435 X1.12 Y18.649
N17440 X0.842 Y18.758
N17445 X0.45 Y18.885
N17450 X0.045 Y18.962
N17455 X-0.366 Y18.987
N17460 X-4.131
N17465 G3 X-4.882 Y18.689 Z-8.313 I0.042 J-1.199
N17470 G1 X-5.678 Y17.989 Z-8.2
N17475 X-24.476 Y1.458
N17480 X-25.156 Y0.859 Z-8.296
N17485 G3 X-25.563 Y0. Z-8.4 I0.792 J-0.901
N17490 G1 Y-4.306
N17495 X-25.544 Y-4.697
N17500 X-25.522 Y-4.956
N17505 X-25.488 Y-5.251
N17510 X-25.442 Y-5.565
N17515 X-25.381 Y-5.899
N17520 X-25.301 Y-6.271
N17525 X-25.207 Y-6.65
N17530 X-25.092 Y-7.054
N17535 X-24.954 Y-7.487
N17540 X-24.793 Y-7.941
N17545 X-24.614 Y-8.398
N17550 X-24.411 Y-8.869
N17555 X-24.183 Y-9.356
N17560 X-23.93 Y-9.853
N17565 X-23.653 Y-10.357
N17570 X-23.353 Y-10.863
N17575 X-23.03 Y-11.37
N17580 X-22.686 Y-11.873
N17585 X-22.322 Y-12.371
N17590 X-21.938 Y-12.861
N17595 X-21.534 Y-13.343
N17600 X-21.113 Y-13.814
N17605 X-20.674 Y-14.275
N17610 X-20.217 Y-14.724
N17615 X-19.744 Y-15.16
N17620 X-19.255 Y-15.582
N17625 X-18.752 Y-15.989
N17630 X-18.234 Y-16.381
N17635 X-17.702 Y-16.756
N17640 X-17.158 Y-17.115
N17645 X-16.602 Y-17.457
N17650 X-16.034 Y-17.78
N17655 X-15.456 Y-18.086
N17660 X-14.867 Y-18.373
N17665 X-14.269 Y-18.64
N17670 X-14.023 Y-18.741
N17675 X-13.618 Y-18.877
N17680 X-13.199 Y-18.96
N17685 X-12.772 Y-18.987
N17690 X-9.375
N17695 G3 X-8.217 Y-17.747 Z-8.2 I-0.042 J1.199
N17700 X-8.614 Y-16.896 I-1.199 J-0.041
N17705 G1 X-23.561 Y-3.455
N17710 G3 X-24.323 Y-3.148 I-0.802 J-0.892
N17715 X-25.563 Y-4.306 Z-8.4 I-0.041 J-1.199
N17720 G1 Y-6.656
N17725 X-25.546 Y-7.
N17730 X-25.529 Y-7.199
N17735 X-25.506 Y-7.402
N17740 X-25.471 Y-7.636
N17745 X-25.428 Y-7.877
N17750 X-25.37 Y-8.146
N17755 X-25.298 Y-8.433
N17760 X-25.213 Y-8.736
N17765 X-25.106 Y-9.071
N17770 X-24.984 Y-9.413
N17775 X-24.842 Y-9.777
N17780 X-24.674 Y-10.168
N17785 X-24.482 Y-10.576
N17790 X-24.274 Y-10.986
N17795 X-24.037 Y-11.416
N17800 X-23.773 Y-11.863
N17805 X-23.481 Y-12.321
N17810 X-23.163 Y-12.786
N17815 X-22.823 Y-13.249
N17820 X-22.462 Y-13.71
N17825 X-22.076 Y-14.171
N17830 X-21.666 Y-14.631
N17835 X-21.231 Y-15.086
N17840 X-20.775 Y-15.534
N17845 X-20.299 Y-15.974
N17850 X-19.803 Y-16.402
N17855 X-19.289 Y-16.818
N17860 X-18.757 Y-17.219
N17865 X-18.21 Y-17.606
N17870 X-17.648 Y-17.977
N17875 X-17.072 Y-18.331
N17880 X-16.615 Y-18.591
N17885 X-16.587 Y-18.606
N17890 X-16.222 Y-18.771
N17895 X-15.84 Y-18.891
N17900 X-15.446 Y-18.963
N17905 X-15.046 Y-18.987
N17910 X-12.772
N17915 G3 X-11.615 Y-17.747 Z-8.2 I-0.042 J1.199
N17920 X-11.983 Y-16.923 I-1.199 J-0.041
N17925 G1 X-23.533 Y-5.832
N17930 G3 X-24.323 Y-5.498 I-0.831 J-0.866
N17935 X-25.563 Y-6.656 Z-8.4 I-0.041 J-1.199
N17940 G1 Y-8.611
N17945 X-25.55 Y-8.879
N17950 X-25.536 Y-9.045
N17955 X-25.516 Y-9.215
N17960 X-25.487 Y-9.411
N17965 X-25.451 Y-9.611
N17970 X-25.403 Y-9.836
N17975 X-25.344 Y-10.073
N17980 X-25.272 Y-10.327
N17985 X-25.182 Y-10.608
N17990 X-25.082 Y-10.891
N17995 X-24.959 Y-11.204
N18000 X-24.816 Y-11.536
N18005 X-24.659 Y-11.872
N18010 X-24.475 Y-12.233
N18015 X-24.265 Y-12.616
N18020 X-24.034 Y-13.005
N18025 X-23.782 Y-13.401
N18030 X-23.499 Y-13.815
N18035 X-23.186 Y-14.242
N18040 X-22.844 Y-14.679
N18045 X-22.477 Y-15.117
N18050 X-22.089 Y-15.551
N18055 X-21.675 Y-15.985
N18060 X-21.234 Y-16.419
N18065 X-20.766 Y-16.85
N18070 X-20.274 Y-17.275
N18075 X-19.76 Y-17.691
N18080 X-19.287 Y-18.049
N18085 X-18.915 Y-18.311
N18090 X-18.716 Y-18.443
N18095 X-18.297 Y-18.677
N18100 X-17.848 Y-18.848
N18105 X-17.379 Y-18.953
N18110 X-16.899 Y-18.987
N18115 X-15.046
N18120 G3 X-13.889 Y-17.747 Z-8.2 I-0.042 J1.199
N18125 X-14.246 Y-16.933 I-1.199 J-0.041
N18130 G1 X-23.522 Y-7.798
N18135 G3 X-24.323 Y-7.454 I-0.842 J-0.855
N18140 X-25.563 Y-8.611 Z-8.4 I-0.041 J-1.199
N18145 G1 Y-10.244
N18150 X-25.548 Y-10.553
N18155 X-25.535 Y-10.703
N18160 X-25.517 Y-10.861
N18165 X-25.491 Y-11.028
N18170 X-25.458 Y-11.211
N18175 X-25.414 Y-11.41
N18180 X-25.362 Y-11.617
N18185 X-25.296 Y-11.849
N18190 X-25.22 Y-12.086
N18195 X-25.128 Y-12.343
N18200 X-25.018 Y-12.622
N18205 X-24.896 Y-12.904
N18210 X-24.75 Y-13.212
N18215 X-24.583 Y-13.539
N18220 X-24.401 Y-13.868
N18225 X-24.191 Y-14.219
N18230 X-23.954 Y-14.59
N18235 X-23.693 Y-14.969
N18240 X-23.413 Y-15.35
N18245 X-23.1 Y-15.747
N18250 X-22.756 Y-16.156
N18255 X-22.38 Y-16.574
N18260 X-21.984 Y-16.987
N18265 X-21.586 Y-17.377
N18270 X-21.233 Y-17.701
N18275 X-20.909 Y-17.979
N18280 X-20.636 Y-18.199
N18285 X-20.416 Y-18.364
N18290 X-20.383 Y-18.387
N18295 X-20.039 Y-18.599
N18300 X-19.671 Y-18.767
N18305 X-19.286 Y-18.889
N18310 X-18.889 Y-18.963
N18315 X-18.485 Y-18.987
N18320 X-16.899
N18325 G3 X-15.742 Y-17.747 Z-8.2 I-0.042 J1.199
N18330 X-16.088 Y-16.944 I-1.199 J-0.041
N18335 G1 X-23.511 Y-9.442
N18340 G3 X-24.323 Y-9.086 I-0.853 J-0.844
N18345 X-25.563 Y-10.244 Z-8.4 I-0.041 J-1.199
N18350 G1 Y-11.84
N18355 X-25.552 Y-12.064
N18360 X-25.54 Y-12.214
N18365 X-25.522 Y-12.363
N18370 X-25.497 Y-12.521
N18375 X-25.466 Y-12.688
N18380 X-25.426 Y-12.869
N18385 X-25.376 Y-13.067
N18390 X-25.317 Y-13.27
N18395 X-25.243 Y-13.497
N18400 X-25.158 Y-13.731
N18405 X-25.06 Y-13.979
N18410 X-24.941 Y-14.25
N18415 X-24.811 Y-14.524
N18420 X-24.66 Y-14.817
N18425 X-24.483 Y-15.134
N18430 X-24.292 Y-15.452
N18435 X-24.077 Y-15.785
N18440 X-23.836 Y-16.134
N18445 X-23.576 Y-16.485
N18450 X-23.303 Y-16.829
N18455 X-23.025 Y-17.157
N18460 X-22.754 Y-17.457
N18465 X-22.529 Y-17.69
N18470 X-22.294 Y-17.919
N18475 X-22.105 Y-18.091
N18480 X-21.9 Y-18.266
N18485 X-21.535 Y-18.519
N18490 X-21.139 Y-18.721
N18495 X-20.719 Y-18.868
N18500 X-20.284 Y-18.958
N18505 X-19.84 Y-18.987
N18510 G3 X-18.683 Y-17.747 Z-8.2 I-0.042 J1.199
N18515 X-18.926 Y-17.063 I-1.199 J-0.041
N18520 G1 X-23.408 Y-11.157
N18525 G3 X-24.323 Y-10.683 I-0.956 J-0.725
N18530 X-25.563 Y-11.84 Z-8.4 I-0.041 J-1.199
N18535 G1 Y-13.276
N18540 X-25.552 Y-13.493
N18545 X-25.54 Y-13.642
N18550 X-25.522 Y-13.791
N18555 X-25.498 Y-13.94
N18560 X-25.467 Y-14.102
N18565 X-25.429 Y-14.27
N18570 X-25.381 Y-14.453
N18575 X-25.323 Y-14.652
N18580 X-25.255 Y-14.855
N18585 X-25.173 Y-15.08
N18590 X-25.079 Y-15.312
N18595 X-24.973 Y-15.553
N18600 X-24.849 Y-15.81
N18605 X-24.71 Y-16.076
N18610 X-24.56 Y-16.341
N18615 X-24.4 Y-16.606
N18620 X-24.229 Y-16.867
N18625 X-24.052 Y-17.12
N18630 X-23.888 Y-17.339
N18635 X-23.733 Y-17.533
N18640 X-23.561 Y-17.734
N18645 X-23.416 Y-17.893
N18650 X-23.276 Y-18.036
N18655 X-23.247 Y-18.065
N18660 X-22.925 Y-18.337
N18665 X-22.572 Y-18.566
N18670 X-22.192 Y-18.748
N18675 X-21.792 Y-18.88
N18680 X-21.379 Y-18.961
N18685 X-20.958 Y-18.987
N18690 G3 X-19.801 Y-17.747 Z-8.2 I-0.042 J1.199
N18695 X-20.041 Y-17.067 I-1.199 J-0.041
N18700 G1 X-23.405 Y-12.596
N18705 G3 X-24.323 Y-12.118 I-0.959 J-0.721
N18710 X-25.563 Y-13.276 Z-8.4 I-0.041 J-1.199
N18715 G1 Y-14.638
N18720 X-25.553 Y-14.848
N18725 X-25.54 Y-14.998
N18730 X-25.522 Y-15.147
N18735 X-25.497 Y-15.295
N18740 X-25.468 Y-15.442
N18745 X-25.431 Y-15.601
N18750 X-25.386 Y-15.768
N18755 X-25.335 Y-15.938
N18760 X-25.274 Y-16.117
N18765 X-25.205 Y-16.301
N18770 X-25.127 Y-16.489
N18775 X-25.043 Y-16.678
N18780 X-24.951 Y-16.865
N18785 X-24.858 Y-17.039
N18790 X-24.769 Y-17.195
N18795 X-24.662 Y-17.369
N18800 X-24.561 Y-17.521
N18805 X-24.469 Y-17.651
N18810 X-24.444 Y-17.684
N18815 X-24.159 Y-18.011
N18820 X-23.834 Y-18.299
N18825 X-23.474 Y-18.541
N18830 X-23.085 Y-18.734
N18835 X-22.675 Y-18.874
N18840 X-22.249 Y-18.959
N18845 X-21.816 Y-18.987
N18850 G3 X-20.659 Y-17.747 Z-8.2 I-0.042 J1.199
N18855 X-20.924 Y-17.035 I-1.199 J-0.041
N18860 G1 X-23.43 Y-13.927
N18865 G3 X-24.323 Y-13.481 I-0.934 J-0.753
N18870 X-25.563 Y-14.638 Z-8.4 I-0.041 J-1.199
N18875 G1 Y-15.896
N18880 X-25.554 Y-16.079
N18885 X-25.542 Y-16.229
N18890 X-25.522 Y-16.378
N18895 X-25.495 Y-16.525
N18900 X-25.462 Y-16.672
N18905 X-25.422 Y-16.816
N18910 X-25.377 Y-16.959
N18915 X-25.325 Y-17.1
N18920 X-25.269 Y-17.239
N18925 X-25.062 Y-17.614
N18930 X-24.805 Y-17.955
N18935 X-24.502 Y-18.257
N18940 X-24.159 Y-18.513
N18945 X-23.783 Y-18.717
N18950 X-23.382 Y-18.866
N18955 X-22.964 Y-18.957
N18960 X-22.537 Y-18.987
N18965 G3 X-21.38 Y-17.747 Z-8.2 I-0.042 J1.199
N18970 X-21.715 Y-16.955 I-1.199 J-0.041
N18975 G1 X-23.5 Y-15.105
N18980 G3 X-24.323 Y-14.738 I-0.864 J-0.833
N18985 X-25.563 Y-15.896 Z-8.4 I-0.041 J-1.199
N18990 G1 Y-16.864
N18995 X-25.556 Y-17.014
N19000 X-25.539 Y-17.163
N19005 X-25.51 Y-17.31
N19010 X-25.471 Y-17.455
N19015 X-25.303 Y-17.822
N19020 X-25.074 Y-18.155
N19025 X-24.79 Y-18.442
N19030 X-24.46 Y-18.675
N19035 X-24.095 Y-18.847
N19040 X-23.705 Y-18.952
N19045 X-23.302 Y-18.987
N19050 G3 X-21.697 Y-18.131 Z-8.2 I-0.072 J2.069
N19055 X-21.411 Y-16.263 I-1.678 J1.213
N19060 X-24.726 Y-15.244 I-2.022 J-0.675
N19065 X-25.563 Y-16.864 Z-8.4 I1.294 J-1.694
N19070 G1 Y-17.469
N19075 X-25.556 Y-17.618
N19080 X-25.533 Y-17.767
N19085 X-25.423 Y-18.056
N19090 X-25.262 Y-18.319
N19095 X-25.055 Y-18.548
N19100 X-24.809 Y-18.735
N19105 X-24.533 Y-18.874
N19110 X-24.236 Y-18.959
N19115 X-23.928 Y-18.987
N19120 G3 X-22.548 Y-17.895 Z-8.2 I-0.052 J1.482
N19125 X-22.579 Y-17.018 I-1.431 J0.389
N19130 X-24.495 Y-16.06 I-1.45 J-0.505
N19135 X-25.563 Y-17.469 Z-8.4 I0.467 J-1.463
N19140 G1 Y-17.581
N19145 X-25.552 Y-17.94
N19150 X-25.513 Y-18.12
N19155 X-25.443 Y-18.299
N19160 X-25.349 Y-18.46
N19165 X-25.273 Y-18.559
N19170 X-25.179 Y-18.658
N19175 X-25.084 Y-18.739
N19180 X-24.989 Y-18.805
N19185 X-24.81 Y-18.897
N19190 X-24.63 Y-18.955
N19195 X-24.45 Y-18.984
N19200 X-24.27 Y-18.987
N19205 X-18.485
N19210 G3 X-17.382 Y-18.146 Z-8.243 I-0.042 J1.199
N19215 G1 X-17.261 Y-17.76 Z-8.2
N19220 X-6.267 Y17.43
N19225 G3 X-6.214 Y17.747 I-1.145 J0.358
N19230 X-7.371 Y18.987 Z-8.4 I-1.199 J0.041
N19235 G1 X-10.967
N19240 X-11.52 Y18.96
N19245 X-11.763 Y18.94
N19250 X-12.027 Y18.909
N19255 X-12.32 Y18.866
N19260 X-12.622 Y18.811
N19265 X-12.962 Y18.738
N19270 X-13.314 Y18.65
N19275 X-13.685 Y18.545
N19280 X-14.086 Y18.417
N19285 X-14.508 Y18.267
N19290 X-14.933 Y18.101
N19295 X-15.377 Y17.91
N19300 X-15.838 Y17.694
N19305 X-16.312 Y17.453
N19310 X-16.795 Y17.188
N19315 X-17.281 Y16.899
N19320 X-17.766 Y16.59
N19325 X-18.248 Y16.261
N19330 X-18.727 Y15.909
N19335 X-19.204 Y15.536
N19340 X-19.675 Y15.142
N19345 X-20.139 Y14.728
N19350 X-20.593 Y14.295
N19355 X-21.036 Y13.844
N19360 X-21.467 Y13.376
N19365 X-21.885 Y12.892
N19370 X-22.289 Y12.393
N19375 X-22.677 Y11.879
N19380 X-23.05 Y11.352
N19385 X-23.406 Y10.812
N19390 X-23.745 Y10.259
N19395 X-24.067 Y9.695
N19400 X-24.37 Y9.12
N19405 X-24.655 Y8.535
N19410 X-24.922 Y7.94
N19415 X-25.169 Y7.337
N19420 X-25.356 Y6.836
N19425 X-25.47 Y6.461
N19430 X-25.54 Y6.075
N19435 X-25.563 Y5.684
N19440 Y0.317
N19445 G3 X-24.323 Y-0.84 Z-8.2 I1.199 J0.042
N19450 X-23.411 Y-0.371 I-0.041 J1.199
N19455 G1 X-10.056 Y17.058
N19460 G3 X-9.809 Y17.747 I-0.953 J0.73
N19465 X-10.967 Y18.987 Z-8.4 I-1.199 J0.041
N19470 G1 X-13.322
N19475 X-13.684 Y18.969
N19480 X-13.867 Y18.954
N19485 X-14.067 Y18.931
N19490 X-14.282 Y18.899
N19495 X-14.521 Y18.856
N19500 X-14.768 Y18.803
N19505 X-15.048 Y18.733
N19510 X-15.333 Y18.652
N19515 X-15.643 Y18.553
N19520 X-15.981 Y18.433
N19525 X-16.321 Y18.3
N19530 X-16.686 Y18.144
N19535 X-17.074 Y17.962
N19540 X-17.476 Y17.757
N19545 X-17.879 Y17.535
N19550 X-18.301 Y17.285
N19555 X-18.738 Y17.007
N19560 X-19.184 Y16.702
N19565 X-19.637 Y16.37
N19570 X-20.088 Y16.017
N19575 X-20.535 Y15.643
N19580 X-20.981 Y15.244
N19585 X-21.424 Y14.821
N19590 X-21.863 Y14.375
N19595 X-22.294 Y13.908
N19600 X-22.715 Y13.42
N19605 X-23.125 Y12.913
N19610 X-23.522 Y12.388
N19615 X-23.904 Y11.847
N19620 X-24.271 Y11.291
N19625 X-24.621 Y10.72
N19630 X-24.955 Y10.135
N19635 X-25.181 Y9.706
N19640 X-25.346 Y9.341
N19645 X-25.466 Y8.959
N19650 X-25.539 Y8.565
N19655 X-25.563 Y8.165
N19660 Y5.684
N19665 G3 X-24.323 Y4.527 Z-8.2 I1.199 J0.042
N19670 X-23.477 Y4.917 I-0.041 J1.199
N19675 G1 X-12.477 Y16.98
N19680 G3 X-12.164 Y17.747 I-0.887 J0.809
N19685 X-13.322 Y18.987 Z-8.4 I-1.199 J0.041
N19690 G1 X-15.208
N19695 X-15.497 Y18.973
N19700 X-15.655 Y18.96
N19705 X-15.821 Y18.941
N19710 X-16.006 Y18.913
N19715 X-16.204 Y18.877
N19720 X-16.415 Y18.832
N19725 X-16.65 Y18.774
N19730 X-16.888 Y18.706
N19735 X-17.155 Y18.621
N19740 X-17.434 Y18.522
N19745 X-17.725 Y18.408
N19750 X-18.045 Y18.27
N19755 X-18.374 Y18.116
N19760 X-18.715 Y17.943
N19765 X-19.078 Y17.743
N19770 X-19.461 Y17.516
N19775 X-19.843 Y17.273
N19780 X-20.237 Y17.003
N19785 X-20.646 Y16.703
N19790 X-21.067 Y16.374
N19795 X-21.494 Y16.016
N19800 X-21.921 Y15.635
N19805 X-22.343 Y15.233
N19810 X-22.764 Y14.804
N19815 X-23.184 Y14.349
N19820 X-23.599 Y13.868
N19825 X-24.007 Y13.363
N19830 X-24.405 Y12.837
N19835 X-24.741 Y12.362
N19840 X-25.009 Y11.956
N19845 X-25.076 Y11.847
N19850 X-25.286 Y11.445
N19855 X-25.439 Y11.017
N19860 X-25.532 Y10.573
N19865 X-25.563 Y10.12
N19870 Y8.165
N19875 G3 X-24.323 Y7.008 Z-8.2 I1.199 J0.042
N19880 X-23.494 Y7.38 I-0.041 J1.199
N19885 G1 X-14.381 Y16.961
N19890 G3 X-14.051 Y17.747 I-0.869 J0.827
N19895 X-15.208 Y18.987 Z-8.4 I-1.199 J0.041
N19900 G1 X-16.828
N19905 X-17.119 Y18.973
N19910 X-17.268 Y18.961
N19915 X-17.418 Y18.943
N19920 X-17.586 Y18.918
N19925 X-17.759 Y18.886
N19930 X-17.955 Y18.843
N19935 X-18.155 Y18.792
N19940 X-18.377 Y18.729
N19945 X-18.613 Y18.653
N19950 X-18.857 Y18.566
N19955 X-19.127 Y18.459
N19960 X-19.403 Y18.339
N19965 X-19.695 Y18.202
N19970 X-20.012 Y18.039
N19975 X-20.336 Y17.86
N19980 X-20.67 Y17.66
N19985 X-21.026 Y17.433
N19990 X-21.398 Y17.177
N19995 X-21.77 Y16.903
N20000 X-22.15 Y16.603
N20005 X-22.544 Y16.271
N20010 X-22.948 Y15.908
N20015 X-23.358 Y15.515
N20020 X-23.76 Y15.104
N20025 X-24.143 Y14.687
N20030 X-24.441 Y14.34
N20035 X-24.706 Y14.009
N20040 X-24.903 Y13.748
N20045 X-24.963 Y13.662
N20050 X-25.175 Y13.318
N20055 X-25.343 Y12.95
N20060 X-25.465 Y12.565
N20065 X-25.538 Y12.168
N20070 X-25.563 Y11.765
N20075 Y10.12
N20080 G3 X-24.323 Y8.963 Z-8.2 I1.199 J0.042
N20085 X-23.508 Y9.321 I-0.041 J1.199
N20090 G1 X-16.014 Y16.947
N20095 G3 X-15.671 Y17.747 I-0.856 J0.841
N20100 X-16.828 Y18.987 Z-8.4 I-1.199 J0.041
N20105 G1 X-18.356
N20110 X-18.602 Y18.975
N20115 X-18.752 Y18.963
N20120 X-18.901 Y18.945
N20125 X-19.053 Y18.921
N20130 X-19.221 Y18.89
N20135 X-19.394 Y18.851
N20140 X-19.588 Y18.801
N20145 X-19.787 Y18.743
N20150 X-20.005 Y18.672
N20155 X-20.239 Y18.587
N20160 X-20.477 Y18.492
N20165 X-20.738 Y18.378
N20170 X-21.012 Y18.247
N20175 X-21.292 Y18.102
N20180 X-21.596 Y17.932
N20185 X-21.915 Y17.74
N20190 X-22.235 Y17.533
N20195 X-22.574 Y17.297
N20200 X-22.927 Y17.035
N20205 X-23.276 Y16.757
N20210 X-23.617 Y16.468
N20215 X-23.939 Y16.176
N20220 X-24.198 Y15.926
N20225 X-24.445 Y15.671
N20230 X-24.634 Y15.463
N20235 X-24.806 Y15.26
N20240 X-24.844 Y15.213
N20245 X-25.097 Y14.848
N20250 X-25.298 Y14.453
N20255 X-25.444 Y14.034
N20260 X-25.533 Y13.599
N20265 X-25.563 Y13.156
N20270 G3 X-24.323 Y11.999 Z-8.2 I1.199 J0.042
N20275 X-23.632 Y12.247 I-0.041 J1.199
N20280 G1 X-17.666 Y16.837
N20285 G3 X-17.198 Y17.747 I-0.732 J0.951
N20290 X-18.356 Y18.987 Z-8.4 I-1.199 J0.041
N20295 G1 X-19.794
N20300 X-20.001 Y18.977
N20305 X-20.151 Y18.965
N20310 X-20.3 Y18.946
N20315 X-20.448 Y18.923
N20320 X-20.607 Y18.892
N20325 X-20.775 Y18.853
N20330 X-20.953 Y18.807
N20335 X-21.149 Y18.748
N20340 X-21.349 Y18.682
N20345 X-21.568 Y18.601
N20350 X-21.8 Y18.506
N20355 X-22.037 Y18.401
N20360 X-22.292 Y18.278
N20365 X-22.558 Y18.138
N20370 X-22.826 Y17.987
N20375 X-23.094 Y17.823
N20380 X-23.363 Y17.647
N20385 X-23.625 Y17.463
N20390 X-23.864 Y17.283
N20395 X-24.064 Y17.122
N20400 X-24.276 Y16.94
N20405 X-24.446 Y16.785
N20410 X-24.592 Y16.642
N20415 X-24.645 Y16.586
N20420 X-24.916 Y16.265
N20425 X-25.144 Y15.912
N20430 X-25.325 Y15.533
N20435 X-25.457 Y15.134
N20440 X-25.536 Y14.722
N20445 X-25.563 Y14.302
N20450 G3 X-24.323 Y13.145 Z-8.2 I1.199 J0.042
N20455 X-23.637 Y13.389 I-0.041 J1.199
N20460 G1 X-19.109 Y16.833
N20465 G3 X-18.636 Y17.747 I-0.726 J0.955
N20470 X-19.794 Y18.987 Z-8.4 I-1.199 J0.041
N20475 G1 X-21.143
N20480 X-21.337 Y18.978
N20485 X-21.486 Y18.965
N20490 X-21.635 Y18.947
N20495 X-21.783 Y18.922
N20500 X-21.93 Y18.893
N20505 X-22.089 Y18.856
N20510 X-22.256 Y18.811
N20515 X-22.427 Y18.759
N20520 X-22.61 Y18.697
N20525 X-22.797 Y18.626
N20530 X-22.988 Y18.547
N20535 X-23.181 Y18.46
N20540 X-23.374 Y18.365
N20545 X-23.56 Y18.267
N20550 X-23.723 Y18.173
N20555 X-23.9 Y18.064
N20560 X-24.063 Y17.955
N20565 X-24.2 Y17.858
N20570 X-24.346 Y17.746
N20575 X-24.701 Y17.411
N20580 X-25.002 Y17.028
N20585 X-25.243 Y16.604
N20590 X-25.42 Y16.149
N20595 X-25.527 Y15.673
N20600 X-25.563 Y15.187
N20605 G3 X-24.323 Y14.029 Z-8.2 I1.199 J0.042
N20610 X-23.611 Y14.294 I-0.041 J1.199
N20615 G1 X-20.432 Y16.853
N20620 G3 X-19.986 Y17.747 I-0.753 J0.935
N20625 X-21.143 Y18.987 Z-8.4 I-1.199 J0.041
N20630 G1 X-22.4
N20635 X-22.571 Y18.979
N20640 X-22.72 Y18.966
N20645 X-22.869 Y18.947
N20650 X-23.017 Y18.92
N20655 X-23.163 Y18.887
N20660 X-23.308 Y18.849
N20665 X-23.451 Y18.805
N20670 X-23.593 Y18.754
N20675 X-23.732 Y18.698
N20680 X-23.869 Y18.638
N20685 X-24.004 Y18.572
N20690 X-24.387 Y18.323
N20695 X-24.729 Y18.018
N20700 X-25.02 Y17.665
N20705 X-25.253 Y17.271
N20710 X-25.424 Y16.847
N20715 X-25.528 Y16.401
N20720 X-25.563 Y15.945
N20725 G3 X-24.323 Y14.788 Z-8.2 I1.199 J0.042
N20730 X-23.543 Y15.111 I-0.041 J1.199
N20735 G1 X-21.621 Y16.912
N20740 G3 X-21.242 Y17.747 I-0.82 J0.876
N20745 X-22.4 Y18.987 Z-8.4 I-1.199 J0.041
N20750 G1 X-23.389
N20755 X-23.539 Y18.98
N20760 X-23.688 Y18.964
N20765 X-23.836 Y18.938
N20770 X-24.194 Y18.81
N20775 X-24.527 Y18.626
N20780 X-24.826 Y18.389
N20785 X-25.081 Y18.108
N20790 X-25.288 Y17.788
N20795 X-25.439 Y17.439
N20800 X-25.532 Y17.07
N20805 X-25.563 Y16.691
N20810 G3 X-24.722 Y15.074 Z-8.2 I2.115 J0.074
N20815 X-22.794 Y14.752 I1.273 J1.69
N20820 X-21.761 Y18.163 I-0.671 J2.065
N20825 X-23.389 Y18.987 Z-8.4 I-1.704 J-1.346
N20830 G1 X-24.019
N20835 X-24.169 Y18.98
