%
O02987 (Fase1)
(Using G0 which travels along dogleg path.)
(T1 D=20. CR=0.4 - ZMIN=-0.9 - fresa)
(T2 D=12. CR=0. - ZMIN=-18. - Fresa cilindrica)
(T3 D=4. CR=0. TAPER=30deg - ZMIN=-1.3 - utensile per smusso)
(T4 D=6.8 CR=0. TAPER=118deg - ZMIN=-19.043 - Punta)
(T7 D=8. CR=0. TAPER=45deg - ZMIN=-2.5 - utensile per smusso)
(T8 D=8. CR=0. - ZMIN=-12. - right hand tap)
N10 G90 G94 G17
N15 G21
N20 G53 G0 Z0.

(Piana3 4)
N25 T1 M6
N30 S5000 M3
N35 G17 G90 G94
N40 G54
N45 M8
N50 G0 X63. Y-36.43
N55 G43 Z15. H1
N60 T2
N65 G0 Z5.
N70 G1 Z1.1 F333.33
N75 G18 G3 X61. Z-0.9 I-2. K0. F1000.
N80 G1 X60.01
N85 X-60.01
N90 G17 G2 Y-22.995 I0. J6.718
N95 G1 X60.01
N100 G3 Y-9.56 I0. J6.718
N105 G1 X-60.01
N110 G2 Y3.875 I0. J6.718
N115 G1 X60.01
N120 G3 Y17.31 I0. J6.718
N125 G1 X-60.01
N130 G2 Y30.746 I0. J6.718
N135 G1 X60.01
N140 G18 G2 X62.01 Z1.1 I0. K2.
N145 G0 Z15.
N150 M9
N155 M5
N160 G53 G0 Z0.

(Piana3 5)
N165 M1
N170 T2 M6
N175 S6000 M3
N180 G17 G90 G94
N185 G54
N190 M8
N195 G0 X-50.939 Y-52.668
N200 G43 Z15. H2
N205 T4
N210 G0 Z5.
N215 Z-7.8
N220 G1 Z-9. F550.
N225 Z-11.
N230 G3 X-50. Y-46.135 I-29.678 J7.602
N235 G1 Y-45.896
N240 X-50.251 Y-44.665
N245 X-50.451 Y-43.425
N250 X-50.609 Y-42.18
N255 X-50.727 Y-41.001
N260 X-50.793 Y-40.615
N265 X-50.912 Y-40.242
N270 X-51.082 Y-39.889
N275 X-51.3 Y-39.564
N280 X-51.441 Y-39.382
N285 X-51.695 Y-39.022
N290 X-51.929 Y-38.683
N295 X-52.393 Y-37.943
N300 X-52.593 Y-37.583
N305 X-52.786 Y-37.224
N310 X-52.96 Y-36.864
N315 X-53.007 Y-36.75
N320 X-53.096 Y-36.504
N325 X-53.223 Y-36.145
N330 X-53.474 Y-35.425
N335 X-53.582 Y-35.066
N340 X-53.725 Y-34.513
N345 X-53.758 Y-34.347
N350 X-53.853 Y-33.627
N355 X-53.895 Y-33.268
N360 X-53.936 Y-32.908
N365 X-53.967 Y-32.548
N370 X-53.998 Y-31.829
N375 X-54. Y-31.469
N380 Y31.469
N385 X-53.998 Y31.829
N390 X-53.967 Y32.548
N395 X-53.936 Y32.908
N400 X-53.895 Y33.268
N405 X-53.853 Y33.627
N410 X-53.758 Y34.347
N415 X-53.725 Y34.513
N420 X-53.582 Y35.066
N425 X-53.474 Y35.425
N430 X-53.223 Y36.145
N435 X-53.096 Y36.504
N440 X-53.007 Y36.75
N445 X-52.96 Y36.864
N450 X-52.786 Y37.224
N455 X-52.593 Y37.583
N460 X-52.393 Y37.943
N465 X-51.929 Y38.683
N470 X-51.695 Y39.022
N475 X-51.441 Y39.382
N480 X-51.21 Y39.68
N485 X-51.154 Y39.741
N490 X-50.85 Y40.067
N495 X-50.097 Y40.82
N500 X-49.772 Y41.125
N505 X-49.712 Y41.18
N510 X-49.413 Y41.42
N515 X-48.73 Y41.899
N520 X-47.976 Y42.373
N525 X-47.616 Y42.576
N530 X-47.257 Y42.768
N535 X-46.897 Y42.946
N540 X-46.819 Y42.978
N545 X-46.538 Y43.085
N550 X-45.816 Y43.338
N555 X-45.46 Y43.462
N560 X-45.101 Y43.573
N565 X-44.619 Y43.697
N570 X-44.382 Y43.753
N575 X-43.663 Y43.848
N580 X-43.304 Y43.891
N585 X-42.944 Y43.932
N590 X-42.585 Y43.967
N595 X-41.866 Y43.996
N600 X-41.507 Y44.
N605 X41.507
N610 X41.866 Y43.996
N615 X42.585 Y43.967
N620 X42.944 Y43.932
N625 X43.304 Y43.891
N630 X43.663 Y43.848
N635 X44.382 Y43.753
N640 X44.619 Y43.697
N645 X45.101 Y43.573
N650 X45.46 Y43.462
N655 X46.179 Y43.211
N660 X46.538 Y43.085
N665 X46.819 Y42.978
N670 X46.897 Y42.946
N675 X47.257 Y42.768
N680 X47.616 Y42.576
N685 X47.976 Y42.373
N690 X48.73 Y41.899
N695 X49.413 Y41.42
N700 X49.712 Y41.18
N705 X49.772 Y41.125
N710 X50.097 Y40.82
N715 X50.85 Y40.067
N720 X51.154 Y39.741
N725 X51.21 Y39.68
N730 X51.441 Y39.382
N735 X51.695 Y39.022
N740 X51.929 Y38.683
N745 X52.393 Y37.943
N750 X52.593 Y37.583
N755 X52.786 Y37.224
N760 X52.96 Y36.864
N765 X53.007 Y36.75
N770 X53.096 Y36.504
N775 X53.223 Y36.145
N780 X53.474 Y35.425
N785 X53.582 Y35.066
N790 X53.725 Y34.513
N795 X53.758 Y34.347
N800 X53.853 Y33.627
N805 X53.895 Y33.268
N810 X53.936 Y32.908
N815 X53.967 Y32.548
N820 X53.998 Y31.829
N825 X54. Y31.469
N830 Y-31.469
N835 X53.998 Y-31.829
N840 X53.967 Y-32.548
N845 X53.936 Y-32.908
N850 X53.895 Y-33.268
N855 X53.853 Y-33.627
N860 X53.758 Y-34.347
N865 X53.725 Y-34.513
N870 X53.582 Y-35.066
N875 X53.474 Y-35.425
N880 X53.223 Y-36.145
N885 X53.096 Y-36.504
N890 X53.007 Y-36.75
N895 X52.96 Y-36.864
N900 X52.786 Y-37.224
N905 X52.593 Y-37.583
N910 X52.393 Y-37.943
N915 X51.929 Y-38.683
N920 X51.695 Y-39.022
N925 X51.441 Y-39.382
N930 X51.21 Y-39.68
N935 X51.154 Y-39.741
N940 X50.85 Y-40.067
N945 X50.097 Y-40.82
N950 X49.772 Y-41.125
N955 X49.712 Y-41.18
N960 X49.413 Y-41.42
N965 X48.73 Y-41.899
N970 X47.976 Y-42.373
N975 X47.616 Y-42.576
N980 X47.257 Y-42.768
N985 X46.897 Y-42.946
N990 X46.819 Y-42.978
N995 X46.538 Y-43.085
N1000 X45.816 Y-43.338
N1005 X45.46 Y-43.462
N1010 X45.101 Y-43.573
N1015 X44.619 Y-43.697
N1020 X44.382 Y-43.753
N1025 X43.663 Y-43.848
N1030 X43.304 Y-43.891
N1035 X42.944 Y-43.932
N1040 X42.585 Y-43.967
N1045 X41.866 Y-43.996
N1050 X41.507 Y-44.
N1055 X-41.507
N1060 X-41.866 Y-43.996
N1065 X-42.585 Y-43.967
N1070 X-42.944 Y-43.932
N1075 X-43.304 Y-43.891
N1080 X-43.663 Y-43.848
N1085 X-44.382 Y-43.753
N1090 X-44.619 Y-43.697
N1095 X-45.101 Y-43.573
N1100 X-45.46 Y-43.462
N1105 X-46.179 Y-43.211
N1110 X-46.538 Y-43.085
N1115 X-46.819 Y-42.978
N1120 X-46.897 Y-42.946
N1125 X-47.257 Y-42.768
N1130 X-47.616 Y-42.576
N1135 X-47.976 Y-42.373
N1140 X-48.73 Y-41.899
N1145 X-49.413 Y-41.42
N1150 X-49.712 Y-41.18
N1155 X-49.772 Y-41.125
N1160 X-50.097 Y-40.82
N1165 X-50.85 Y-40.067
N1170 X-51.185 Y-39.708
N1175 X-51.21 Y-39.68
N1180 X-51.3 Y-39.564
N1185 G3 X-51.958 Y-39.161 I-0.922 J-0.768
N1190 G1 X-52.089 Y-39.132 Z-10.992
N1195 X-52.218 Y-39.102 Z-10.97
N1200 X-52.345 Y-39.074 Z-10.933
N1205 X-52.466 Y-39.047 Z-10.881
N1210 X-52.581 Y-39.021 Z-10.816
N1215 X-52.688 Y-38.996 Z-10.738
N1220 X-52.786 Y-38.974 Z-10.649
N1225 X-52.873 Y-38.955 Z-10.548
N1230 X-52.949 Y-38.938 Z-10.438
N1235 X-53.013 Y-38.923 Z-10.321
N1240 X-53.063 Y-38.912 Z-10.196
N1245 X-53.099 Y-38.904 Z-10.067
N1250 X-53.121 Y-38.899 Z-9.934
N1255 X-53.129 Y-38.897 Z-9.8
N1260 G0 Z15.

(Piana3 6)
N1265 G0 X-55.237 Y-52.185
N1270 G0 Z15.
N1275 Z5.
N1280 Z-15.6
N1285 G1 Z-16.8 F550.
N1290 X-55.235 Y-52.177 Z-16.934
N1295 X-55.23 Y-52.156 Z-17.067
N1300 X-55.221 Y-52.12 Z-17.196
N1305 X-55.208 Y-52.07 Z-17.321
N1310 X-55.192 Y-52.007 Z-17.438
N1315 X-55.172 Y-51.931 Z-17.548
N1320 X-55.15 Y-51.844 Z-17.649
N1325 X-55.125 Y-51.747 Z-17.738
N1330 X-55.098 Y-51.641 Z-17.816
N1335 X-55.069 Y-51.527 Z-17.881
N1340 X-55.038 Y-51.406 Z-17.933
N1345 X-55.006 Y-51.281 Z-17.97
N1350 X-54.973 Y-51.152 Z-17.992
N1355 X-54.939 Y-51.022 Z-18.
N1360 G3 X-54. Y-44.49 I-29.678 J7.602
N1365 G1 Y-42.978
N1370 X-54.007 Y-42.828
N1375 X-54.252 Y-41.597
N1380 X-54.427 Y-40.353
N1385 X-54.549 Y-39.103
N1390 X-54.633 Y-37.85
N1395 X-54.689 Y-36.596
N1400 X-54.727 Y-35.34
N1405 X-54.752 Y-34.085
N1410 X-54.769 Y-32.829
N1415 X-54.78 Y-31.573
N1420 X-54.787 Y-30.318
N1425 X-54.791 Y-29.062
N1430 X-54.794 Y-27.806
N1435 X-54.798 Y-25.294
N1440 X-54.8 Y-20.271
N1445 Y7.356
N1450 Y37.495
N1455 X-54.535 Y38.723
N1460 X-54.299 Y39.238
N1465 X-54.134 Y39.68
N1470 X-54.034 Y40.14
N1475 X-54. Y40.611
N1480 G3 X-54.273 Y41.332 I-1.199 J-0.042
N1485 G1 X-54.359 Y41.436 Z-17.992
N1490 X-54.443 Y41.538 Z-17.97
N1495 X-54.525 Y41.638 Z-17.933
N1500 X-54.605 Y41.734 Z-17.881
N1505 X-54.679 Y41.825 Z-17.816
N1510 X-54.749 Y41.909 Z-17.738
N1515 X-54.813 Y41.987 Z-17.649
N1520 X-54.87 Y42.056 Z-17.548
N1525 X-54.92 Y42.116 Z-17.438
N1530 X-54.961 Y42.166 Z-17.321
N1535 X-54.994 Y42.206 Z-17.196
N1540 X-55.017 Y42.235 Z-17.067
N1545 X-55.032 Y42.252 Z-16.934
N1550 X-55.037 Y42.258 Z-16.8
N1555 G0 Z5.
N1560 X-54.835 Y-44.763
N1565 Z-15.6
N1570 G1 Z-16.8 F550.
N1575 X-54.831 Y-44.757 Z-16.934
N1580 X-54.819 Y-44.737 Z-17.067
N1585 X-54.8 Y-44.705 Z-17.196
N1590 X-54.774 Y-44.661 Z-17.321
N1595 X-54.741 Y-44.605 Z-17.438
N1600 X-54.701 Y-44.538 Z-17.548
N1605 X-54.655 Y-44.461 Z-17.649
N1610 X-54.604 Y-44.375 Z-17.738
N1615 X-54.548 Y-44.28 Z-17.816
N1620 X-54.487 Y-44.179 Z-17.881
N1625 X-54.424 Y-44.072 Z-17.933
N1630 X-54.358 Y-43.961 Z-17.97
N1635 X-54.29 Y-43.847 Z-17.992
N1640 X-54.221 Y-43.732 Z-18.
N1645 G3 X-54. Y-42.978 I-1.36 J0.809
N1650 G1 Y40.611
N1655 X-54.017 Y40.715 Z-17.993
N1660 X-54.034 Y40.817 Z-17.972
N1665 X-54.05 Y40.915 Z-17.937
N1670 X-54.086 Y40.995 Z-17.892
N1675 X-54.119 Y41.069 Z-17.837
N1680 X-54.15 Y41.137 Z-17.772
N1685 X-54.176 Y41.196 Z-17.699
N1690 X-54.21 Y41.244 Z-17.613
N1695 X-54.238 Y41.282 Z-17.519
N1700 X-54.257 Y41.31 Z-17.421
N1705 X-54.269 Y41.326 Z-17.319
N1710 X-54.273 Y41.332 Z-17.215
N1715 G0 Z5.
N1720 X55.237 Y52.185
N1725 Z-15.6
N1730 G1 Z-16.8 F550.
N1735 X55.235 Y52.177 Z-16.934
N1740 X55.23 Y52.156 Z-17.067
N1745 X55.221 Y52.12 Z-17.196
N1750 X55.208 Y52.07 Z-17.321
N1755 X55.192 Y52.007 Z-17.438
N1760 X55.172 Y51.931 Z-17.548
N1765 X55.15 Y51.844 Z-17.649
N1770 X55.125 Y51.747 Z-17.738
N1775 X55.098 Y51.641 Z-17.816
N1780 X55.069 Y51.527 Z-17.881
N1785 X55.038 Y51.406 Z-17.933
N1790 X55.006 Y51.281 Z-17.97
N1795 X54.973 Y51.152 Z-17.992
N1800 X54.939 Y51.022 Z-18.
N1805 G3 X54. Y44.49 I29.678 J-7.602
N1810 G1 Y42.978
N1815 X54.007 Y42.828
N1820 X54.252 Y41.597
N1825 X54.427 Y40.353
N1830 X54.549 Y39.103
N1835 X54.633 Y37.85
N1840 X54.689 Y36.596
N1845 X54.727 Y35.34
N1850 X54.752 Y34.085
N1855 X54.769 Y32.829
N1860 X54.78 Y31.573
N1865 X54.787 Y30.318
N1870 X54.791 Y29.062
N1875 X54.794 Y27.806
N1880 X54.798 Y25.294
N1885 X54.8 Y20.271
N1890 Y-7.356
N1895 Y-37.495
N1900 X54.535 Y-38.723
N1905 X54.299 Y-39.238
N1910 X54.134 Y-39.68
N1915 X54.034 Y-40.14
N1920 X54. Y-40.611
N1925 G3 X54.273 Y-41.332 I1.199 J0.042
N1930 G1 X54.359 Y-41.436 Z-17.992
N1935 X54.443 Y-41.538 Z-17.97
N1940 X54.525 Y-41.638 Z-17.933
N1945 X54.605 Y-41.734 Z-17.881
N1950 X54.679 Y-41.825 Z-17.816
N1955 X54.749 Y-41.909 Z-17.738
N1960 X54.813 Y-41.987 Z-17.649
N1965 X54.87 Y-42.056 Z-17.548
N1970 X54.92 Y-42.116 Z-17.438
N1975 X54.961 Y-42.166 Z-17.321
N1980 X54.994 Y-42.206 Z-17.196
N1985 X55.017 Y-42.235 Z-17.067
N1990 X55.032 Y-42.252 Z-16.934
N1995 X55.037 Y-42.258 Z-16.8
N2000 G0 Z5.
N2005 X54.835 Y44.763
N2010 Z-15.6
N2015 G1 Z-16.8 F550.
N2020 X54.831 Y44.757 Z-16.934
N2025 X54.819 Y44.737 Z-17.067
N2030 X54.8 Y44.705 Z-17.196
N2035 X54.774 Y44.661 Z-17.321
N2040 X54.741 Y44.605 Z-17.438
N2045 X54.701 Y44.538 Z-17.548
N2050 X54.655 Y44.461 Z-17.649
N2055 X54.604 Y44.375 Z-17.738
N2060 X54.548 Y44.28 Z-17.816
N2065 X54.487 Y44.179 Z-17.881
N2070 X54.424 Y44.072 Z-17.933
N2075 X54.358 Y43.961 Z-17.97
N2080 X54.29 Y43.847 Z-17.992
N2085 X54.221 Y43.732 Z-18.
N2090 G3 X54. Y42.978 I1.36 J-0.809
N2095 G1 Y-40.611
N2100 G3 X54.273 Y-41.332 I1.199 J0.042
N2105 G1 X54.359 Y-41.436 Z-17.992
N2110 X54.443 Y-41.538 Z-17.97
N2115 X54.525 Y-41.638 Z-17.933
N2120 X54.605 Y-41.734 Z-17.881
N2125 X54.679 Y-41.825 Z-17.816
N2130 X54.749 Y-41.909 Z-17.738
N2135 X54.813 Y-41.987 Z-17.649
N2140 X54.87 Y-42.056 Z-17.548
N2145 X54.92 Y-42.116 Z-17.438
N2150 X54.961 Y-42.166 Z-17.321
N2155 X54.994 Y-42.206 Z-17.196
N2160 X55.017 Y-42.235 Z-17.067
N2165 X55.032 Y-42.252 Z-16.934
N2170 X55.037 Y-42.258 Z-16.8
N2175 G0 Z15.
N2180 M9
N2185 M5
N2190 G53 G0 Z0.

(Piana3 7)
N2195 M1
N2200 T4 M6
N2205 S3280 M3
N2210 G17 G90 G94
N2215 G54
N2220 M8
N2225 G0 X40.284 Y-31.891
N2230 G43 Z15. H4
N2235 T7
N2240 G0 Z5.
N2245 G98 G81 X40.284 Y-31.891 Z-19.043 R4. F131.2
N2250 Y31.891
N2255 X-40.284
N2260 Y-31.891
N2265 G80
N2270 G0 Z15.
N2275 M9
N2280 M5
N2285 G53 G0 Z0.

(Piana3 8)
N2290 M1
N2295 T7 M6
N2300 S2900 M3
N2305 G17 G90 G94
N2310 G54
N2315 M8
N2320 G0 X-49.95 Y0.
N2325 G43 Z15. H7
N2330 T8
N2335 G0 Z5.
N2340 G1 Z2. F500.
N2345 Z-2.5
N2350 X-49.15 F1500.
N2355 Y32.
N2360 G2 X-42. Y39.15 I7.15 J0.
N2365 G1 X42.
N2370 G2 X49.15 Y32. I0. J-7.15
N2375 G1 Y-32.
N2380 G2 X42. Y-39.15 I-7.15 J0.
N2385 G1 X-42.
N2390 G2 X-49.15 Y-32. I0. J7.15
N2395 G1 Y0.
N2400 X-49.95
N2405 G0 Z5.
N2410 X-38.834 Y31.891
N2415 G1 Z2. F500.
N2420 Z-2.5
N2425 X-38.034 F1500.
N2430 G3 X-42.534 I-2.25 J0.
N2435 X-38.034 I2.25 J0.
N2440 G1 X-38.834
N2445 G0 Z5.
N2450 Y-31.891
N2455 G1 Z2. F500.
N2460 Z-2.5
N2465 X-38.034 F1500.
N2470 G3 X-42.534 I-2.25 J0.
N2475 X-38.034 I2.25 J0.
N2480 G1 X-38.834
N2485 G0 Z5.
N2490 X41.734
N2495 G1 Z2. F500.
N2500 Z-2.5
N2505 X42.534 F1500.
N2510 G3 X38.034 I-2.25 J0.
N2515 X42.534 I2.25 J0.
N2520 G1 X41.734
N2525 G0 Z5.
N2530 Y31.891
N2535 G1 Z2. F500.
N2540 Z-2.5
N2545 X42.534 F1500.
N2550 G3 X38.034 I-2.25 J0.
N2555 X42.534 I2.25 J0.
N2560 G1 X41.734
N2565 G0 Z15.
N2570 M9
N2575 M5
N2580 G53 G0 Z0.

(Piana3 9)
N2585 M1
N2590 T8 M6
N2595 S400 M3
N2600 G17 G90 G94
N2605 G54
N2610 M8
N2615 G0 X40.284 Y-31.891
N2620 G43 Z15. H8
N2625 T3
N2630 G0 Z5.
N2635 G98 G84 X40.284 Y-31.891 Z-12. R4. F500.
N2640 Y31.891
N2645 X-40.284
N2650 Y-31.891
N2655 G80
N2660 G0 Z15.
N2665 M9
N2670 M5
N2675 G53 G0 Z0.

(Piana3 10)
N2680 M1
N2685 T3 M6
N2690 S5000 M3
N2695 G17 G90 G94
N2700 G54
N2705 M8
N2710 G0 X-38.145 Y24.182
N2715 G43 Z15. H3
N2720 T2
N2725 G0 Z4.
N2730 G1 Z-1.001 F333.33
N2735 X-38.119 Y24.175 Z-1.041 F1200.
N2740 X-38.062 Y24.163 Z-1.115
N2745 X-37.984 Y24.152 Z-1.208
N2750 X-37.904 Y24.144 Z-1.3
N2755 X-37.853 Y24.181
N2760 X-37.851 Y24.183
N2765 X-37.787 Y24.231
N2770 X-37.786 Y24.232
N2775 X-37.713 Y24.288
N2780 X-37.711 Y24.289
N2785 X-37.629 Y24.352
N2790 X-37.628 Y24.353
N2795 X-37.536 Y24.424
N2800 X-37.535
N2805 X-37.434 Y24.502
N2810 Y24.503
N2815 X-37.324 Y24.588
N2820 X-37.323
N2825 X-37.206 Y24.68
N2830 Y24.681
N2835 X-37.08 Y24.779
N2840 X-37.079 Y24.78
N2845 X-36.805 Y24.995
N2850 X-36.804 Y24.996
N2855 X-36.501 Y25.235
N2860 X-36.172 Y25.496
N2865 X-36.171 Y25.497
N2870 X-35.818 Y25.777
N2875 Y25.778
N2880 X-35.443 Y26.076
N2885 Y26.077
N2890 X-35.05 Y26.391
N2895 X-35.049
N2900 X-34.639 Y26.72
N2905 Y26.721
N2910 X-34.214 Y27.062
N2915 X-33.777 Y27.414
N2920 X-33.331 Y27.774
N2925 X-28.961 Y31.269
N2930 G3 X-28.821 Y31.561 I-0.233 J0.291
N2935 G1 Y34.101
N2940 X-28.994 Y34.274 Z-1.
N2945 X-28.821 Y34.101 Z-1.3
N2950 X-24.712
N2955 X-24.539 Y34.274 Z-1.
N2960 X-24.712 Y34.101 Z-1.3
N2965 Y-8.731
N2970 X-24.539 Y-8.904 Z-1.
N2975 X-24.712 Y-8.731 Z-1.3
N2980 X-28.822
N2985 X-28.995 Y-8.904 Z-1.
N2990 X-28.822 Y-8.731 Z-1.3
N2995 X-28.87 Y10.659
N3000 X-28.942 Y30.397
N3005 G3 X-29.555 Y30.682 I-0.373 J-0.001
N3010 G1 X-31.764 Y28.837
N3015 X-32.064 Y28.588
N3020 X-32.354 Y28.346
N3025 X-32.634 Y28.113
N3030 X-32.905 Y27.887
N3035 X-33.167 Y27.669
N3040 X-33.419 Y27.459
N3045 X-33.662 Y27.257
N3050 X-33.897 Y27.062
N3055 X-34.122 Y26.874
N3060 X-34.339 Y26.693
N3065 X-34.548 Y26.52
N3070 X-34.749 Y26.353
N3075 X-34.942 Y26.193
N3080 X-35.127 Y26.04
N3085 X-35.474 Y25.753
N3090 X-35.792 Y25.492
N3095 X-36.082 Y25.255
N3100 X-36.345 Y25.041
N3105 X-36.583 Y24.85
N3110 X-36.798 Y24.68
N3115 X-36.989 Y24.531
N3120 X-37.159 Y24.402
N3125 X-37.309 Y24.292
N3130 X-37.439 Y24.2
N3135 X-37.551 Y24.125
N3140 X-37.643 Y24.068
N3145 X-37.718 Y24.026
N3150 X-37.767 Y24.003
N3155 X-37.834 Y24.074
N3160 X-37.842 Y24.082
N3165 X-37.904 Y24.144
N3170 X-37.842 Y24.082
N3175 X-37.834 Y24.074
N3180 X-37.767 Y24.003
N3185 X-37.785 Y23.916 Z-1.171
N3190 X-37.793 Y23.885 Z-1.123
N3195 X-37.796 Y23.869 Z-1.097
N3200 G0 Z5.
N3205 X-22.925 Y16.009
N3210 Z4.
N3215 G1 Z-1.001 F333.33
N3220 X-22.753 Y15.935 Z-1.298 F1200.
N3225 G0 Z5.
N3230 X-27.415 Y-14.334
N3235 Z4.
N3240 G1 Z-1. F333.33
N3245 X-27.389 Y-14.345 Z-1.043 F1200.
N3250 X-27.364 Y-14.351 Z-1.079
N3255 X-27.31 Y-14.363 Z-1.154
N3260 X-27.274 Y-14.366 Z-1.199
N3265 X-27.29 Y-14.414 Z-1.123
N3270 X-27.307 Y-14.456 Z-1.05
N3275 X-27.318 Y-14.483 Z-1.
N3280 X-27.307 Y-14.456 Z-1.05
N3285 X-27.29 Y-14.414 Z-1.123
N3290 X-27.274 Y-14.366 Z-1.199
N3295 X-27.216 Y-14.336 Z-1.221
N3300 X-27.14 Y-14.291 Z-1.243
N3305 X-27.053 Y-14.235 Z-1.262
N3310 X-26.954 Y-14.168 Z-1.279
N3315 X-26.787 Y-14.051 Z-1.3
N3320 X-26.765 Y-14.037
N3325 X-26.598 Y-13.924
N3330 X-26.41 Y-13.792
N3335 X-26.2 Y-13.639
N3340 X-25.967 Y-13.466
N3345 X-25.712 Y-13.271
N3350 X-25.432 Y-13.055
N3355 X-25.129 Y-12.818
N3360 X-22.898 Y-11.023
N3365 G2 X-22.402 Y-11.047 I0.234 J-0.291
N3370 G1 X-20.9 Y-12.525
N3375 X-20.386 Y-13.007
N3380 X-19.85 Y-13.474
N3385 X-19.293 Y-13.927
N3390 X-18.714 Y-14.364
N3395 X-18.117 Y-14.786
N3400 X-17.502 Y-15.192
N3405 X-16.871 Y-15.579
N3410 X-16.226 Y-15.948
N3415 X-15.567 Y-16.298
N3420 X-14.898 Y-16.628
N3425 X-14.218 Y-16.937
N3430 X-13.53 Y-17.224
N3435 X-12.835 Y-17.488
N3440 X-12.135 Y-17.729
N3445 X-11.431 Y-17.946
N3450 X-10.725 Y-18.138
N3455 X-10.493 Y-18.192
N3460 X-10.243 Y-18.243
N3465 X-9.976 Y-18.291
N3470 X-9.694 Y-18.334
N3475 X-9.397 Y-18.374
N3480 X-9.087 Y-18.41
N3485 X-8.765 Y-18.442
N3490 X-8.434 Y-18.47
N3495 X-7.741 Y-18.515
N3500 X-7.022 Y-18.544
N3505 X-6.283 Y-18.557
N3510 X-5.535 Y-18.554
N3515 X-4.786 Y-18.537
N3520 X-4.045 Y-18.503
N3525 X-3.323 Y-18.455
N3530 X-2.626 Y-18.391
N3535 X-2.292 Y-18.354
N3540 X-1.968 Y-18.313
N3545 X-1.655 Y-18.269
N3550 X-1.355 Y-18.22
N3555 X-1.068 Y-18.169
N3560 X-0.797 Y-18.114
N3565 X-0.543 Y-18.056
N3570 X-0.306 Y-17.994
N3575 X0.512 Y-17.755
N3580 X1.315 Y-17.485
N3585 X2.103 Y-17.187
N3590 X2.875 Y-16.859
N3595 X3.632 Y-16.504
N3600 X4.372 Y-16.122
N3605 X5.095 Y-15.713
N3610 X5.8 Y-15.278
N3615 X6.487 Y-14.819
N3620 X7.154 Y-14.335
N3625 X7.802 Y-13.828
N3630 X8.429 Y-13.299
N3635 X9.036 Y-12.747
N3640 X9.62 Y-12.175
N3645 X10.183 Y-11.582
N3650 X10.722 Y-10.969
N3655 X11.238 Y-10.337
N3660 X11.729 Y-9.688
N3665 X12.196 Y-9.021
N3670 X12.637 Y-8.337
N3675 X13.052 Y-7.638
N3680 X13.44 Y-6.924
N3685 X13.801 Y-6.195
N3690 X14.134 Y-5.453
N3695 X14.438 Y-4.698
N3700 X14.713 Y-3.931
N3705 X14.957 Y-3.153
N3710 X15.172 Y-2.364
N3715 X15.355 Y-1.566
N3720 X15.507 Y-0.758
N3725 X15.626 Y0.057
N3730 X15.712 Y0.884
N3735 X15.882 Y2.944
N3740 G2 X16.062 Y3.233 I0.372 J-0.031
N3745 G1 X17.273 Y3.96
N3750 X17.52 Y4.113
N3755 X17.763 Y4.276
N3760 X18.005 Y4.448
N3765 X18.244 Y4.63
N3770 X18.723 Y5.025
N3775 X19.19 Y5.455
N3780 X19.646 Y5.916
N3785 X20.086 Y6.405
N3790 X20.509 Y6.919
N3795 X20.912 Y7.456
N3800 X21.293 Y8.01
N3805 X21.649 Y8.579
N3810 X21.977 Y9.159
N3815 X22.276 Y9.747
N3820 X22.542 Y10.338
N3825 X22.774 Y10.931
N3830 X22.97 Y11.523
N3835 X23.052 Y11.813
N3840 X23.125 Y12.104
N3845 X23.203 Y12.45
N3850 X23.268 Y12.82
N3855 X23.322 Y13.213
N3860 X23.364 Y13.626
N3865 X23.395 Y14.053
N3870 X23.415 Y14.492
N3875 X23.424 Y14.937
N3880 X23.422 Y15.386
N3885 X23.408 Y15.833
N3890 X23.384 Y16.275
N3895 X23.35 Y16.708
N3900 X23.306 Y17.128
N3905 X23.251 Y17.531
N3910 X23.187 Y17.912
N3915 X23.114 Y18.268
N3920 X23.032 Y18.592
N3925 X22.987 Y18.735
N3930 X22.934 Y18.895
N3935 X22.807 Y19.249
N3940 X22.66 Y19.629
N3945 X22.498 Y20.024
N3950 X22.326 Y20.421
N3955 X22.149 Y20.808
N3960 X21.971 Y21.174
N3965 X21.885 Y21.343
N3970 X21.801 Y21.502
N3975 X21.634 Y21.803
N3980 X21.633 Y21.806
N3985 X21.477 Y22.095
N3990 X21.475 Y22.098
N3995 X21.335 Y22.364
N4000 X21.333 Y22.368
N4005 X21.211 Y22.605
N4010 X21.209 Y22.608
N4015 X21.156 Y22.714
N4020 X21.155 Y22.717
N4025 X21.108 Y22.813
N4030 X21.106 Y22.816
N4035 X21.065 Y22.902
N4040 X21.063 Y22.906
N4045 X21.029 Y22.981
N4050 X21.026 Y22.988
N4055 X20.998 Y23.05
N4060 X20.994 Y23.06
N4065 X20.974 Y23.109
N4070 X20.967 Y23.127
N4075 X20.955 Y23.163
N4080 X20.941 Y23.213
N4085 X20.937 Y23.234
N4090 G2 X20.987 Y23.505 I0.366 J0.073
N4095 G1 X20.999 Y23.523
N4100 X21.044 Y23.582
N4105 X21.077 Y23.616
N4110 X21.092 Y23.631
N4115 X21.146 Y23.681
N4120 X21.152 Y23.688
N4125 X21.226 Y23.753
N4130 X21.23 Y23.757
N4135 X21.322 Y23.836
N4140 X21.325 Y23.838
N4145 X21.434 Y23.93
N4150 X21.436 Y23.932
N4155 X21.561 Y24.037
N4160 X21.563 Y24.038
N4165 X21.704 Y24.153
N4170 X21.706 Y24.155
N4175 X21.86 Y24.28
N4180 X21.862 Y24.282
N4185 X22.03 Y24.416
N4190 X22.031 Y24.417
N4195 X22.211 Y24.561
N4200 X22.212 Y24.562
N4205 X22.404 Y24.713
N4210 X22.405
N4215 X22.606 Y24.871
N4220 X22.607 Y24.872
N4225 X22.635 Y24.894
N4230 X23.127 Y25.269 Z-1.296
N4235 X23.352 Y25.44 Z-1.292
N4240 X23.762 Y25.75 Z-1.279
N4245 X23.946 Y25.89 Z-1.269
N4250 X24.117 Y26.019 Z-1.258
N4255 X24.314 Y26.168 Z-1.241
N4260 X24.555 Y26.352 Z-1.211
N4265 X24.682 Y26.448 Z-1.19
N4270 X24.83 Y26.561 Z-1.158
N4275 X24.955 Y26.658 Z-1.122
N4280 X24.971 Y26.67 Z-1.116
N4285 X25.057 Y26.737 Z-1.082
N4290 X25.138 Y26.801 Z-1.04
N4295 X25.195 Y26.848 Z-1.
N4300 X25.138 Y26.801 Z-1.04
N4305 X25.057 Y26.737 Z-1.082
N4310 X24.971 Y26.67 Z-1.116
N4315 X24.955 Y26.658 Z-1.122
N4320 X24.83 Y26.561 Z-1.158
N4325 X24.682 Y26.448 Z-1.19
N4330 X24.555 Y26.352 Z-1.211
N4335 X24.314 Y26.168 Z-1.241
N4340 X24.117 Y26.019 Z-1.258
N4345 X23.946 Y25.89 Z-1.269
N4350 X23.762 Y25.75 Z-1.279
N4355 X23.352 Y25.44 Z-1.292
N4360 X23.127 Y25.269 Z-1.296
N4365 X22.635 Y24.894 Z-1.3
N4370 X22.634 Y24.892
N4375 X22.365 Y24.687
N4380 X22.082 Y24.469
N4385 X21.784 Y24.239
N4390 X21.471 Y23.995
N4395 X21.142 Y23.739
N4400 X20.798 Y23.469
N4405 X20.437 Y23.185
N4410 X20.059 Y22.888
N4415 X19.666 Y22.577
N4420 X18.519 Y21.667
N4425 X17.951 Y21.217
N4430 X17.392 Y20.773
N4435 X17.225 Y20.641
N4440 X17.317 Y20.711
N4445 X17.318 Y20.712
N4450 X17.552 Y20.889
N4455 X17.553 Y20.89
N4460 X17.764 Y21.047
N4465 X17.765 Y21.049
N4470 X17.95 Y21.186
N4475 X17.953 Y21.188
N4480 X18.111 Y21.303
N4485 X18.114 Y21.306
N4490 X18.244 Y21.398
N4495 X18.247 Y21.401
N4500 X18.301 Y21.438
N4505 X18.304 Y21.441
N4510 X18.35 Y21.471
N4515 X18.356 Y21.475
N4520 X18.393 Y21.5
N4525 X18.402 Y21.505
N4530 X18.431 Y21.523
N4535 X18.452 Y21.535
N4540 X18.472 Y21.545
N4545 X18.532 Y21.571
N4550 X18.544 Y21.574
N4555 X18.599 Y21.587
N4560 X18.656 Y21.592
N4565 X18.713 Y21.588
N4570 X18.768 Y21.579
N4575 X18.829 Y21.564
N4580 X18.888 Y21.539
N4585 X18.95 Y21.506
N4590 X19.011 Y21.465
N4595 X19.08 Y21.408
N4600 X19.113 Y21.378
N4605 X19.189 Y21.298
N4610 X19.208 Y21.276
N4615 X19.29 Y21.175
N4620 X19.304 Y21.158
N4625 X19.391 Y21.037
N4630 X19.4 Y21.023
N4635 X19.492 Y20.883
N4640 X19.499 Y20.872
N4645 X19.595 Y20.715
N4650 X19.6 Y20.706
N4655 X19.7 Y20.532
N4660 X19.704 Y20.524
N4665 X19.806 Y20.334
N4670 X19.81 Y20.327
N4675 X19.914 Y20.124
N4680 X19.917 Y20.117
N4685 X20.023 Y19.901
N4690 X20.026 Y19.895
N4695 X20.133 Y19.667
N4700 X20.135 Y19.662
N4705 X20.242 Y19.423
N4710 X20.246 Y19.415
N4715 X20.458 Y18.911
N4720 X20.463 Y18.898
N4725 X20.561 Y18.638
N4730 X20.565 Y18.626
N4735 X20.655 Y18.36
N4740 X20.661 Y18.342
N4745 X20.816 Y17.793
N4750 X20.821 Y17.77
N4755 X20.943 Y17.204
N4760 X20.947 Y17.182
N4765 X21.036 Y16.599
N4770 X21.039 Y16.578
N4775 X21.096 Y15.984
N4780 X21.097 Y15.964
N4785 X21.122 Y15.36
N4790 Y15.34
N4795 X21.115 Y14.731
N4800 X21.114 Y14.712
N4805 X21.075 Y14.1
N4810 X21.073 Y14.081
N4815 X21.003 Y13.469
N4820 X21. Y13.451
N4825 X20.899 Y12.843
N4830 X20.896 Y12.824
N4835 X20.764 Y12.224
N4840 X20.759 Y12.205
N4845 X20.596 Y11.614
N4850 X20.591 Y11.595
N4855 X20.398 Y11.018
N4860 X20.391 Y10.998
N4865 X20.168 Y10.438
N4870 X20.16 Y10.418
N4875 X19.908 Y9.877
N4880 X19.898 Y9.856
N4885 X19.616 Y9.339
N4890 X19.606 Y9.321
N4895 X19.532 Y9.202
N4900 X19.526 Y9.191
N4905 X19.442 Y9.065
N4910 X19.433 Y9.052
N4915 X19.239 Y8.784
N4920 X19.229 Y8.772
N4925 X19.004 Y8.487
N4930 X18.996 Y8.477
N4935 X18.746 Y8.181
N4940 X18.739 Y8.174
N4945 X18.47 Y7.872
N4950 X18.464 Y7.866
N4955 X18.182 Y7.565
N4960 X18.176 Y7.559
N4965 X17.887 Y7.265
N4970 X17.881 Y7.259
N4975 X17.591 Y6.976
N4980 X17.585 Y6.97
N4985 X17.301 Y6.706
N4990 X17.294 Y6.7
N4995 X17.021 Y6.459
N5000 X17.012 Y6.451
N5005 X16.757 Y6.24
N5010 X16.748 Y6.233
N5015 X16.629 Y6.14
N5020 X16.622 Y6.135
N5025 X16.509 Y6.052
N5030 X16.5 Y6.045
N5035 X16.395 Y5.972
N5040 X16.383 Y5.965
N5045 X16.286 Y5.903
N5050 X16.27 Y5.893
N5055 X16.183 Y5.843
N5060 X16.16 Y5.831
N5065 X16.082 Y5.793
N5070 X16.047 Y5.779
N5075 X15.979 Y5.754
N5080 X15.921 Y5.738
N5085 X15.864 Y5.728
N5090 X15.813 Y5.722
N5095 X15.762 Y5.723
N5100 X15.717 Y5.727
N5105 X15.661 Y5.736
N5110 X15.607 Y5.754
N5115 X15.556 Y5.78
N5120 X15.525 Y5.8
N5125 X15.464 Y5.845
N5130 X15.415 Y5.902
N5135 X15.394 Y5.931
N5140 X15.365 Y5.979
N5145 X15.341 Y6.029
N5150 X15.33 Y6.052
N5155 X15.301 Y6.12
N5160 X15.296 Y6.134
N5165 X15.264 Y6.22
N5170 X15.26 Y6.229
N5175 X15.225 Y6.333
N5180 X15.223 Y6.339
N5185 X15.184 Y6.458
N5190 X15.182 Y6.463
N5195 X15.14 Y6.597
N5200 X15.139 Y6.601
N5205 X15.095 Y6.748
N5210 X15.094 Y6.751
N5215 X15.048 Y6.91
N5220 X15.047 Y6.913
N5225 X14.998 Y7.083
N5230 X14.997 Y7.086
N5235 X14.895 Y7.456
N5240 X14.894 Y7.459
N5245 X14.788 Y7.859
N5250 X14.787 Y7.862
N5255 X14.679 Y8.279
N5260 X14.566 Y8.69
N5265 X14.433 Y9.122
N5270 X14.281 Y9.573
N5275 X14.115 Y10.038
N5280 X13.934 Y10.512
N5285 X13.744 Y10.987
N5290 X13.545 Y11.46
N5295 X13.34 Y11.925
N5300 X13.132 Y12.375
N5305 X12.923 Y12.807
N5310 X12.717 Y13.213
N5315 X12.515 Y13.589
N5320 X12.319 Y13.93
N5325 X12.227 Y14.083
N5330 X12.136 Y14.225
N5335 X12.049 Y14.356
N5340 X11.967 Y14.473
N5345 X11.89 Y14.576
N5350 X11.815 Y14.667
N5355 X11.616 Y14.901
N5360 X11.603 Y14.918
N5365 X11.517 Y15.031
N5370 X11.508 Y15.043
N5375 X11.434 Y15.149
N5380 X11.424 Y15.165
N5385 X11.365 Y15.259
N5390 X11.352 Y15.282
N5395 X11.311 Y15.361
N5400 X11.291 Y15.404
N5405 X11.269 Y15.465
N5410 X11.253 Y15.52
N5415 X11.246 Y15.576
N5420 X11.244 Y15.616
N5425 X11.245 Y15.673
N5430 X11.255 Y15.729
N5435 X11.274 Y15.783
N5440 X11.278 Y15.793
N5445 X11.3 Y15.835
N5450 X11.326 Y15.874
N5455 X11.339 Y15.891
N5460 X11.36 Y15.915
N5465 X11.382 Y15.939
N5470 X11.392 Y15.95
N5475 X11.423 Y15.98
N5480 X11.429 Y15.987
N5485 X11.468 Y16.024
N5490 X11.472 Y16.028
N5495 X11.519 Y16.071
N5500 X11.524 Y16.075
N5505 X11.64 Y16.18
N5510 X11.644 Y16.183
N5515 X11.79 Y16.31
N5520 X11.792 Y16.312
N5525 X11.966 Y16.46
N5530 X11.968 Y16.462
N5535 X12.167 Y16.629
N5540 X12.168 Y16.631
N5545 X12.391 Y16.817
N5550 X12.392 Y16.818
N5555 X12.638 Y17.02
N5560 X12.639 Y17.021
N5565 X12.858 Y17.201
N5570 X13.194 Y17.468 Z-1.291
N5575 X13.821 Y17.968 Z-1.279
N5580 X14.617 Y18.599 Z-1.272
N5585 X14.845 Y18.78 Z-1.27
N5590 X15.872 Y19.586 Z-1.278
N5595 X16.841 Y20.343 Z-1.292
N5600 X17.225 Y20.641 Z-1.3
N5605 X16.841 Y20.343 Z-1.292
N5610 X15.872 Y19.586 Z-1.278
N5615 X14.845 Y18.78 Z-1.27
N5620 X14.617 Y18.599 Z-1.272
N5625 X13.821 Y17.968 Z-1.279
N5630 X13.194 Y17.468 Z-1.291
N5635 X12.858 Y17.201 Z-1.3
N5640 X12.823 Y17.174
N5645 X12.822
N5650 X12.727 Y17.1
N5655 X12.726
N5660 X12.646 Y17.039
N5665 X11.215 Y15.923
N5670 G2 X10.698 Y15.979 I-0.229 J0.294
N5675 G1 X10.116 Y16.682
N5680 X10.034 Y16.78
N5685 X9.942 Y16.882
N5690 X9.84 Y16.991
N5695 X9.728 Y17.105
N5700 X9.471 Y17.353
N5705 X9.181 Y17.62
N5710 X8.86 Y17.902
N5715 X8.512 Y18.196
N5720 X8.141 Y18.5
N5725 X7.751 Y18.81
N5730 X7.345 Y19.123
N5735 X6.928 Y19.436
N5740 X6.07 Y20.055
N5745 X5.64 Y20.352
N5750 X5.212 Y20.638
N5755 X4.792 Y20.911
N5760 X4.382 Y21.167
N5765 X2.419 Y22.33
N5770 G2 X2.364 Y22.932 I0.19 J0.321
N5775 G1 X3.117 Y23.588
N5780 X3.13 Y23.599
N5785 X3.486 Y23.881
N5790 X3.5 Y23.892
N5795 X3.868 Y24.156
N5800 X3.882 Y24.166
N5805 X4.261 Y24.412
N5810 X4.276 Y24.421
N5815 X4.665 Y24.648
N5820 X4.681 Y24.657
N5825 X5.081 Y24.866
N5830 X5.097 Y24.874
N5835 X5.507 Y25.065
N5840 X5.523 Y25.072
N5845 X5.945 Y25.245
N5850 X5.96 Y25.251
N5855 X6.392 Y25.406
N5860 X6.408 Y25.411
N5865 X6.85 Y25.548
N5870 X6.866 Y25.552
N5875 X7.318 Y25.67
N5880 X7.333 Y25.674
N5885 X7.796 Y25.774
N5890 X7.811 Y25.777
N5895 X8.283 Y25.859
N5900 X8.298 Y25.861
N5905 X8.779 Y25.925
N5910 X8.794 Y25.927
N5915 X9.285 Y25.972
N5920 X9.299 Y25.973
N5925 X9.8 Y26.001
N5930 X9.813
N5935 X10.323 Y26.01
N5940 X10.337
N5945 X10.845 Y26.
N5950 X10.86
N5955 X11.356 Y25.97
N5960 X11.372 Y25.968
N5965 X11.855 Y25.918
N5970 X11.872 Y25.916
N5975 X12.343 Y25.845
N5980 X12.36 Y25.842
N5985 X12.821 Y25.751
N5990 X12.838 Y25.748
N5995 X13.288 Y25.636
N6000 X13.306 Y25.631
N6005 X13.746 Y25.498
N6010 X13.764 Y25.493
N6015 X14.194 Y25.339
N6020 X14.211 Y25.333
N6025 X14.633 Y25.158
N6030 X14.65 Y25.151
N6035 X15.062 Y24.955
N6040 X15.079 Y24.947
N6045 X15.483 Y24.73
N6050 X15.499 Y24.721
N6055 X15.896 Y24.482
N6060 X15.911 Y24.473
N6065 X16.3 Y24.213
N6070 X16.314 Y24.203
N6075 X16.697 Y23.921
N6080 X16.71 Y23.911
N6085 X17.087 Y23.607
N6090 X17.099 Y23.597
N6095 X17.471 Y23.271
N6100 X17.478 Y23.265
N6105 X17.876 Y22.898
N6110 X17.866 Y22.671 Z-1.
N6115 X17.876 Y22.898 Z-1.3
N6120 X18.864 Y23.673
N6125 X19.751 Y24.369
N6130 X20.021 Y24.36 Z-1.
N6135 X19.751 Y24.369 Z-1.3
N6140 X18.946 Y25.089
N6145 X18.647 Y25.343
N6150 X18.336 Y25.59
N6155 X18.013 Y25.831
N6160 X17.681 Y26.065
N6165 X17.339 Y26.29
N6170 X16.991 Y26.507
N6175 X16.637 Y26.713
N6180 X16.279 Y26.91
N6185 X15.918 Y27.095
N6190 X15.556 Y27.268
N6195 X15.195 Y27.429
N6200 X14.835 Y27.576
N6205 X14.479 Y27.709
N6210 X14.128 Y27.828
N6215 X13.784 Y27.931
N6220 X13.448 Y28.017
N6225 X13.089 Y28.095
N6230 X12.705 Y28.163
N6235 X12.298 Y28.221
N6240 X11.874 Y28.269
N6245 X11.437 Y28.306
N6250 X10.99 Y28.333
N6255 X10.538 Y28.35
N6260 X10.086 Y28.356
N6265 X9.637 Y28.352
N6270 X9.196 Y28.338
N6275 X8.767 Y28.313
N6280 X8.354 Y28.279
N6285 X7.962 Y28.234
N6290 X7.595 Y28.18
N6295 X7.258 Y28.117
N6300 X6.949 Y28.043
N6305 X6.702 Y27.977
N6310 X6.44 Y27.904
N6315 X5.91 Y27.745
N6320 X5.662 Y27.665
N6325 X5.436 Y27.589
N6330 X5.24 Y27.517
N6335 X5.159 Y27.485
N6340 X5.085 Y27.454
N6345 X5.08 Y27.452
N6350 X4.974 Y27.409
N6355 X4.863 Y27.36
N6360 X4.742 Y27.302
N6365 X4.614 Y27.238
N6370 X4.329 Y27.086
N6375 X4.021 Y26.909
N6380 X3.694 Y26.712
N6385 X3.355 Y26.498
N6390 X2.658 Y26.032
N6395 X1.977 Y25.542
N6400 X1.658 Y25.299
N6405 X1.359 Y25.061
N6410 X1.087 Y24.833
N6415 X0.845 Y24.617
N6420 X0.741 Y24.518
N6425 X0.646 Y24.424
N6430 X0.562 Y24.336
N6435 X0.486 Y24.249
N6440 X0.485
N6445 X-0.267 Y23.399
N6450 G2 X-0.617 Y23.28 I-0.279 J0.247
N6455 G1 X-1.997 Y23.546
N6460 X-2.184 Y23.578
N6465 X-2.383 Y23.607
N6470 X-2.594 Y23.634
N6475 X-2.814 Y23.658
N6480 X-3.288 Y23.701
N6485 X-3.794 Y23.733
N6490 X-4.326 Y23.756
N6495 X-4.878 Y23.769
N6500 X-5.444 Y23.773
N6505 X-6.018 Y23.768
N6510 X-6.593 Y23.753
N6515 X-7.163 Y23.729
N6520 X-7.723 Y23.696
N6525 X-8.265 Y23.654
N6530 X-8.784 Y23.604
N6535 X-9.273 Y23.545
N6540 X-9.727 Y23.477
N6545 X-9.936 Y23.441
N6550 X-10.133 Y23.402
N6555 X-10.897 Y23.234
N6560 X-11.644 Y23.042
N6565 X-12.375 Y22.827
N6570 X-13.091 Y22.589
N6575 X-13.793 Y22.327
N6580 X-14.482 Y22.041
N6585 X-15.158 Y21.73
N6590 X-15.822 Y21.395
N6595 X-16.475 Y21.035
N6600 X-17.117 Y20.65
N6605 X-17.749 Y20.239
N6610 X-18.371 Y19.803
N6615 X-18.985 Y19.34
N6620 X-19.591 Y18.851
N6625 X-20.189 Y18.335
N6630 X-20.783 Y17.789
N6635 X-22.752 Y15.935
N6640 Y13.014
N6645 X-22.739 Y11.434
N6650 X-22.907 Y10.747 Z-1.
N6655 X-22.739 Y11.434 Z-1.3
N6660 X-22.556 Y11.779
N6665 X-22.554 Y11.784
N6670 X-22.407 Y12.052
N6675 X-22.402 Y12.061
N6680 X-22.244 Y12.33
N6685 X-22.239 Y12.338
N6690 X-22.071 Y12.61
N6695 X-22.066 Y12.618
N6700 X-21.888 Y12.89
N6705 X-21.881 Y12.901
N6710 X-21.495 Y13.449
N6715 X-21.486 Y13.461
N6720 X-21.065 Y14.011
N6725 X-21.057 Y14.022
N6730 X-20.603 Y14.569
N6735 X-20.595 Y14.579
N6740 X-20.113 Y15.12
N6745 X-20.105 Y15.129
N6750 X-19.597 Y15.662
N6755 X-19.589 Y15.671
N6760 X-19.059 Y16.192
N6765 X-19.051 Y16.2
N6770 X-18.502 Y16.707
N6775 X-18.494 Y16.715
N6780 X-17.93 Y17.203
N6785 X-17.921 Y17.211
N6790 X-17.345 Y17.678
N6795 X-17.335 Y17.686
N6800 X-16.751 Y18.129
N6805 X-16.74 Y18.137
N6810 X-16.15 Y18.553
N6815 X-16.139 Y18.561
N6820 X-15.547 Y18.946
N6825 X-15.534 Y18.954
N6830 X-14.944 Y19.306
N6835 X-14.929 Y19.314
N6840 X-14.343 Y19.629
N6845 X-14.328 Y19.637
N6850 X-13.805 Y19.888
N6855 X-13.792 Y19.894
N6860 X-13.252 Y20.129
N6865 X-13.239 Y20.134
N6870 X-12.684 Y20.351
N6875 X-12.672 Y20.356
N6880 X-12.103 Y20.556
N6885 X-12.091 Y20.56
N6890 X-11.509 Y20.743
N6895 X-11.497 Y20.746
N6900 X-10.905 Y20.911
N6905 X-10.893 Y20.914
N6910 X-10.291 Y21.061
N6915 X-10.28 Y21.064
N6920 X-9.67 Y21.192
N6925 X-9.659 Y21.194
N6930 X-9.042 Y21.305
N6935 X-9.031 Y21.307
N6940 X-8.41 Y21.398
N6945 X-8.398 Y21.4
N6950 X-7.773 Y21.472
N6955 X-7.762 Y21.473
N6960 X-7.134 Y21.526
N6965 X-7.123 Y21.527
N6970 X-6.495 Y21.561
N6975 X-6.483
N6980 X-5.856 Y21.575
N6985 X-5.844
N6990 X-5.219 Y21.569
N6995 X-5.207
N7000 X-4.585 Y21.543
N7005 X-4.583
N7010 X-4.155 Y21.523
N7015 X-4.151 Y21.522
N7020 X-3.745 Y21.499
N7025 X-3.741 Y21.498
N7030 X-3.369 Y21.472
N7035 X-3.366
N7040 X-3.195 Y21.459
N7045 X-3.192 Y21.458
N7050 X-3.034 Y21.445
N7055 X-3.031
N7060 X-2.885 Y21.431
N7065 X-2.882
N7070 X-2.75 Y21.417
N7075 X-2.746
N7080 X-2.63 Y21.403
N7085 X-2.625
N7090 X-2.525 Y21.39
N7095 X-2.518 Y21.389
N7100 X-2.436 Y21.377
N7105 X-2.424 Y21.375
N7110 X-2.362 Y21.363
N7115 X-2.338 Y21.358
N7120 X-2.296 Y21.347
N7125 X-2.227 Y21.322
N7130 X-2.206 Y21.312
N7135 G2 X-2.014 Y21.096 I-0.161 J-0.337
N7140 G1 X-2.008 Y21.078
N7145 X-1.993 Y21.019
N7150 X-1.988 Y20.958
N7155 Y20.923
N7160 X-1.991 Y20.88
N7165 X-1.997 Y20.83
N7170 X-2. Y20.809
N7175 X-2.011 Y20.743
N7180 X-2.014 Y20.73
N7185 X-2.031 Y20.651
N7190 X-2.033 Y20.642
N7195 X-2.055 Y20.549
N7200 X-2.056 Y20.542
N7205 X-2.084 Y20.438
N7210 X-2.085 Y20.432
N7215 X-2.117 Y20.316
N7220 X-2.118 Y20.312
N7225 X-2.154 Y20.185
N7230 X-2.155 Y20.181
N7235 X-2.196 Y20.044
N7240 X-2.198 Y20.039
N7245 X-2.291 Y19.741
N7250 X-2.293 Y19.735
N7255 X-2.402 Y19.409
N7260 X-2.404 Y19.403
N7265 X-2.523 Y19.061
N7270 X-2.616 Y18.772
N7275 X-2.7 Y18.476
N7280 X-2.776 Y18.174
N7285 X-2.843 Y17.867
N7290 X-2.954 Y17.229
N7295 X-3.033 Y16.574
N7300 X-3.08 Y15.905
N7305 X-3.095 Y15.227
N7310 X-3.078 Y14.544
N7315 X-3.031 Y13.861
N7320 X-2.952 Y13.182
N7325 X-2.843 Y12.512
N7330 X-2.704 Y11.857
N7335 X-2.536 Y11.22
N7340 X-2.338 Y10.604
N7345 X-2.23 Y10.31
N7350 X-2.114 Y10.021
N7355 X-1.992 Y9.74
N7360 X-1.863 Y9.468
N7365 X-1.727 Y9.206
N7370 X-1.584 Y8.953
N7375 X-1.453 Y8.737
N7380 X-1.326 Y8.533
N7385 X-1.207 Y8.349
N7390 X-1.101 Y8.19
N7395 X-1.055 Y8.125
N7400 X-1.082 Y7.968 Z-1.102
N7405 X-1.095 Y7.89 Z-1.001
N7410 X-1.082 Y7.968 Z-1.102
N7415 X-1.055 Y8.125 Z-1.3
N7420 X-0.946 Y8.204
N7425 X-0.779 Y8.328
N7430 X-0.592 Y8.473
N7435 X-0.39 Y8.634
N7440 X-0.177 Y8.81
N7445 X-0.172 Y8.813
N7450 X0.641 Y9.46
N7455 X0.867 Y9.419 Z-1.001
N7460 X0.641 Y9.46 Z-1.3
N7465 X0.346 Y9.957
N7470 X0.34 Y9.969
N7475 X0.222 Y10.184
N7480 X0.213 Y10.202
N7485 X0.097 Y10.444
N7490 X0.09 Y10.459
N7495 X-0.023 Y10.724
N7500 X-0.028 Y10.737
N7505 X-0.137 Y11.023
N7510 X-0.141 Y11.034
N7515 X-0.247 Y11.338
N7520 X-0.25 Y11.348
N7525 X-0.35 Y11.666
N7530 X-0.353 Y11.676
N7535 X-0.447 Y12.005
N7540 X-0.45 Y12.014
N7545 X-0.538 Y12.351
N7550 X-0.541 Y12.364
N7555 X-0.693 Y13.05
N7560 X-0.696 Y13.063
N7565 X-0.759 Y13.406
N7570 X-0.761 Y13.415
N7575 X-0.814 Y13.753
N7580 X-0.816 Y13.763
N7585 X-0.859 Y14.093
N7590 X-0.86 Y14.104
N7595 X-0.892 Y14.423
N7600 X-0.893 Y14.436
N7605 X-0.912 Y14.741
N7610 X-0.913 Y14.756
N7615 X-0.92 Y15.043
N7620 Y15.061
N7625 X-0.908 Y15.533
N7630 X-0.907 Y15.552
N7635 X-0.871 Y16.023
N7640 X-0.868 Y16.044
N7645 X-0.805 Y16.522
N7650 X-0.802 Y16.542
N7655 X-0.71 Y17.035
N7660 X-0.707 Y17.049
N7665 X-0.65 Y17.303
N7670 X-0.648 Y17.312
N7675 X-0.583 Y17.573
N7680 X-0.581 Y17.581
N7685 X-0.507 Y17.849
N7690 X-0.505 Y17.856
N7695 X-0.423 Y18.132
N7700 X-0.421 Y18.139
N7705 X-0.33 Y18.424
N7710 X-0.328 Y18.43
N7715 X-0.229 Y18.725
N7720 X-0.227 Y18.73
N7725 X-0.118 Y19.036
N7730 X-0.116 Y19.041
N7735 X0.001 Y19.356
N7740 X0.364 Y20.373
N7745 G2 X0.883 Y20.581 I0.351 J-0.126
N7750 G1 X2.631 Y19.707
N7755 X2.633 Y19.706
N7760 X3.022 Y19.509
N7765 X3.029 Y19.505
N7770 X3.42 Y19.296
N7775 X3.429 Y19.29
N7780 X4.211 Y18.841
N7785 X4.223 Y18.834
N7790 X4.993 Y18.352
N7795 X5.005 Y18.345
N7800 X5.75 Y17.841
N7805 X5.758 Y17.835
N7810 X6.117 Y17.577
N7815 X6.123 Y17.573
N7820 X6.471 Y17.314
N7825 X6.477 Y17.309
N7830 X6.811 Y17.05
N7835 X6.817 Y17.045
N7840 X7.137 Y16.785
N7845 X7.144 Y16.78
N7850 X7.447 Y16.522
N7855 X7.454 Y16.516
N7860 X7.739 Y16.262
N7865 X7.747 Y16.255
N7870 X8.012 Y16.005
N7875 X8.02 Y15.997
N7880 X8.263 Y15.753
N7885 X8.267 Y15.749
N7890 X9.165 Y14.827
N7895 G2 X9.13 Y14.274 I-0.267 J-0.26
N7900 G1 X6.046 Y11.822
N7905 X5.907 Y11.711
N7910 X5.906
N7915 X5.753 Y11.59
N7920 X5.587 Y11.458
N7925 X5.408 Y11.316
N7930 X5.217 Y11.165
N7935 X5.013 Y11.003
N7940 X4.797 Y10.832
N7945 X4.568 Y10.652
N7950 X4.328 Y10.462
N7955 X4.076 Y10.263
N7960 X3.813 Y10.055
N7965 X3.538 Y9.838
N7970 X3.252 Y9.612
N7975 X2.955 Y9.378
N7980 X2.648 Y9.135
N7985 X2.617 Y9.111
N7990 X2.329 Y8.884
N7995 X2.001 Y8.625
N8000 X1.662 Y8.358
N8005 X1.313 Y8.083
N8010 X0.954 Y7.8
N8015 X0.585 Y7.509
N8020 X0.207 Y7.211
N8025 X-0.18 Y6.906
N8030 X-0.576 Y6.594
N8035 X-0.982 Y6.275
N8040 X-1.396 Y5.948
N8045 X-1.819 Y5.615
N8050 X-2.25 Y5.276
N8055 X-2.689 Y4.93
N8060 X-3.137 Y4.578
N8065 X-4.055 Y3.855
N8070 X-5.002 Y3.109
N8075 X-5.979 Y2.341
N8080 X-6.982 Y1.551
N8085 X-8.011 Y0.742
N8090 X-9.063 Y-0.086
N8095 X-10.138 Y-0.932
N8100 X-11.234 Y-1.794
N8105 X-12.35 Y-2.672
N8110 X-13.484 Y-3.563
N8115 X-14.634 Y-4.468
N8120 X-15.8 Y-5.384
N8125 X-16.979 Y-6.311
N8130 X-18.17 Y-7.247
N8135 X-19.372 Y-8.192
N8140 X-21.801 Y-10.101
N8145 X-22.346 Y-10.533
N8150 X-22.878 Y-10.955
N8155 X-22.921 Y-10.989
N8160 X-23.394 Y-11.364
N8165 X-23.891 Y-11.757
N8170 X-24.367 Y-12.133
N8175 X-24.818 Y-12.49
N8180 X-25.241 Y-12.825
N8185 X-25.441 Y-12.983
N8190 X-25.634 Y-13.136
N8195 X-25.818 Y-13.281
N8200 X-25.993 Y-13.42
N8205 X-26.159 Y-13.552
N8210 X-26.316 Y-13.676
N8215 X-26.463 Y-13.793
N8220 X-26.6 Y-13.902
N8225 X-26.727 Y-14.003
N8230 X-26.787 Y-14.051
N8235 G0 Z5.
N8240 X1.731 Y7.929
N8245 Z4.
N8250 G1 Z-1.3 F333.33
N8255 G2 X1.795 Y8.449 I0.296 J0.228 F1200.
N8260 G1 X2.62 Y9.105
N8265 X2.621 Y9.106
N8270 X2.721 Y9.185
N8275 X2.722
N8280 X2.848 Y9.284
N8285 X2.998 Y9.402
N8290 X3.171 Y9.537
N8295 X3.363 Y9.688
N8300 X3.574 Y9.853
N8305 X3.801 Y10.031
N8310 X4.042 Y10.22
N8315 X4.296 Y10.419
N8320 X4.561 Y10.627
N8325 X5.113 Y11.062
N8330 X6.262 Y11.97
N8335 X9.054 Y14.179
N8340 G2 X9.594 Y14.098 I0.232 J-0.293
N8345 G1 X10.176 Y13.248
N8350 X10.179 Y13.245
N8355 X10.245 Y13.145
N8360 X10.252 Y13.135
N8365 X10.324 Y13.019
N8370 X10.329 Y13.012
N8375 X10.406 Y12.881
N8380 X10.409 Y12.875
N8385 X10.491 Y12.732
N8390 X10.494 Y12.727
N8395 X10.579 Y12.571
N8400 X10.581 Y12.567
N8405 X10.67 Y12.401
N8410 X10.672 Y12.396
N8415 X10.856 Y12.039
N8420 X10.859 Y12.034
N8425 X11.047 Y11.653
N8430 X11.049 Y11.648
N8435 X11.236 Y11.255
N8440 X11.238 Y11.251
N8445 X11.42 Y10.857
N8450 X11.422 Y10.853
N8455 X11.593 Y10.47
N8460 X11.598 Y10.459
N8465 X11.763 Y10.055
N8470 X11.765 Y10.049
N8475 X11.93 Y9.625
N8480 X11.933 Y9.618
N8485 X12.257 Y8.73
N8490 X12.26 Y8.722
N8495 X12.565 Y7.824
N8500 X12.567 Y7.818
N8505 X12.707 Y7.38
N8510 X12.708 Y7.376
N8515 X12.838 Y6.953
N8520 X12.84 Y6.948
N8525 X12.957 Y6.547
N8530 X12.959 Y6.541
N8535 X13.062 Y6.167
N8540 X13.064 Y6.163
N8545 X13.11 Y5.988
N8550 X13.111 Y5.984
N8555 X13.152 Y5.818
N8560 X13.153 Y5.814
N8565 X13.191 Y5.658
N8570 X13.192 Y5.653
N8575 X13.225 Y5.507
N8580 X13.226 Y5.501
N8585 X13.254 Y5.367
N8590 X13.255 Y5.36
N8595 X13.278 Y5.238
N8600 X13.279 Y5.228
N8605 X13.297 Y5.119
N8610 X13.299 Y5.107
N8615 X13.311 Y5.011
N8620 X13.312 Y4.993
N8625 X13.318 Y4.911
N8630 X13.319 Y4.884
N8635 X13.32 Y4.818
N8640 X13.317 Y4.772
N8645 X13.31 Y4.722
N8650 X13.303 Y4.679
N8655 X13.29 Y4.637
N8660 X13.277 Y4.603
N8665 X13.244 Y4.536
N8670 X13.199 Y4.477
N8675 X13.177 Y4.454
N8680 X13.142 Y4.422
N8685 X13.104 Y4.395
N8690 X13.067 Y4.371
N8695 X13.023 Y4.348
N8700 X12.971 Y4.324
N8705 X12.944 Y4.313
N8710 X12.878 Y4.289
N8715 X12.859 Y4.283
N8720 X12.78 Y4.258
N8725 X12.767 Y4.255
N8730 X12.675 Y4.23
N8735 X12.665 Y4.228
N8740 X12.562 Y4.204
N8745 X12.554 Y4.202
N8750 X12.44 Y4.178
N8755 X12.431 Y4.176
N8760 X12.176 Y4.129
N8765 X12.166 Y4.127
N8770 X11.879 Y4.082
N8775 X11.871 Y4.081
N8780 X11.56 Y4.039
N8785 X11.553 Y4.038
N8790 X11.223 Y3.999
N8795 X11.203 Y3.997
N8800 X10.624 Y3.961
N8805 X10.601 Y3.96
N8810 X10.014
N8815 X9.992 Y3.961
N8820 X9.4 Y3.995
N8825 X9.379 Y3.997
N8830 X8.784 Y4.065
N8835 X8.764 Y4.068
N8840 X8.17 Y4.169
N8845 X8.151 Y4.173
N8850 X7.56 Y4.305
N8855 X7.542 Y4.31
N8860 X6.958 Y4.473
N8865 X6.94 Y4.479
N8870 X6.366 Y4.672
N8875 X6.348 Y4.678
N8880 X5.787 Y4.899
N8885 X5.769 Y4.907
N8890 X5.224 Y5.156
N8895 X5.206 Y5.164
N8900 X4.68 Y5.439
N8905 X4.662 Y5.449
N8910 X4.157 Y5.749
N8915 X4.139 Y5.761
N8920 X3.659 Y6.085
N8925 X3.641 Y6.099
N8930 X3.189 Y6.446
N8935 X3.171 Y6.461
N8940 X2.75 Y6.831
N8945 X2.736 Y6.844
N8950 X2.538 Y7.037
N8955 X2.529 Y7.046
N8960 X2.34 Y7.244
N8965 X2.331 Y7.254
N8970 X1.748 Y7.909
N8975 X1.731 Y7.929
N8980 G0 Z5.
N8985 X0.257 Y6.205
N8990 Z4.
N8995 G1 Z-1.3 F333.33
N9000 X0.189 Y6.263 F1200.
N9005 X0.187 Y6.265
N9010 X0.113 Y6.327
N9015 X0.11 Y6.33
N9020 X0.047 Y6.382
N9025 X0.042 Y6.386
N9030 X-0.011 Y6.427
N9035 X-0.019 Y6.434
N9040 X-0.06 Y6.465
N9045 X-0.079 Y6.478
N9050 X-0.108 Y6.496
N9055 X-0.172 Y6.53
N9060 X-0.188 Y6.536
N9065 G3 X-0.516 Y6.513 I-0.141 J-0.346
N9070 G1 X-0.533 Y6.503
N9075 X-0.56 Y6.486
N9080 X-0.602 Y6.456
N9085 X-0.609 Y6.452
N9090 X-0.675 Y6.403
N9095 X-0.678 Y6.401
N9100 X-0.768 Y6.333
N9105 X-0.77 Y6.332
N9110 X-0.883 Y6.246
N9115 X-0.884 Y6.245
N9120 X-1.02 Y6.141
N9125 X-1.021
N9130 X-1.178 Y6.02
N9135 X-1.179 Y6.019
N9140 X-1.358 Y5.882
N9145 Y5.881
N9150 X-1.558 Y5.727
N9155 X-1.777 Y5.557
N9160 X-2.016 Y5.372
N9165 X-2.274 Y5.172
N9170 X-2.549 Y4.957
N9175 X-2.842 Y4.729
N9180 X-3.152 Y4.488
N9185 Y4.487
N9190 X-3.477 Y4.233
N9195 X-3.818 Y3.966
N9200 X-3.819
N9205 X-4.175 Y3.688
N9210 Y3.687
N9215 X-4.545 Y3.397
N9220 X-4.929 Y3.096
N9225 X-5.326 Y2.785
N9230 X-5.735 Y2.464
N9235 X-6.156 Y2.133
N9240 X-6.588 Y1.793
N9245 X-7.031 Y1.445
N9250 X-7.483 Y1.089
N9255 X-7.944 Y0.725
N9260 X-8.414 Y0.355
N9265 X-8.415 Y0.354
N9270 X-9.378 Y-0.406
N9275 X-10.368 Y-1.188
N9280 X-11.358 Y-1.972
N9285 X-12.323 Y-2.735
N9290 X-12.794 Y-3.108
N9295 X-13.257 Y-3.475
N9300 X-13.711 Y-3.834
N9305 X-14.156 Y-4.186
N9310 X-14.59 Y-4.53
N9315 X-15.013 Y-4.866
N9320 X-15.425 Y-5.193
N9325 X-15.825 Y-5.51
N9330 X-16.212 Y-5.817
N9335 X-16.586 Y-6.113
N9340 X-16.946 Y-6.399
N9345 X-17.291 Y-6.673
N9350 X-17.62 Y-6.934
N9355 Y-6.935
N9360 X-17.934 Y-7.184
N9365 X-18.231 Y-7.42
N9370 X-18.511 Y-7.643
N9375 X-18.512
N9380 X-18.774 Y-7.852
N9385 X-19.018 Y-8.047
N9390 X-19.242 Y-8.226
N9395 X-19.243
N9400 X-19.447 Y-8.39
N9405 X-19.448
N9410 X-19.632 Y-8.538
N9415 X-19.796 Y-8.669
N9420 X-19.938 Y-8.783
N9425 X-19.939 Y-8.784
N9430 X-20.058 Y-8.88
N9435 X-20.059 Y-8.881
N9440 X-20.155 Y-8.96
N9445 X-20.157 Y-8.961
N9450 X-20.23 Y-9.021
N9455 X-20.233 Y-9.023
N9460 X-20.282 Y-9.064
N9465 X-20.29 Y-9.071
N9470 X-20.314 Y-9.092
N9475 X-20.355 Y-9.135
N9480 X-20.378 Y-9.163
N9485 X-20.409 Y-9.207
N9490 X-20.433 Y-9.255
N9495 X-20.447 Y-9.289
N9500 X-20.463 Y-9.334
N9505 X-20.473 Y-9.38
N9510 X-20.478 Y-9.42
N9515 X-20.481 Y-9.495
N9520 X-20.479 Y-9.54
N9525 X-20.474 Y-9.58
N9530 X-20.466 Y-9.619
N9535 X-20.436 Y-9.726
N9540 X-20.412 Y-9.788
N9545 X-20.351 Y-9.916
N9550 X-20.331 Y-9.952
N9555 X-20.239 Y-10.099
N9560 X-20.223 Y-10.122
N9565 X-20.101 Y-10.286
N9570 X-20.089 Y-10.303
N9575 X-19.939 Y-10.484
N9580 X-19.928 Y-10.496
N9585 X-19.751 Y-10.692
N9590 X-19.743 Y-10.702
N9595 X-19.54 Y-10.912
N9600 X-19.533 Y-10.919
N9605 X-19.305 Y-11.143
N9610 X-19.299 Y-11.149
N9615 X-19.048 Y-11.383
N9620 X-19.041 Y-11.389
N9625 X-18.768 Y-11.633
N9630 X-18.762 Y-11.638
N9635 X-18.468 Y-11.891
N9640 X-18.463 Y-11.895
N9645 X-18.148 Y-12.156
N9650 X-18.143 Y-12.16
N9655 X-17.81 Y-12.426
N9660 X-17.805 Y-12.43
N9665 X-17.453 Y-12.701
N9670 X-17.446 Y-12.707
N9675 X-17.082 Y-12.974
N9680 X-17.075 Y-12.979
N9685 X-16.703 Y-13.237
N9690 X-16.696 Y-13.242
N9695 X-16.317 Y-13.491
N9700 X-16.309 Y-13.496
N9705 X-15.923 Y-13.737
N9710 X-15.915 Y-13.741
N9715 X-15.523 Y-13.973
N9720 X-15.515 Y-13.977
N9725 X-15.117 Y-14.2
N9730 X-15.109 Y-14.204
N9735 X-14.704 Y-14.417
N9740 X-14.696 Y-14.421
N9745 X-14.286 Y-14.625
N9750 X-14.278 Y-14.629
N9755 X-13.863 Y-14.824
N9760 X-13.855 Y-14.827
N9765 X-13.434 Y-15.012
N9770 X-13.426 Y-15.016
N9775 X-13.002 Y-15.191
N9780 X-12.994 Y-15.194
N9785 X-12.565 Y-15.36
N9790 X-12.557 Y-15.363
N9795 X-12.124 Y-15.519
N9800 X-12.116 Y-15.522
N9805 X-11.68 Y-15.669
N9810 X-11.671 Y-15.671
N9815 X-11.232 Y-15.807
N9820 X-11.224 Y-15.81
N9825 X-10.782 Y-15.936
N9830 X-10.774 Y-15.938
N9835 X-10.33 Y-16.054
N9840 X-10.321 Y-16.057
N9845 X-9.875 Y-16.162
N9850 X-9.867 Y-16.164
N9855 X-9.419 Y-16.26
N9860 X-9.41 Y-16.261
N9865 X-8.961 Y-16.346
N9870 X-8.952 Y-16.348
N9875 X-8.502 Y-16.422
N9880 X-8.494 Y-16.424
N9885 X-8.043 Y-16.487
N9890 X-8.034 Y-16.488
N9895 X-7.583 Y-16.541
N9900 X-7.574 Y-16.542
N9905 X-7.124 Y-16.584
N9910 X-7.115 Y-16.585
N9915 X-6.665 Y-16.616
N9920 X-6.656 Y-16.617
N9925 X-6.206 Y-16.637
N9930 X-6.197
N9935 X-5.749 Y-16.646
N9940 X-5.739
N9945 X-5.293 Y-16.643
N9950 X-5.283
N9955 X-4.839 Y-16.629
N9960 X-4.829
N9965 X-4.387 Y-16.603
N9970 X-4.377 Y-16.602
N9975 X-3.938 Y-16.565
N9980 X-3.928 Y-16.564
N9985 X-3.491 Y-16.516
N9990 X-3.479 Y-16.514
N9995 X-3.041 Y-16.45
N10000 X-3.03 Y-16.448
N10005 X-2.567 Y-16.365
N10010 X-2.557 Y-16.363
N10015 X-2.074 Y-16.263
N10020 X-2.066 Y-16.262
N10025 X-1.566 Y-16.146
N10030 X-1.559 Y-16.144
N10035 X-1.047 Y-16.015
N10040 X-1.04 Y-16.013
N10045 X-0.522 Y-15.871
N10050 X-0.512 Y-15.868
N10055 X0.53 Y-15.552
N10060 X0.539 Y-15.549
N10065 X1.053 Y-15.378
N10070 X1.06 Y-15.376
N10075 X1.564 Y-15.198
N10080 X1.57 Y-15.195
N10085 X2.059 Y-15.012
N10090 X2.066 Y-15.009
N10095 X2.536 Y-14.822
N10100 X2.544 Y-14.819
N10105 X2.989 Y-14.629
N10110 X2.998 Y-14.625
N10115 X3.416 Y-14.435
N10120 X3.426 Y-14.43
N10125 X3.811 Y-14.24
N10130 X3.823 Y-14.233
N10135 X4.171 Y-14.045
N10140 X4.184 Y-14.038
N10145 X4.438 Y-13.887
N10150 X4.446 Y-13.881
N10155 X4.702 Y-13.72
N10160 X4.714 Y-13.712
N10165 X5.229 Y-13.359
N10170 X5.243 Y-13.349
N10175 X5.761 Y-12.959
N10180 X5.773 Y-12.949
N10185 X6.292 Y-12.525
N10190 X6.303 Y-12.516
N10195 X6.819 Y-12.06
N10200 X6.829 Y-12.051
N10205 X7.339 Y-11.568
N10210 X7.348 Y-11.559
N10215 X7.85 Y-11.052
N10220 X7.858 Y-11.043
N10225 X8.349 Y-10.514
N10230 X8.356 Y-10.506
N10235 X8.832 Y-9.959
N10240 X8.84 Y-9.95
N10245 X9.298 Y-9.388
N10250 X9.306 Y-9.379
N10255 X9.744 Y-8.806
N10260 X9.751 Y-8.796
N10265 X10.166 Y-8.215
N10270 X10.173 Y-8.205
N10275 X10.562 Y-7.619
N10280 X10.569 Y-7.607
N10285 X10.928 Y-7.019
N10290 X10.935 Y-7.006
N10295 X11.262 Y-6.42
N10300 X11.27 Y-6.406
N10305 X11.562 Y-5.824
N10310 X11.567 Y-5.813
N10315 X11.743 Y-5.431
N10320 X11.748 Y-5.421
N10325 X11.921 Y-5.015
N10330 X11.925 Y-5.007
N10335 X12.094 Y-4.581
N10340 X12.097 Y-4.573
N10345 X12.262 Y-4.132
N10350 X12.265 Y-4.122
N10355 X12.574 Y-3.212
N10360 X12.577 Y-3.202
N10365 X12.719 Y-2.743
N10370 X12.721 Y-2.736
N10375 X12.852 Y-2.279
N10380 X12.854 Y-2.273
N10385 X12.975 Y-1.823
N10390 X12.976 Y-1.816
N10395 X13.085 Y-1.378
N10400 X13.087 Y-1.37
N10405 X13.181 Y-0.948
N10410 X13.183 Y-0.939
N10415 X13.263 Y-0.537
N10420 X13.265 Y-0.527
N10425 X13.33 Y-0.15
N10430 X13.332 Y-0.138
N10435 X13.379 Y0.21
N10440 X13.381 Y0.221
N10445 X13.398 Y0.383
N10450 Y0.392
N10455 X13.411 Y0.544
N10460 Y0.554
N10465 X13.419 Y0.697
N10470 X13.42 Y0.71
N10475 X13.422 Y0.843
N10480 Y0.85
N10485 Y1.748
N10490 G3 X13.025 Y2.12 I-0.373 J0.
N10495 G1 X11.113 Y1.999
N10500 X10.41 Y1.976
N10505 X9.717 Y1.984
N10510 X9.03 Y2.025
N10515 X8.352 Y2.097
N10520 X7.684 Y2.2
N10525 X7.027 Y2.334
N10530 X6.382 Y2.497
N10535 X5.75 Y2.691
N10540 X5.133 Y2.913
N10545 X4.532 Y3.165
N10550 X3.949 Y3.445
N10555 X3.384 Y3.752
N10560 X2.838 Y4.087
N10565 X2.314 Y4.449
N10570 X1.811 Y4.838
N10575 X1.327 Y5.257
N10580 X1.062 Y5.495
N10585 X1.061 Y5.496
N10590 X0.808 Y5.721
N10595 X0.807 Y5.722
N10600 X0.575 Y5.928
N10605 X0.574 Y5.929
N10610 X0.467 Y6.023
N10615 X0.466 Y6.024
N10620 X0.366 Y6.111
N10625 X0.365 Y6.112
N10630 X0.274 Y6.191
N10635 X0.272 Y6.192
N10640 X0.257 Y6.205
N10645 G0 Z5.
N10650 X-25.571 Y-22.288
N10655 Z4.
N10660 G1 Z-1. F333.33
N10665 X-25.496 Y-22.278 Z-1.106 F1200.
N10670 X-25.354 Y-22.259 Z-1.3
N10675 X-25.297 Y-22.17
N10680 X-25.23 Y-22.069
N10685 X-25.079 Y-21.848
N10690 X-24.901 Y-21.607
N10695 X-24.933 Y-21.36 Z-1.
N10700 X-24.901 Y-21.607 Z-1.3
N10705 X-23.601 Y-22.651
N10710 X-23.6 Y-22.652
N10715 X-23.262 Y-22.92
N10720 X-23.254 Y-22.926
N10725 X-22.889 Y-23.201
N10730 X-22.882 Y-23.206
N10735 X-22.491 Y-23.487
N10740 X-22.485 Y-23.492
N10745 X-22.071 Y-23.777
N10750 X-22.066 Y-23.781
N10755 X-21.631 Y-24.069
N10760 X-21.626 Y-24.073
N10765 X-21.173 Y-24.363
N10770 X-21.168 Y-24.366
N10775 X-20.7 Y-24.657
N10780 X-20.695 Y-24.66
N10785 X-20.213 Y-24.95
N10790 X-20.206 Y-24.954
N10795 X-19.211 Y-25.525
N10800 X-19.202 Y-25.53
N10805 X-18.182 Y-26.082
N10810 X-18.173 Y-26.086
N10815 X-17.146 Y-26.607
N10820 X-17.139 Y-26.611
N10825 X-16.629 Y-26.856
N10830 X-16.624 Y-26.859
N10835 X-16.12 Y-27.093
N10840 X-16.112 Y-27.096
N10845 X-15.492 Y-27.368
N10850 X-15.483 Y-27.371
N10855 X-14.845 Y-27.63
N10860 X-14.837 Y-27.634
N10865 X-14.184 Y-27.88
N10870 X-14.176 Y-27.883
N10875 X-13.509 Y-28.117
N10880 X-13.501 Y-28.12
N10885 X-12.821 Y-28.341
N10890 X-12.813 Y-28.343
N10895 X-12.121 Y-28.552
N10900 X-12.113 Y-28.554
N10905 X-11.41 Y-28.749
N10910 X-11.402 Y-28.751
N10915 X-10.689 Y-28.933
N10920 X-10.682 Y-28.935
N10925 X-9.959 Y-29.105
N10930 X-9.952 Y-29.106
N10935 X-9.222 Y-29.262
N10940 X-9.215 Y-29.264
N10945 X-8.478 Y-29.406
N10950 X-8.471 Y-29.408
N10955 X-7.729 Y-29.537
N10960 X-7.722 Y-29.538
N10965 X-6.975 Y-29.654
N10970 X-6.968 Y-29.655
N10975 X-6.217 Y-29.758
N10980 X-6.21 Y-29.759
N10985 X-5.457 Y-29.848
N10990 X-5.45
N10995 X-4.696 Y-29.924
N11000 X-4.689
N11005 X-3.934 Y-29.985
N11010 X-3.927 Y-29.986
N11015 X-3.173 Y-30.033
N11020 X-3.166 Y-30.034
N11025 X-2.413 Y-30.067
N11030 X-2.406 Y-30.068
N11035 X-1.657 Y-30.087
N11040 X-1.65
N11045 X-0.904 Y-30.092
N11050 X-0.897
N11055 X-0.156 Y-30.083
N11060 X-0.149
N11065 X0.586 Y-30.06
N11070 X0.594
N11075 X1.321 Y-30.022
N11080 X1.329
N11085 X2.048 Y-29.969
N11090 X2.056
N11095 X2.766 Y-29.902
N11100 X2.774 Y-29.901
N11105 X3.474 Y-29.819
N11110 X3.483 Y-29.818
N11115 X4.171 Y-29.722
N11120 X4.18 Y-29.721
N11125 X4.856 Y-29.61
N11130 X4.865 Y-29.608
N11135 X5.527 Y-29.482
N11140 X5.537 Y-29.48
N11145 X6.184 Y-29.339
N11150 X6.194 Y-29.336
N11155 X6.826 Y-29.18
N11160 X6.834 Y-29.178
N11165 X7.402 Y-29.024
N11170 X7.406 Y-29.023
N11175 X7.947 Y-28.871
N11180 X7.951 Y-28.87
N11185 X8.469 Y-28.718
N11190 X8.473 Y-28.717
N11195 X8.972 Y-28.563
N11200 X8.977 Y-28.561
N11205 X9.46 Y-28.405
N11210 X9.466 Y-28.403
N11215 X9.937 Y-28.242
N11220 X9.946 Y-28.239
N11225 X10.868 Y-27.899
N11230 X10.877 Y-27.896
N11235 X11.336 Y-27.714
N11240 X11.342 Y-27.712
N11245 X11.804 Y-27.52
N11250 X11.809 Y-27.518
N11255 X12.279 Y-27.314
N11260 X12.284 Y-27.312
N11265 X12.765 Y-27.096
N11270 X12.77 Y-27.094
N11275 X13.266 Y-26.864
N11280 X13.269 Y-26.862
N11285 X13.784 Y-26.616
N11290 X13.787 Y-26.614
N11295 X14.325 Y-26.351
N11300 X14.327 Y-26.35
N11305 X14.891 Y-26.068
N11310 X14.892
N11315 X15.144 Y-25.941
N11320 X15.148 Y-25.939
N11325 X15.409 Y-25.804
N11330 X15.414 Y-25.801
N11335 X15.957 Y-25.509
N11340 X15.963 Y-25.505
N11345 X16.529 Y-25.187
N11350 X16.535 Y-25.184
N11355 X17.119 Y-24.844
N11360 X17.123 Y-24.841
N11365 X17.719 Y-24.483
N11370 X17.723 Y-24.48
N11375 X18.325 Y-24.108
N11380 X18.331 Y-24.105
N11385 X19.527 Y-23.335
N11390 X19.532 Y-23.332
N11395 X20.114 Y-22.942
N11400 X20.118 Y-22.94
N11405 X20.682 Y-22.553
N11410 X20.686 Y-22.55
N11415 X21.225 Y-22.169
N11420 X21.229 Y-22.166
N11425 X21.738 Y-21.796
N11430 X21.741 Y-21.793
N11435 X21.982 Y-21.613
N11440 X21.985 Y-21.611
N11445 X22.216 Y-21.436
N11450 X22.219 Y-21.433
N11455 X22.439 Y-21.262
N11460 X22.442 Y-21.26
N11465 X22.651 Y-21.094
N11470 X22.655 Y-21.091
N11475 X22.851 Y-20.93
N11480 X22.855 Y-20.927
N11485 X23.039 Y-20.773
N11490 X23.043 Y-20.769
N11495 X23.213 Y-20.621
N11500 X23.219 Y-20.617
N11505 X23.373 Y-20.477
N11510 X23.621 Y-20.257
N11515 X23.858 Y-20.05
N11520 X24.076 Y-19.861
N11525 X24.272 Y-19.696
N11530 X24.358 Y-19.624
N11535 X24.437 Y-19.559
N11540 X24.497 Y-19.51
N11545 X24.498 Y-19.37 Z-1.111
N11550 Y-19.29 Z-1.
N11555 Y-19.37 Z-1.111
N11560 X24.497 Y-19.51 Z-1.3
N11565 X24.551 Y-19.556
N11570 X24.632 Y-19.632
N11575 X24.818 Y-19.823
N11580 X24.89 Y-19.903
N11585 X24.946 Y-19.97
N11590 X24.975 Y-20.008
N11595 X24.993 Z-1.273
N11600 X25.059 Y-20.006 Z-1.173
N11605 X25.159 Y-20.009 Z-1.001
N11610 X25.059 Y-20.006 Z-1.173
N11615 X24.993 Y-20.008 Z-1.273
N11620 X24.975 Z-1.3
N11625 X24.96 Y-20.031
N11630 X24.906 Y-20.1
N11635 X24.823 Y-20.192
N11640 X24.71 Y-20.305
N11645 X24.568 Y-20.441
N11650 X24.397 Y-20.599
N11655 X24.196 Y-20.782
N11660 X23.967 Y-20.989
N11665 X23.454 Y-21.445
N11670 X22.939 Y-21.887
N11675 X22.423 Y-22.318
N11680 X21.904 Y-22.737
N11685 X21.384 Y-23.145
N11690 X20.861 Y-23.542
N11695 X20.335 Y-23.927
N11700 X19.806 Y-24.301
N11705 X19.273 Y-24.664
N11710 X18.737 Y-25.017
N11715 X18.197 Y-25.359
N11720 X17.653 Y-25.69
N11725 X17.104 Y-26.012
N11730 X16.55 Y-26.323
N11735 X15.991 Y-26.624
N11740 X15.427 Y-26.916
N11745 X14.857 Y-27.198
N11750 X14.281 Y-27.47
N11755 X13.698 Y-27.733
N11760 X13.109 Y-27.987
N11765 X12.513 Y-28.232
N11770 X11.91 Y-28.468
N11775 X11.3 Y-28.695
N11780 X10.681 Y-28.914
N11785 X10.055 Y-29.124
N11790 X9.42 Y-29.326
N11795 X8.777 Y-29.52
N11800 X8.124 Y-29.705
N11805 X7.462 Y-29.883
N11810 X6.791 Y-30.053
N11815 X6.11 Y-30.216
N11820 X5.421 Y-30.371
N11825 X5.088 Y-30.438
N11830 X4.74 Y-30.502
N11835 X4.378 Y-30.563
N11840 X4.004 Y-30.621
N11845 X3.617 Y-30.675
N11850 X3.221 Y-30.726
N11855 X2.399 Y-30.817
N11860 X1.546 Y-30.893
N11865 X0.671 Y-30.955
N11870 X-0.218 Y-31.002
N11875 X-1.115 Y-31.033
N11880 X-2.01 Y-31.049
N11885 X-2.896
N11890 X-3.765 Y-31.033
N11895 X-4.609 Y-31.001
N11900 X-5.422 Y-30.953
N11905 X-5.811 Y-30.922
N11910 X-6.19 Y-30.888
N11915 X-6.557 Y-30.849
N11920 X-6.911 Y-30.806
N11925 X-7.25 Y-30.759
N11930 X-7.574 Y-30.708
N11935 X-8.388 Y-30.562
N11940 X-9.199 Y-30.396
N11945 X-10.007 Y-30.209
N11950 X-10.812 Y-30.002
N11955 X-11.614 Y-29.774
N11960 X-12.412 Y-29.526
N11965 X-13.205 Y-29.258
N11970 X-13.995 Y-28.97
N11975 X-14.779 Y-28.661
N11980 X-15.559 Y-28.333
N11985 X-16.333 Y-27.985
N11990 X-17.102 Y-27.617
N11995 X-17.864 Y-27.23
N12000 X-18.621 Y-26.823
N12005 X-19.37 Y-26.396
N12010 X-20.115 Y-25.95
N12015 X-20.508 Y-25.707
N12020 X-20.928 Y-25.439
N12025 X-21.367 Y-25.153
N12030 X-21.818 Y-24.853
N12035 X-22.728 Y-24.23
N12040 X-23.172 Y-23.919
N12045 X-23.599 Y-23.614
N12050 X-24.002 Y-23.321
N12055 X-24.373 Y-23.045
N12060 X-24.544 Y-22.916
N12065 X-24.705 Y-22.792
N12070 X-24.855 Y-22.676
N12075 X-24.991 Y-22.567
N12080 X-25.114 Y-22.467
N12085 X-25.221 Y-22.377
N12090 X-25.313 Y-22.297
N12095 X-25.354 Y-22.259
N12100 G0 Z5.
N12105 X21.833 Y-14.705
N12110 Z4.
N12115 G1 Z-1.085 F333.33
N12120 X21.864 Y-14.69 Z-1.139 F1200.
N12125 X21.893 Y-14.676 Z-1.188
N12130 X21.894 Y-14.678 Z-1.185
N12135 X21.898 Y-14.773 Z-1.044
N12140 X21.899 Y-14.801 Z-1.001
N12145 X21.898 Y-14.773 Z-1.044
N12150 X21.894 Y-14.678 Z-1.185
N12155 X21.893 Y-14.676 Z-1.188
N12160 X21.932 Y-14.615 Z-1.229
N12165 X21.983 Y-14.538 Z-1.266
N12170 X22.045 Y-14.447 Z-1.298
N12175 X22.049 Y-14.441 Z-1.3
N12180 X22.062 Y-14.414
N12185 X22.139 Y-14.271
N12190 X22.237 Y-14.103
N12195 X22.357 Y-13.907
N12200 X22.499 Y-13.683
N12205 X22.664 Y-13.43
N12210 X22.852 Y-13.148
N12215 X22.964 Y-12.981
N12220 X22.967 Y-12.978
N12225 X23.071 Y-12.82
N12230 X23.074 Y-12.816
N12235 X23.169 Y-12.668
N12240 X23.172 Y-12.663
N12245 X23.257 Y-12.526
N12250 X23.261 Y-12.52
N12255 X23.336 Y-12.393
N12260 X23.34 Y-12.386
N12265 X23.406 Y-12.271
N12270 X23.411 Y-12.262
N12275 X23.466 Y-12.158
N12280 X23.472 Y-12.146
N12285 X23.517 Y-12.054
N12290 X23.525 Y-12.037
N12295 X23.559 Y-11.957
N12300 X23.569 Y-11.933
N12305 X23.592 Y-11.865
N12310 X23.604 Y-11.826
N12315 X23.617 Y-11.77
N12320 X23.626 Y-11.702
N12325 X23.628 Y-11.659
N12330 X23.625 Y-11.595
N12335 X23.611 Y-11.532
N12340 X23.602 Y-11.502
N12345 X23.573 Y-11.434
N12350 X23.531 Y-11.372
N12355 X23.478 Y-11.321
N12360 X23.457 Y-11.304
N12365 X23.408 Y-11.271
N12370 X23.369 Y-11.278 Z-1.26
N12375 X23.331 Y-11.284 Z-1.224
N12380 X23.295 Y-11.294 Z-1.191
N12385 X23.25 Y-11.307 Z-1.156
N12390 X23.192 Y-11.33 Z-1.11
N12395 X23.151 Y-11.351 Z-1.081
N12400 X23.093 Y-11.386 Z-1.045
N12405 X23.026 Y-11.434 Z-1.
N12410 X23.093 Y-11.386 Z-1.045
N12415 X23.151 Y-11.351 Z-1.081
N12420 X23.192 Y-11.33 Z-1.11
N12425 X23.25 Y-11.307 Z-1.156
N12430 X23.295 Y-11.294 Z-1.191
N12435 X23.331 Y-11.284 Z-1.224
N12440 X23.369 Y-11.278 Z-1.26
N12445 X23.408 Y-11.271 Z-1.3
N12450 X23.42 Y-11.26
N12455 X23.486 Y-11.21
N12460 X23.498 Y-11.204
N12465 X23.492 Y-11.163 Z-1.231
N12470 X23.498 Y-11.204 Z-1.3
N12475 X23.51 Y-11.206
N12480 X23.523 Y-11.211
N12485 X23.563 Y-11.231
N12490 X23.617 Y-11.261
N12495 X23.683 Y-11.303
N12500 X23.762 Y-11.357
N12505 X23.85 Y-11.42
N12510 X23.912 Y-11.467
N12515 X23.949 Y-11.499
N12520 X23.95 Y-11.5
N12525 X24.032 Y-11.473 Z-1.161
N12530 X23.95 Y-11.5 Z-1.3
N12535 X23.935 Y-11.553
N12540 X23.902 Y-11.638
N12545 X23.847 Y-11.753
N12550 X23.769 Y-11.896
N12555 X23.668 Y-12.068
N12560 X23.545 Y-12.271
N12565 X23.397 Y-12.505
N12570 X23.315 Y-12.635
N12575 X23.226 Y-12.773
N12580 X23.131 Y-12.92
N12585 X23.029 Y-13.077
N12590 X23.026 Y-13.082
N12595 X22.897 Y-13.288
N12600 X22.773 Y-13.479
N12605 X22.653 Y-13.659
N12610 X22.537 Y-13.825
N12615 X22.426 Y-13.978
N12620 X22.321 Y-14.117
N12625 X22.222 Y-14.242
N12630 X22.129 Y-14.352
N12635 X22.049 Y-14.441
N12640 G0 Z5.
N12645 X24.57 Y-16.516
N12650 Z4.
N12655 G1 Z-1. F333.33
N12660 X24.585 Y-16.517 Z-1.017 F1200.
N12665 X24.663 Y-16.521 Z-1.096
N12670 X24.756 Y-16.526 Z-1.183
N12675 X24.889 Y-16.534 Z-1.3
N12680 X24.913 Y-16.521
N12685 X25.039 Y-16.461
N12690 X25.189 Y-16.393
N12695 X25.363 Y-16.316
N12700 X25.37 Y-16.313
N12705 X25.626 Y-16.193
N12710 X25.639 Y-16.187
N12715 X25.877 Y-16.064
N12720 X25.89 Y-16.057
N12725 X26.111 Y-15.932
N12730 X26.125 Y-15.923
N12735 X26.329 Y-15.796
N12740 X26.344 Y-15.786
N12745 X26.528 Y-15.658
N12750 X26.545 Y-15.646
N12755 X26.71 Y-15.517
N12760 X26.728 Y-15.502
N12765 X26.875 Y-15.373
N12770 X26.894 Y-15.354
N12775 X27.02 Y-15.225
N12780 X27.042 Y-15.202
N12785 X27.147 Y-15.074
N12790 X27.17 Y-15.044
N12795 X27.254 Y-14.917
N12800 X27.277 Y-14.878
N12805 X27.34 Y-14.754
N12810 X27.361 Y-14.704
N12815 X27.402 Y-14.582
N12820 X27.417 Y-14.52
N12825 X27.436 Y-14.401
N12830 X27.441 Y-14.33
N12835 X27.436 Y-14.214
N12840 X27.426 Y-14.138
N12845 X27.398 Y-14.026
N12850 X27.372 Y-13.954
N12855 X27.321 Y-13.846
N12860 X27.287 Y-13.79
N12865 X27.215 Y-13.69
N12870 X27.192 Y-13.662
N12875 X27.114 Y-13.574
N12880 X27.088 Y-13.547
N12885 X27.031 Y-13.495
N12890 X27.104 Y-13.549
N12895 X27.186 Y-13.62
N12900 X27.257 Y-13.693
N12905 X27.318 Y-13.766
N12910 X27.369 Y-13.839
N12915 X27.41 Y-13.913
N12920 X27.443 Y-13.987
N12925 X27.469 Y-14.062
N12930 X27.486 Y-14.138
N12935 X27.497 Y-14.217
N12940 X27.5 Y-14.298
N12945 X27.495 Y-14.382
N12950 X27.482 Y-14.469
N12955 X27.462 Y-14.559
N12960 X27.432 Y-14.653
N12965 X27.393 Y-14.75
N12970 X27.345 Y-14.85
N12975 X27.287 Y-14.952
N12980 X27.219 Y-15.056
N12985 X27.142 Y-15.162
N12990 X27.054 Y-15.27
N12995 X26.956 Y-15.378
N13000 X26.848 Y-15.486
N13005 X26.732 Y-15.593
N13010 X26.462 Y-15.812
N13015 X26.155 Y-16.024
N13020 X25.803 Y-16.234
N13025 X25.662 Y-16.312
N13030 X25.534 Y-16.381
N13035 X25.419 Y-16.44
N13040 X25.319 Y-16.488
N13045 X25.233 Y-16.526
N13050 X25.162 Y-16.553
N13055 X25.104 Y-16.571
N13060 X25.071 Y-16.578
N13065 X25.008 Y-16.581
N13070 X24.967 Y-16.573
N13075 X24.903 Y-16.543
N13080 X24.889 Y-16.534
N13085 X24.903 Y-16.543
N13090 X24.967 Y-16.573
N13095 X25.008 Y-16.581
N13100 X25.071 Y-16.578
N13105 X25.104 Y-16.571
N13110 X25.162 Y-16.553
N13115 X25.233 Y-16.526
N13120 X25.319 Y-16.488
N13125 X25.419 Y-16.44
N13130 X25.534 Y-16.381
N13135 X25.662 Y-16.312
N13140 X25.803 Y-16.234
N13145 X26.155 Y-16.024
N13150 X26.462 Y-15.812
N13155 X26.732 Y-15.593
N13160 X26.848 Y-15.486
N13165 X26.956 Y-15.378
N13170 X27.054 Y-15.27
N13175 X27.142 Y-15.162
N13180 X27.219 Y-15.056
N13185 X27.287 Y-14.952
N13190 X27.345 Y-14.85
N13195 X27.393 Y-14.75
N13200 X27.432 Y-14.653
N13205 X27.462 Y-14.559
N13210 X27.482 Y-14.469
N13215 X27.495 Y-14.382
N13220 X27.5 Y-14.298
N13225 X27.497 Y-14.217
N13230 X27.486 Y-14.138
N13235 X27.469 Y-14.062
N13240 X27.443 Y-13.987
N13245 X27.41 Y-13.913
N13250 X27.369 Y-13.839
N13255 X27.318 Y-13.766
N13260 X27.257 Y-13.693
N13265 X27.186 Y-13.62
N13270 X27.104 Y-13.549
N13275 X27.031 Y-13.495
N13280 X27.004 Y-13.472 Z-1.296
N13285 X26.908 Y-13.404 Z-1.287
N13290 X26.884 Y-13.388 Z-1.284
N13295 X26.792 Y-13.333 Z-1.28
N13300 X26.76 Y-13.316 Z-1.277
N13305 X26.634 Y-13.255
N13310 X26.506 Y-13.205 Z-1.287
N13315 X26.398 Y-13.173 Z-1.3
N13320 X26.394 Y-13.172
N13325 X26.333 Y-13.156
N13330 X26.285 Y-13.148
N13335 X26.246 Y-13.146
N13340 X26.211 Y-13.149
N13345 X26.173 Y-13.157
N13350 X26.168 Y-13.159
N13355 X26.18 Y-13.158
N13360 X26.234 Y-13.157
N13365 X26.323 Y-13.162
N13370 X26.373 Y-13.169
N13375 X26.398 Y-13.173
N13380 X26.373 Y-13.169
N13385 X26.323 Y-13.162
N13390 X26.234 Y-13.157
N13395 X26.18 Y-13.158
N13400 X26.168 Y-13.159
N13405 X26.124 Y-13.169 Z-1.291
N13410 X26.059 Y-13.187 Z-1.272
N13415 X25.962 Y-13.226 Z-1.247
N13420 X25.936 Y-13.239 Z-1.239
N13425 X25.886 Y-13.264 Z-1.232
N13430 X25.812 Y-13.307 Z-1.218
N13435 X25.779 Y-13.328
N13440 X25.69 Y-13.393 Z-1.215
N13445 X25.664 Y-13.414 Z-1.22
N13450 X25.585 Y-13.485 Z-1.231
N13455 X25.546 Y-13.523 Z-1.246
N13460 X25.481 Y-13.596 Z-1.269
N13465 X25.444 Y-13.641 Z-1.291
N13470 X25.427 Y-13.665 Z-1.3
N13475 X25.351 Y-13.737
N13480 X25.272 Y-13.824
N13485 X25.21 Y-13.906
N13490 X25.164 Y-13.982
N13495 X25.132 Y-14.052
N13500 X25.112 Y-14.116
N13505 X25.102 Y-14.176
N13510 X25.101 Y-14.234
N13515 X25.108 Y-14.292
N13520 X25.125 Y-14.355
N13525 X25.154 Y-14.423
N13530 X25.196 Y-14.498
N13535 X25.253 Y-14.579
N13540 X25.327 Y-14.664
N13545 X25.413 Y-14.75
N13550 X25.5 Y-14.82
N13555 X25.505 Y-14.824
N13560 X25.569 Y-14.896 Z-1.26
N13565 X25.64 Y-14.967 Z-1.211
N13570 X25.699 Y-15.024 Z-1.156
N13575 X25.745 Y-15.068 Z-1.1
N13580 X25.779 Y-15.101 Z-1.046
N13585 X25.802 Y-15.123 Z-1.002
N13590 Y-15.124 Z-1.001
N13595 Y-15.123 Z-1.002
N13600 X25.779 Y-15.101 Z-1.046
N13605 X25.745 Y-15.068 Z-1.1
N13610 X25.699 Y-15.024 Z-1.156
N13615 X25.64 Y-14.967 Z-1.211
N13620 X25.569 Y-14.896 Z-1.26
N13625 X25.505 Y-14.824 Z-1.3
N13630 X25.486 Y-14.786
N13635 X25.468 Y-14.747
N13640 X25.428 Y-14.64
N13645 X25.417 Y-14.606
N13650 X25.386 Y-14.493
N13655 X25.379 Y-14.461
N13660 X25.358 Y-14.345
N13665 X25.353 Y-14.313
N13670 X25.343 Y-14.198
N13675 X25.341 Y-14.164
N13680 Y-14.054
N13685 X25.343 Y-14.015
N13690 X25.353 Y-13.913
N13695 X25.362 Y-13.864
N13700 X25.383 Y-13.775
N13705 X25.409 Y-13.703
N13710 X25.427 Y-13.665
N13715 G0 Z5.
N13720 X26.874 Y-18.008
N13725 Z4.
N13730 G1 Z-1. F333.33
N13735 X26.891 Y-18.009 Z-1.02 F1200.
N13740 X26.967 Y-18.017 Z-1.103
N13745 X27.052 Y-18.026 Z-1.19
N13750 X27.166 Y-18.039 Z-1.3
N13755 X27.228 Y-18.091
N13760 X27.368 Y-18.2
N13765 X27.383 Y-18.235 Z-1.268
N13770 X27.399 Y-18.265 Z-1.239
N13775 X27.414 Y-18.295 Z-1.216
N13780 X27.432 Y-18.322 Z-1.193
N13785 X27.45 Y-18.35 Z-1.176
N13790 X27.47 Y-18.374 Z-1.159
N13795 X27.489 Y-18.399 Z-1.148
N13800 X27.511 Y-18.42 Z-1.137
N13805 X27.533 Y-18.442 Z-1.131
N13810 X27.556 Y-18.461 Z-1.126
N13815 X27.58 Y-18.48
N13820 X27.756 Y-18.589 Z-1.146
N13825 X27.998 Y-18.735 Z-1.172
N13830 X28.167 Y-18.833 Z-1.185
N13835 X28.366 Y-18.947 Z-1.198
N13840 X28.533 Y-19.04 Z-1.208
N13845 X28.661 Y-19.116 Z-1.202
N13850 X28.762 Y-19.18 Z-1.182
N13855 X28.839 Y-19.233 Z-1.154
N13860 X28.893 Y-19.275 Z-1.12
N13865 X28.927 Y-19.305 Z-1.086
N13870 X28.951 Y-19.33 Z-1.052
N13875 X28.961 Y-19.344 Z-1.03
N13880 X28.97 Y-19.361 Z-1.001
N13885 X28.961 Y-19.344 Z-1.03
N13890 X28.951 Y-19.33 Z-1.052
N13895 X28.927 Y-19.305 Z-1.086
N13900 X28.893 Y-19.275 Z-1.12
N13905 X28.839 Y-19.233 Z-1.154
N13910 X28.762 Y-19.18 Z-1.182
N13915 X28.661 Y-19.116 Z-1.202
N13920 X28.533 Y-19.04 Z-1.208
N13925 X28.366 Y-18.947 Z-1.198
N13930 X28.167 Y-18.833 Z-1.185
N13935 X27.998 Y-18.735 Z-1.172
N13940 X27.756 Y-18.589 Z-1.146
N13945 X27.58 Y-18.48 Z-1.126
N13950 X27.556 Y-18.461
N13955 X27.533 Y-18.442 Z-1.131
N13960 X27.511 Y-18.42 Z-1.137
N13965 X27.489 Y-18.399 Z-1.148
N13970 X27.47 Y-18.374 Z-1.159
N13975 X27.45 Y-18.35 Z-1.176
N13980 X27.432 Y-18.322 Z-1.193
N13985 X27.414 Y-18.295 Z-1.216
N13990 X27.399 Y-18.265 Z-1.239
N13995 X27.383 Y-18.235 Z-1.268
N14000 X27.368 Y-18.2 Z-1.3
N14005 G2 X27.615 Y-17.904 I0.369 J-0.057
N14010 G1 X28.947 Y-17.444
N14015 X29.477 Y-17.248
N14020 X29.722 Y-17.146
N14025 X29.951 Y-17.042
N14030 X30.154 Y-16.943
N14035 X30.324 Y-16.852
N14040 X30.39 Y-16.814
N14045 X30.444 Y-16.78
N14050 X30.482 Y-16.753
N14055 X30.487 Y-16.749
N14060 X30.529 Y-16.7
N14065 X30.563 Y-16.644
N14070 X30.586 Y-16.586
N14075 X30.6 Y-16.523
N14080 X30.604 Y-16.451
N14085 X30.598 Y-16.372
N14090 X30.579 Y-16.283
N14095 X30.546 Y-16.186
N14100 X30.498 Y-16.083
N14105 X30.436 Y-15.975
N14110 X30.389 Y-15.909
N14115 X30.377 Y-15.884 Z-1.29
N14120 X30.365 Y-15.859 Z-1.284
N14125 X30.29 Y-15.739 Z-1.251
N14130 X30.266 Y-15.706 Z-1.24
N14135 X30.185 Y-15.61 Z-1.227
N14140 X30.144 Y-15.567 Z-1.218
N14145 X30.064 Y-15.492 Z-1.216
N14150 X29.998 Y-15.436 Z-1.211
N14155 X29.925 Y-15.382 Z-1.214
N14160 X29.854 Y-15.332 Z-1.213
N14165 X29.826 Y-15.314 Z-1.214
N14170 X29.667 Y-15.217 Z-1.225
N14175 X29.649 Y-15.207 Z-1.226
N14180 X29.459 Y-15.106 Z-1.247
N14185 X29.357 Y-15.056 Z-1.257
N14190 X29.287 Y-15.022 Z-1.259
N14195 X29.23 Y-14.996 Z-1.257
N14200 X29.199 Y-14.982 Z-1.254
N14205 X29.17 Y-14.97 Z-1.248
N14210 X29.151 Y-14.965 Z-1.241
N14215 X29.141 Y-14.925 Z-1.173
N14220 X29.151 Y-14.965 Z-1.241
N14225 X29.074 Y-14.975 Z-1.156
N14230 X29.023 Y-14.982 Z-1.094
N14235 X28.977 Y-14.985 Z-1.033
N14240 X28.954 Y-14.989 Z-1.001
N14245 X28.977 Y-14.985 Z-1.033
N14250 X29.023 Y-14.982 Z-1.094
N14255 X29.074 Y-14.975 Z-1.156
N14260 X29.151 Y-14.965 Z-1.241
N14265 X29.17 Y-14.97 Z-1.248
N14270 X29.199 Y-14.982 Z-1.254
N14275 X29.23 Y-14.996 Z-1.257
N14280 X29.287 Y-15.022 Z-1.259
N14285 X29.357 Y-15.056 Z-1.257
N14290 X29.459 Y-15.106 Z-1.247
N14295 X29.649 Y-15.207 Z-1.226
N14300 X29.667 Y-15.217 Z-1.225
N14305 X29.826 Y-15.314 Z-1.214
N14310 X29.854 Y-15.332 Z-1.213
N14315 X29.925 Y-15.382 Z-1.214
N14320 X29.998 Y-15.436 Z-1.211
N14325 X30.064 Y-15.492 Z-1.216
N14330 X30.144 Y-15.567 Z-1.218
N14335 X30.185 Y-15.61 Z-1.227
N14340 X30.266 Y-15.706 Z-1.24
N14345 X30.29 Y-15.739 Z-1.251
N14350 X30.365 Y-15.859 Z-1.284
N14355 X30.377 Y-15.884 Z-1.29
N14360 X30.389 Y-15.909 Z-1.3
N14365 X30.391 Y-15.921
N14370 X30.408 Y-16.021
N14375 X30.413 Y-16.074
N14380 X30.411 Y-16.127
N14385 X30.399 Y-16.228
N14390 X30.39 Y-16.276
N14395 X30.375 Y-16.323
N14400 X30.334 Y-16.424
N14405 X30.317 Y-16.461
N14410 X30.296 Y-16.496
N14415 X30.227 Y-16.597
N14420 X30.186 Y-16.647
N14425 X30.088 Y-16.748
N14430 X30.052 Y-16.781
N14435 X29.925 Y-16.88
N14440 X29.894 Y-16.902
N14445 X29.739 Y-17.001
N14450 X29.713 Y-17.016
N14455 X29.529 Y-17.113
N14460 X29.507 Y-17.124
N14465 X29.295 Y-17.219
N14470 X29.277 Y-17.226
N14475 X29.036 Y-17.319
N14480 X29.029 Y-17.321
N14485 X28.692 Y-17.443
N14490 X28.39 Y-17.553
N14495 X28.121 Y-17.652
N14500 X27.884 Y-17.741
N14505 X27.676 Y-17.822
N14510 X27.497 Y-17.893
N14515 X27.346 Y-17.957
N14520 X27.22 Y-18.013
N14525 X27.166 Y-18.039
N14530 G0 Z5.
N14535 X30.11 Y-19.981
N14540 Z4.
N14545 G1 Z-1.084 F333.33
N14550 X30.124 Y-19.985 Z-1.108 F1200.
N14555 X30.16 Y-19.992 Z-1.162
N14560 X30.159 Y-19.984 Z-1.151
N14565 X30.152 Y-19.953 Z-1.1
N14570 X30.159 Y-19.984 Z-1.151
N14575 X30.16 Y-19.992 Z-1.162
N14580 X30.172 Y-20.005 Z-1.175
N14585 X30.184 Y-20.016 Z-1.183
N14590 X30.227 Y-20.061 Z-1.207
N14595 X30.306 Y-20.144 Z-1.225
N14600 X30.409 Y-20.254 Z-1.224
N14605 X30.521 Y-20.363 Z-1.221
N14610 X30.572 Y-20.41 Z-1.223
N14615 X30.648 Y-20.471 Z-1.219
N14620 X30.777 Y-20.567 Z-1.223
N14625 X30.914 Y-20.65 Z-1.225
N14630 X30.984 Y-20.688 Z-1.231
N14635 X31.052 Y-20.719
N14640 X31.191 Y-20.776 Z-1.243
N14645 X31.335 Y-20.818 Z-1.252
N14650 X31.374 Y-20.828 Z-1.257
N14655 X31.481 Y-20.846 Z-1.267
N14660 X31.586 Y-20.857 Z-1.284
N14665 X31.654 Y-20.858 Z-1.289
N14670 X31.714 Y-20.857 Z-1.3
N14675 X31.765 Y-20.86
N14680 X31.929 Y-20.85
N14685 X32.075 Y-20.82
N14690 X32.203 Y-20.772
N14695 X32.31 Y-20.709
N14700 X32.397 Y-20.634
N14705 X32.465 Y-20.546
N14710 X32.52 Y-20.436
N14715 X32.536 Y-20.386
N14720 X32.549 Y-20.322
N14725 X32.557 Y-20.252
N14730 X32.559 Y-20.175
N14735 X32.554 Y-20.091
N14740 X32.55 Y-20.062
N14745 X32.541 Y-20.103
N14750 X32.516 Y-20.198
N14755 X32.492 Y-20.264
N14760 X32.445 Y-20.362
N14765 X32.414 Y-20.414
N14770 X32.356 Y-20.497
N14775 X32.315 Y-20.546
N14780 X32.246 Y-20.615
N14785 X32.198 Y-20.656
N14790 X32.12 Y-20.712
N14795 X32.066 Y-20.744
N14800 X31.98 Y-20.786
N14805 X31.925 Y-20.807
N14810 X31.831 Y-20.835
N14815 X31.778 Y-20.847
N14820 X31.714 Y-20.857
N14825 X31.778 Y-20.847
N14830 X31.831 Y-20.835
N14835 X31.925 Y-20.807
N14840 X31.98 Y-20.786
N14845 X32.066 Y-20.744
N14850 X32.12 Y-20.712
N14855 X32.198 Y-20.656
N14860 X32.246 Y-20.615
N14865 X32.315 Y-20.546
N14870 X32.356 Y-20.497
N14875 X32.414 Y-20.414
N14880 X32.445 Y-20.362
N14885 X32.492 Y-20.264
N14890 X32.516 Y-20.198
N14895 X32.541 Y-20.103
N14900 X32.55 Y-20.062
N14905 X32.542 Y-19.917 Z-1.275
N14910 X32.538 Y-19.883 Z-1.269
N14915 X32.533 Y-19.848
N14920 X32.525 Y-19.794 Z-1.271
N14925 X32.512 Y-19.704 Z-1.281
N14930 X32.5 Y-19.637 Z-1.3
N14935 X32.502 Y-19.599
N14940 X32.513 Y-19.488
N14945 X32.521 Y-19.443
N14950 X32.534 Y-19.399
N14955 X32.566 Y-19.31
N14960 X32.59 Y-19.258
N14965 X32.621 Y-19.21
N14970 X32.676 Y-19.139
N14975 X32.681 Y-19.133
N14980 X32.664
N14985 X32.567
N14990 X32.518 Y-19.129
N14995 X32.417 Y-19.115
N15000 X32.374 Y-19.107
N15005 X32.272 Y-19.08
N15010 X32.233 Y-19.068
N15015 X32.132 Y-19.03
N15020 X32.094 Y-19.013
N15025 X31.999 Y-18.963
N15030 X31.96 Y-18.941
N15035 X31.927 Y-18.918
N15040 X31.988 Y-18.971
N15045 X32.114 Y-19.081
N15050 X32.14 Y-19.106
N15055 X32.245 Y-19.217
N15060 X32.272 Y-19.248
N15065 X32.356 Y-19.36
N15070 X32.383 Y-19.4
N15075 X32.446 Y-19.51
N15080 X32.47 Y-19.561
N15085 X32.5 Y-19.637
N15090 X32.47 Y-19.561
N15095 X32.446 Y-19.51
N15100 X32.383 Y-19.4
N15105 X32.356 Y-19.36
N15110 X32.272 Y-19.248
N15115 X32.245 Y-19.217
N15120 X32.14 Y-19.106
N15125 X32.114 Y-19.081
N15130 X31.988 Y-18.971
N15135 X31.927 Y-18.918
N15140 X31.876 Y-18.878 Z-1.293
N15145 X31.771 Y-18.785 Z-1.282
N15150 X31.732 Y-18.749 Z-1.267
N15155 X31.73 Y-18.736 Z-1.247
N15160 X31.724 Y-18.662 Z-1.131
N15165 X31.73 Y-18.736 Z-1.247
N15170 X31.732 Y-18.749 Z-1.267
N15175 X31.679 Y-18.743 Z-1.199
N15180 X31.614 Y-18.736 Z-1.104
N15185 X31.586 Y-18.734 Z-1.059
N15190 X31.614 Y-18.736 Z-1.104
N15195 X31.679 Y-18.743 Z-1.199
N15200 X31.732 Y-18.749 Z-1.267
N15205 X31.771 Y-18.785 Z-1.282
N15210 X31.876 Y-18.878 Z-1.293
N15215 X31.927 Y-18.918 Z-1.3
N15220 X31.96 Y-18.941
N15225 X31.999 Y-18.963
N15230 X32.094 Y-19.013
N15235 X32.132 Y-19.03
N15240 X32.233 Y-19.068
N15245 X32.272 Y-19.08
N15250 X32.374 Y-19.107
N15255 X32.417 Y-19.115
N15260 X32.518 Y-19.129
N15265 X32.567 Y-19.133
N15270 X32.664
N15275 X32.681
N15280 X32.72 Y-19.114 Z-1.272
N15285 X32.749 Y-19.1 Z-1.255
N15290 X32.835 Y-19.063 Z-1.218
N15295 X32.865 Y-19.049 Z-1.211
N15300 X32.901 Y-19.033 Z-1.204
N15305 X32.937 Y-19.018 Z-1.202
N15310 X33.035 Y-18.977 Z-1.207
N15315 X33.069 Y-18.964 Z-1.212
N15320 X33.086 Y-18.958 Z-1.215
N15325 X33.191 Y-18.915 Z-1.253
N15330 X33.207 Y-18.908 Z-1.258
N15335 X33.248 Y-18.888 Z-1.272
N15340 X33.298 Y-18.853 Z-1.289
N15345 X33.352 Y-18.811 Z-1.3
N15350 X33.379 Y-18.777
N15355 X33.429 Y-18.709
N15360 X33.466 Y-18.648
N15365 X33.501 Y-18.574
N15370 X33.525 Y-18.506
N15375 X33.545 Y-18.428
N15380 X33.556 Y-18.359
N15385 X33.56 Y-18.278
N15390 X33.559 Y-18.212
N15395 X33.549 Y-18.129
N15400 X33.537 Y-18.069
N15405 X33.513 Y-17.984
N15410 X33.496 Y-17.939
N15415 X33.512 Y-17.956
N15420 X33.564 Y-18.02
N15425 X33.604 Y-18.076
N15430 X33.632 Y-18.121
N15435 X33.645 Y-18.148
N15440 X33.663 Y-18.213
N15445 X33.665 Y-18.268
N15450 X33.649 Y-18.355
N15455 X33.603 Y-18.487
N15460 X33.572 Y-18.56
N15465 X33.534 Y-18.625
N15470 X33.482 Y-18.691
N15475 X33.422 Y-18.754
N15480 X33.357 Y-18.807
N15485 X33.352 Y-18.811
N15490 X33.357 Y-18.807
N15495 X33.422 Y-18.754
N15500 X33.482 Y-18.691
N15505 X33.534 Y-18.625
N15510 X33.572 Y-18.56
N15515 X33.603 Y-18.487
N15520 X33.649 Y-18.355
N15525 X33.665 Y-18.268
N15530 X33.663 Y-18.213
N15535 X33.645 Y-18.148
N15540 X33.632 Y-18.121
N15545 X33.604 Y-18.076
N15550 X33.564 Y-18.02
N15555 X33.512 Y-17.956
N15560 X33.496 Y-17.939
N15565 X33.454 Y-17.875 Z-1.28
N15570 X33.426 Y-17.835 Z-1.265
N15575 X33.35 Y-17.738 Z-1.242
N15580 X33.251 Y-17.629 Z-1.224
N15585 X33.143 Y-17.525 Z-1.219
N15590 X33.027 Y-17.424 Z-1.228
N15595 X32.899 Y-17.326 Z-1.249
N15600 X32.759 Y-17.231 Z-1.281
N15605 X32.688 Y-17.187 Z-1.3
N15610 X32.636 Y-17.164
N15615 X32.549 Y-17.123
N15620 X32.477 Y-17.084
N15625 X32.429 Y-17.056
N15630 X32.416 Y-17.057 Z-1.286
N15635 X32.303 Y-17.069 Z-1.151
N15640 X32.292 Y-17.071 Z-1.137
N15645 X32.22 Y-17.079 Z-1.032
N15650 X32.208 Y-17.078 Z-1.013
N15655 X32.22 Y-17.079 Z-1.032
N15660 X32.292 Y-17.071 Z-1.137
N15665 X32.303 Y-17.069 Z-1.151
N15670 X32.416 Y-17.057 Z-1.286
N15675 X32.429 Y-17.056 Z-1.3
N15680 X32.455 Y-17.032
N15685 X32.454 Y-17.021 Z-1.285
N15690 X32.437 Y-16.942 Z-1.161
N15695 X32.434 Y-16.926 Z-1.134
N15700 X32.437 Y-16.942 Z-1.161
N15705 X32.454 Y-17.021 Z-1.285
N15710 X32.455 Y-17.032 Z-1.3
N15715 X32.489 Y-17.049
N15720 X32.544 Y-17.082
N15725 X32.614 Y-17.13
N15730 X32.688 Y-17.187
N15735 G0 Z5.
N15740 X33.729 Y-14.594
N15745 Z4.
N15750 G1 Z-1. F333.33
N15755 X33.763 Y-14.622 Z-1.043 F1200.
N15760 X33.831 Y-14.678 Z-1.105
N15765 X33.854 Y-14.695 Z-1.122
N15770 X33.916 Y-14.749 Z-1.161
N15775 X33.95 Y-14.774 Z-1.177
N15780 X34.021 Y-14.834 Z-1.206
N15785 X34.068 Y-14.871 Z-1.219
N15790 X34.145 Y-14.936 Z-1.236
N15795 X34.29 Y-15.048 Z-1.254
N15800 X34.365 Y-15.102 Z-1.256
N15805 X34.507 Y-15.196 Z-1.27
N15810 X34.537 Y-15.213
N15815 X34.71 Y-15.307 Z-1.281
N15820 X34.882 Y-15.382 Z-1.288
N15825 X34.911 Y-15.394 Z-1.29
N15830 X35.051 Y-15.439 Z-1.293
N15835 X35.122 Y-15.459 Z-1.299
N15840 X35.215 Y-15.477
N15845 X35.243 Y-15.482 Z-1.3
N15850 X35.306 Y-15.495
N15855 X35.477 Y-15.507
N15860 X35.631 Y-15.497
N15865 X35.767 Y-15.468
N15870 X35.882 Y-15.422
N15875 X35.978 Y-15.363
N15880 X36.056 Y-15.291
N15885 X36.117 Y-15.204
N15890 X36.168 Y-15.092
N15895 X36.182 Y-15.04
N15900 X36.195 Y-14.973
N15905 X36.202 Y-14.899
N15910 Y-14.818
N15915 X36.2 Y-14.78
N15920 X36.184 Y-14.841
N15925 X36.165 Y-14.895
N15930 X36.126 Y-14.986
N15935 X36.096 Y-15.04
N15940 X36.042 Y-15.123
N15945 X36.002 Y-15.174
N15950 X35.934 Y-15.247
N15955 X35.884 Y-15.292
N15960 X35.801 Y-15.353
N15965 X35.744 Y-15.387
N15970 X35.647 Y-15.435
N15975 X35.6 Y-15.455
N15980 X35.551 Y-15.468
N15985 X35.465 Y-15.484
N15990 X35.422 Y-15.489
N15995 X35.378 Y-15.49
N16000 X35.269 Y-15.485
N16005 X35.243 Y-15.482
N16010 X35.269 Y-15.485
N16015 X35.378 Y-15.49
N16020 X35.422 Y-15.489
N16025 X35.465 Y-15.484
N16030 X35.551 Y-15.468
N16035 X35.6 Y-15.455
N16040 X35.647 Y-15.435
N16045 X35.744 Y-15.387
N16050 X35.801 Y-15.353
N16055 X35.884 Y-15.292
N16060 X35.934 Y-15.247
N16065 X36.002 Y-15.174
N16070 X36.042 Y-15.123
N16075 X36.096 Y-15.04
N16080 X36.126 Y-14.986
N16085 X36.165 Y-14.895
N16090 X36.184 Y-14.841
N16095 X36.2 Y-14.78
N16100 X36.205 Y-14.728 Z-1.286
N16105 Y-14.69 Z-1.275
N16110 X36.201 Y-14.563 Z-1.245
N16115 X36.193 Y-14.467 Z-1.232
N16120 X36.188 Y-14.412 Z-1.229
N16125 X36.176 Y-14.308 Z-1.233
N16130 X36.172 Y-14.261 Z-1.239
N16135 X36.16 Y-14.154 Z-1.269
N16140 X36.157 Y-14.116 Z-1.282
N16145 X36.154 Y-14.078 Z-1.3
N16150 X36.115 Y-13.984
N16155 X36.096 Y-13.944
N16160 X36.04 Y-13.844
N16165 X36.016 Y-13.806
N16170 X35.98 Y-13.757
N16175 X35.893 Y-13.699 Z-1.241
N16180 X35.79 Y-13.63 Z-1.192
N16185 X35.758 Y-13.609 Z-1.181
N16190 X35.647 Y-13.532 Z-1.158
N16195 X35.626 Y-13.518
N16200 X35.538 Y-13.458 Z-1.162
N16205 X35.508 Y-13.436 Z-1.166
N16210 X35.458 Y-13.402 Z-1.175
N16215 X35.399 Y-13.367 Z-1.177
N16220 X35.373 Y-13.352 Z-1.172
N16225 X35.358 Y-13.345 Z-1.166
N16230 X35.346 Z-1.155
N16235 X35.304 Y-13.346 Z-1.11
N16240 X35.236 Y-13.35 Z-1.024
N16245 X35.22 Z-1.
N16250 X35.236 Z-1.024
N16255 X35.304 Y-13.346 Z-1.11
N16260 X35.346 Y-13.345 Z-1.155
N16265 X35.358 Z-1.166
N16270 X35.373 Y-13.352 Z-1.172
N16275 X35.399 Y-13.367 Z-1.177
N16280 X35.458 Y-13.402 Z-1.175
N16285 X35.508 Y-13.436 Z-1.166
N16290 X35.538 Y-13.458 Z-1.162
N16295 X35.626 Y-13.518 Z-1.158
N16300 X35.647 Y-13.532
N16305 X35.758 Y-13.609 Z-1.181
N16310 X35.79 Y-13.63 Z-1.192
N16315 X35.893 Y-13.699 Z-1.241
N16320 X35.98 Y-13.757 Z-1.3
N16325 X36.004 Y-13.763
N16330 X36.048 Y-13.771
N16335 X36.143 Y-13.782
N16340 X36.187 Y-13.785
N16345 X36.279
N16350 X36.298
N16355 X36.271 Y-13.82
N16360 X36.23 Y-13.88
N16365 X36.199 Y-13.933
N16370 X36.178 Y-13.99
N16375 X36.155 Y-14.071
N16380 X36.154 Y-14.078
N16385 X36.155 Y-14.071
N16390 X36.178 Y-13.99
N16395 X36.199 Y-13.933
N16400 X36.23 Y-13.88
N16405 X36.271 Y-13.82
N16410 X36.298 Y-13.785
N16415 X36.355 Y-13.759 Z-1.263
N16420 X36.429 Y-13.729 Z-1.23
N16425 X36.493 Y-13.703 Z-1.211
N16430 X36.532 Y-13.69 Z-1.205
N16435 X36.571 Y-13.677 Z-1.206
N16440 X36.653 Y-13.65 Z-1.213
N16445 X36.669 Y-13.645 Z-1.217
N16450 X36.695 Y-13.638 Z-1.225
N16455 X36.798 Y-13.607 Z-1.265
N16460 X36.864 Y-13.584 Z-1.3
N16465 X36.9 Y-13.557
N16470 X36.943 Y-13.519
N16475 X36.999 Y-13.46
N16480 X37.038 Y-13.414
N16485 X37.084 Y-13.348
N16490 X37.116 Y-13.292
N16495 X37.15 Y-13.218
N16500 X37.173 Y-13.157
N16505 X37.194 Y-13.075
N16510 X37.205 Y-13.011
N16515 X37.213 Y-12.923
N16520 X37.214 Y-12.882
N16525 X37.211 Y-12.84
N16530 X37.199 Y-12.753
N16535 X37.191 Y-12.714
N16540 X37.18 Y-12.677
N16545 X37.145 Y-12.581
N16550 X37.121 Y-12.53
N16555 X37.075 Y-12.444
N16560 X37.037 Y-12.397 Z-1.287
N16565 X36.954 Y-12.299 Z-1.267
N16570 X36.931 Y-12.275 Z-1.261
N16575 X36.813 Y-12.157 Z-1.242
N16580 X36.687 Y-12.041 Z-1.232
N16585 X36.55 Y-11.929 Z-1.231
N16590 X36.426 Y-11.839 Z-1.236
N16595 X36.37 Y-11.799 Z-1.237
N16600 X36.316 Y-11.762 Z-1.236
N16605 X36.285 Y-11.739 Z-1.232
N16610 X36.215 Y-11.69 Z-1.219
N16615 X36.149 Y-11.644 Z-1.196
N16620 X36.118 Y-11.623 Z-1.18
N16625 X36.082 Y-11.601 Z-1.156
N16630 X36.069 Y-11.595 Z-1.144
N16635 X36.063 Y-11.593 Z-1.137
N16640 X36.04 Y-11.589 Z-1.106
N16645 X35.981 Y-11.583 Z-1.024
N16650 X35.966 Y-11.581 Z-1.001
N16655 X35.981 Y-11.583 Z-1.024
N16660 X36.04 Y-11.589 Z-1.106
N16665 X36.063 Y-11.593 Z-1.137
N16670 X36.069 Y-11.595 Z-1.144
N16675 X36.082 Y-11.601 Z-1.156
N16680 X36.118 Y-11.623 Z-1.18
N16685 X36.149 Y-11.644 Z-1.196
N16690 X36.215 Y-11.69 Z-1.219
N16695 X36.285 Y-11.739 Z-1.232
N16700 X36.316 Y-11.762 Z-1.236
N16705 X36.37 Y-11.799 Z-1.237
N16710 X36.426 Y-11.839 Z-1.236
N16715 X36.55 Y-11.929 Z-1.231
N16720 X36.687 Y-12.041 Z-1.232
N16725 X36.813 Y-12.157 Z-1.242
N16730 X36.931 Y-12.275 Z-1.261
N16735 X36.954 Y-12.299 Z-1.267
N16740 X37.037 Y-12.397 Z-1.287
N16745 X37.075 Y-12.444 Z-1.3
N16750 X37.08 Y-12.45
N16755 X37.192 Y-12.575
N16760 X37.288 Y-12.698
N16765 X37.363 Y-12.809
N16770 X37.412 Y-12.902
N16775 X37.434 Y-12.959
N16780 X37.437 Y-12.983
N16785 X37.435 Y-13.024
N16790 X37.427 Y-13.073
N16795 X37.388 Y-13.196
N16800 X37.329 Y-13.302
N16805 X37.25 Y-13.397
N16810 X37.155 Y-13.476
N16815 X37.048 Y-13.535
N16820 X36.926 Y-13.575
N16825 X36.876 Y-13.583
N16830 X36.864 Y-13.584
N16835 G0 Z5.
N16840 X30.686 Y-12.682
N16845 Z4.
N16850 G1 Z-1.001 F333.33
N16855 X30.722 Y-12.689 Z-1.047 F1200.
N16860 X30.788 Y-12.7 Z-1.124
N16865 X30.819 Y-12.704 Z-1.158
N16870 X30.951 Y-12.722 Z-1.3
N16875 X30.959 Y-12.731
N16880 X31.027 Y-12.79
N16885 X31.042 Y-12.838 Z-1.253
N16890 X31.058 Y-12.884 Z-1.212
N16895 X31.071 Y-12.91 Z-1.187
N16900 X31.098 Y-12.96 Z-1.146
N16905 X31.128 Y-13.006 Z-1.115
N16910 X31.144 Y-13.028 Z-1.104
N16915 X31.162 Y-13.047 Z-1.093
N16920 X31.179 Y-13.067 Z-1.087
N16925 X31.209 Y-13.093 Z-1.079
N16930 X31.24 Y-13.116 Z-1.076
N16935 X31.37 Y-13.196 Z-1.091
N16940 X31.578 Y-13.317 Z-1.108
N16945 X31.793 Y-13.435 Z-1.117
N16950 X32.006 Y-13.548 Z-1.118
N16955 X32.212 Y-13.651 Z-1.11
N16960 X32.404 Y-13.741 Z-1.096
N16965 X32.574 Y-13.816 Z-1.068
N16970 X32.671 Y-13.855 Z-1.042
N16975 X32.718 Y-13.875 Z-1.026
N16980 X32.749 Y-13.887 Z-1.014
N16985 X32.777 Y-13.897 Z-1.
N16990 X32.749 Y-13.887 Z-1.014
N16995 X32.718 Y-13.875 Z-1.026
N17000 X32.671 Y-13.855 Z-1.042
N17005 X32.574 Y-13.816 Z-1.068
N17010 X32.404 Y-13.741 Z-1.096
N17015 X32.212 Y-13.651 Z-1.11
N17020 X32.006 Y-13.548 Z-1.118
N17025 X31.793 Y-13.435 Z-1.117
N17030 X31.578 Y-13.317 Z-1.108
N17035 X31.37 Y-13.196 Z-1.091
N17040 X31.24 Y-13.116 Z-1.076
N17045 X31.209 Y-13.093 Z-1.079
N17050 X31.179 Y-13.067 Z-1.087
N17055 X31.162 Y-13.047 Z-1.093
N17060 X31.144 Y-13.028 Z-1.104
N17065 X31.128 Y-13.006 Z-1.115
N17070 X31.098 Y-12.96 Z-1.146
N17075 X31.071 Y-12.91 Z-1.187
N17080 X31.058 Y-12.884 Z-1.212
N17085 X31.042 Y-12.838 Z-1.253
N17090 X31.027 Y-12.79 Z-1.3
N17095 X31.058 Y-12.725
N17100 X31.1 Y-12.668
N17105 X31.152 Y-12.619
N17110 X31.009 Y-12.691
N17115 X30.951 Y-12.722
N17120 X31.009 Y-12.691
N17125 X31.152 Y-12.619
N17130 X31.179 Y-12.604 Z-1.295
N17135 X31.226 Y-12.579 Z-1.294
N17140 X31.307 Y-12.546 Z-1.3
N17145 X32.568 Y-12.126
N17150 X32.848 Y-12.026
N17155 X33.1 Y-11.932
N17160 X33.323 Y-11.844
N17165 X33.519 Y-11.759
N17170 X33.687 Y-11.679
N17175 X33.829 Y-11.603
N17180 X33.946 Y-11.53
N17185 X34.039 Y-11.463
N17190 X34.11 Y-11.4
N17195 X34.163 Y-11.341
N17200 X34.202 Y-11.285
N17205 X34.23 Y-11.229
N17210 X34.252 Y-11.166
N17215 X34.269 Y-11.092
N17220 X34.279 Y-11.004
N17225 X34.282 Y-10.911
N17230 X34.274 Y-10.818
N17235 X34.251 Y-10.738
N17240 X34.207 Y-10.652
N17245 X34.136 Y-10.552
N17250 X34.073 Y-10.484
N17255 X34.025 Y-10.407 Z-1.264
N17260 X33.996 Y-10.366 Z-1.245
N17265 X33.981 Y-10.347 Z-1.236
N17270 X33.918 Y-10.275 Z-1.216
N17275 X33.855 Y-10.213 Z-1.192
N17280 X33.83 Y-10.189 Z-1.189
N17285 X33.719 Y-10.097 Z-1.175
N17290 X33.7 Y-10.084 Z-1.172
N17295 X33.68 Y-10.069
N17300 X33.508 Y-9.956 Z-1.175
N17305 X33.31 Y-9.845 Z-1.195
N17310 X32.951 Y-9.666 Z-1.258
N17315 X32.841 Y-9.607 Z-1.267
N17320 X32.761 Y-9.56 Z-1.263
N17325 X32.733 Y-9.542 Z-1.256
N17330 X32.709 Y-9.548 Z-1.22
N17335 X32.657 Y-9.559 Z-1.137
N17340 X32.645 Y-9.56 Z-1.117
N17345 X32.657 Y-9.559 Z-1.137
N17350 X32.709 Y-9.548 Z-1.22
N17355 X32.733 Y-9.542 Z-1.256
N17360 X32.707 Y-9.473 Z-1.17
N17365 X32.674 Y-9.391 Z-1.06
N17370 X32.657 Y-9.35 Z-1.
N17375 X32.674 Y-9.391 Z-1.06
N17380 X32.707 Y-9.473 Z-1.17
N17385 X32.733 Y-9.542 Z-1.256
N17390 X32.761 Y-9.56 Z-1.263
N17395 X32.841 Y-9.607 Z-1.267
N17400 X32.951 Y-9.666 Z-1.258
N17405 X33.31 Y-9.845 Z-1.195
N17410 X33.508 Y-9.956 Z-1.175
N17415 X33.68 Y-10.069 Z-1.172
N17420 X33.7 Y-10.084
N17425 X33.719 Y-10.097 Z-1.175
N17430 X33.83 Y-10.189 Z-1.189
N17435 X33.855 Y-10.213 Z-1.192
N17440 X33.918 Y-10.275 Z-1.216
N17445 X33.981 Y-10.347 Z-1.236
N17450 X33.996 Y-10.366 Z-1.245
N17455 X34.025 Y-10.407 Z-1.264
N17460 X34.073 Y-10.484 Z-1.3
N17465 X34.08 Y-10.505
N17470 X34.094 Y-10.564
N17475 X34.099 Y-10.623
N17480 Y-10.732
N17485 X34.095 Y-10.788
N17490 X34.082 Y-10.844
N17495 X34.047 Y-10.955
N17500 X34.031 Y-10.998
N17505 X34.009 Y-11.038
N17510 X33.94 Y-11.152
N17515 X33.899 Y-11.206
N17520 X33.795 Y-11.322
N17525 X33.759 Y-11.357
N17530 X33.621 Y-11.475
N17535 X33.591 Y-11.498
N17540 X33.419 Y-11.618
N17545 X33.395 Y-11.633
N17550 X33.189 Y-11.754
N17555 X33.169 Y-11.765
N17560 X32.929 Y-11.886
N17565 X32.912 Y-11.894
N17570 X32.639 Y-12.017
N17575 X32.625 Y-12.023
N17580 X32.319 Y-12.146
N17585 X32.306 Y-12.15
N17590 X31.997 Y-12.261
N17595 X31.709 Y-12.373
N17600 X31.444 Y-12.484
N17605 X31.307 Y-12.546
N17610 G0 Z5.
N17615 X29.876 Y-11.241
N17620 Z4.
N17625 G1 Z-1.3 F333.33
N17630 X29.875 Y-11.243 F1200.
N17635 X29.789 Y-11.321
N17640 X29.7 Y-11.392
N17645 X29.613 Y-11.451
N17650 X29.529 Y-11.498
N17655 X29.447 Y-11.534
N17660 X29.372 Y-11.557
N17665 X29.203 Y-11.587
N17670 X29.045 Y-11.592
N17675 X28.897 Y-11.576
N17680 X28.76 Y-11.539
N17685 X28.632 Y-11.484
N17690 X28.513 Y-11.411
N17695 X28.404 Y-11.321
N17700 X28.305 Y-11.213
N17705 X28.218 Y-11.088
N17710 X28.144 Y-10.948
N17715 X28.085 Y-10.792
N17720 X28.042 Y-10.622
N17725 X28.019 Y-10.439
N17730 X28.015 Y-10.245
N17735 X28.033 Y-10.04
N17740 X28.075 Y-9.828
N17745 X28.104 Y-9.736
N17750 X28.157 Y-9.615
N17755 X28.236 Y-9.467
N17760 X28.334 Y-9.305
N17765 X28.448 Y-9.135
N17770 X28.572 Y-8.966
N17775 X28.702 Y-8.804
N17780 X28.833 Y-8.657
N17785 X28.96 Y-8.532
N17790 X29.091 Y-8.42
N17795 X29.225 Y-8.321
N17800 X29.363 Y-8.236
N17805 X29.501 Y-8.163
N17810 X29.639 Y-8.104
N17815 X29.775 Y-8.059
N17820 X29.908 Y-8.027
N17825 X30.036 Y-8.008
N17830 X30.157 Y-8.002
N17835 X30.27 Y-8.008
N17840 X30.374 Y-8.027
N17845 X30.469 Y-8.055
N17850 X30.555 Y-8.094
N17855 X30.632 Y-8.143
N17860 X30.701 Y-8.204
N17865 X30.739 Y-8.247
N17870 X30.773 Y-8.3
N17875 X30.805 Y-8.365
N17880 X30.832 Y-8.442
N17885 X30.855 Y-8.532
N17890 X30.871 Y-8.632
N17895 X30.881 Y-8.742
N17900 X30.883 Y-8.856
N17905 X30.866 Y-9.122
N17910 X30.819 Y-9.402
N17915 X30.746 Y-9.694
N17920 X30.647 Y-9.989
N17925 X30.525 Y-10.279
N17930 X30.383 Y-10.557
N17935 X30.226 Y-10.814
N17940 X30.056 Y-11.044
N17945 X29.876 Y-11.241
N17950 G0 Z5.
N17955 X24.429 Y-8.681
N17960 Z4.
N17965 G1 Z-1.044 F333.33
N17970 X24.438 Y-8.682 Z-1.06 F1200.
N17975 X24.465 Y-8.685 Z-1.103
N17980 X24.539 Y-8.694 Z-1.206
N17985 X24.595 Y-8.701 Z-1.276
N17990 X24.616 Y-8.703 Z-1.3
N17995 X24.638 Y-8.727
N18000 X24.751 Y-8.831
N18005 X24.771 Y-8.847
N18010 X24.784 Y-8.877 Z-1.271
N18015 X24.812 Y-8.935 Z-1.221
N18020 X24.827 Y-8.962 Z-1.202
N18025 X24.844 Y-8.988 Z-1.183
N18030 X24.861 Y-9.013 Z-1.168
N18035 X24.879 Y-9.035 Z-1.153
N18040 X24.898 Y-9.057 Z-1.143
N18045 X24.918 Y-9.077 Z-1.134
N18050 X24.938 Y-9.097 Z-1.128
N18055 X24.96 Y-9.114 Z-1.124
N18060 X24.997 Y-9.142
N18065 X25.048 Y-9.175 Z-1.128
N18070 X25.292 Y-9.331 Z-1.138
N18075 X25.744 Y-9.611 Z-1.142
N18080 X25.891 Y-9.702 Z-1.14
N18085 X26.044 Y-9.801 Z-1.127
N18090 X26.172 Y-9.888 Z-1.106
N18095 X26.279 Y-9.962 Z-1.077
N18100 X26.365 Y-10.025 Z-1.043
N18105 X26.412 Y-10.059 Z-1.018
N18110 X26.435 Y-10.078 Z-1.
N18115 X26.412 Y-10.059 Z-1.018
N18120 X26.365 Y-10.025 Z-1.043
N18125 X26.279 Y-9.962 Z-1.077
N18130 X26.172 Y-9.888 Z-1.106
N18135 X26.044 Y-9.801 Z-1.127
N18140 X25.891 Y-9.702 Z-1.14
N18145 X25.744 Y-9.611 Z-1.142
N18150 X25.292 Y-9.331 Z-1.138
N18155 X25.048 Y-9.175 Z-1.128
N18160 X24.997 Y-9.142 Z-1.124
N18165 X24.96 Y-9.114
N18170 X24.938 Y-9.097 Z-1.128
N18175 X24.918 Y-9.077 Z-1.134
N18180 X24.898 Y-9.057 Z-1.143
N18185 X24.879 Y-9.035 Z-1.153
N18190 X24.861 Y-9.013 Z-1.168
N18195 X24.844 Y-8.988 Z-1.183
N18200 X24.827 Y-8.962 Z-1.202
N18205 X24.812 Y-8.935 Z-1.221
N18210 X24.784 Y-8.877 Z-1.271
N18215 X24.771 Y-8.847 Z-1.3
N18220 G2 X25.027 Y-8.554 I0.368 J-0.063
N18225 G1 X26.334 Y-8.143
N18230 X26.608 Y-8.048
N18235 X26.856 Y-7.96
N18240 X27.075 Y-7.877
N18245 X27.266 Y-7.8
N18250 X27.429 Y-7.727
N18255 X27.566 Y-7.659
N18260 X27.676 Y-7.595
N18265 X27.762 Y-7.536
N18270 X27.826 Y-7.482
N18275 X27.871 Y-7.434
N18280 X27.902 Y-7.389
N18285 X27.926 Y-7.343
N18290 X27.944 Y-7.29
N18295 X27.958 Y-7.224
N18300 X27.967 Y-7.141
N18305 X27.97 Y-7.058
N18310 X27.959 Y-6.969
N18315 X27.924 Y-6.866
N18320 X27.86 Y-6.741
N18325 X27.768 Y-6.602
N18330 X27.652 Y-6.458
N18335 X27.53 Y-6.328
N18340 X27.519 Y-6.313 Z-1.297
N18345 X27.452 Y-6.234 Z-1.272
N18350 X27.43 Y-6.21 Z-1.27
N18355 X27.383 Y-6.162 Z-1.265
N18360 X27.281 Y-6.067 Z-1.248
N18365 X27.21 Y-6.008 Z-1.243
N18370 X27.193 Y-5.996 Z-1.241
N18375 X27.077 Y-5.911 Z-1.236
N18380 X26.995 Y-5.857 Z-1.23
N18385 X26.925 Y-5.814 Z-1.228
N18390 X26.882 Y-5.79 Z-1.223
N18395 X26.765 Y-5.728 Z-1.21
N18400 X26.666 Y-5.684 Z-1.193
N18405 X26.568 Y-5.648 Z-1.164
N18410 X26.524 Y-5.638 Z-1.143
N18415 X26.518 Z-1.139
N18420 X26.51 Y-5.639 Z-1.13
N18425 X26.407 Y-5.669 Z-1.001
N18430 X26.51 Y-5.639 Z-1.13
N18435 X26.518 Y-5.638 Z-1.139
N18440 X26.524 Z-1.143
N18445 X26.568 Y-5.648 Z-1.164
N18450 X26.666 Y-5.684 Z-1.193
N18455 X26.765 Y-5.728 Z-1.21
N18460 X26.882 Y-5.79 Z-1.223
N18465 X26.925 Y-5.814 Z-1.228
N18470 X26.995 Y-5.857 Z-1.23
N18475 X27.077 Y-5.911 Z-1.236
N18480 X27.193 Y-5.996 Z-1.241
N18485 X27.21 Y-6.008 Z-1.243
N18490 X27.281 Y-6.067 Z-1.248
N18495 X27.383 Y-6.162 Z-1.265
N18500 X27.43 Y-6.21 Z-1.27
N18505 X27.452 Y-6.234 Z-1.272
N18510 X27.519 Y-6.313 Z-1.297
N18515 X27.53 Y-6.328 Z-1.3
N18520 X27.563 Y-6.382
N18525 X27.595 Y-6.448
N18530 X27.646 Y-6.587
N18535 X27.663 Y-6.649
N18540 X27.691 Y-6.804
N18545 X27.696 Y-6.839
N18550 X27.708 Y-6.982
N18555 Y-7.052
N18560 X27.701 Y-7.116
N18565 X27.69 Y-7.176
N18570 X27.674 Y-7.236
N18575 X27.65 Y-7.3
N18580 X27.623 Y-7.356
N18585 X27.588 Y-7.413
N18590 X27.549 Y-7.467
N18595 X27.511 Y-7.512
N18600 X27.459 Y-7.564
N18605 X27.423 Y-7.595
N18610 X27.358 Y-7.646
N18615 X27.327 Y-7.667
N18620 X27.246 Y-7.717
N18625 X27.222 Y-7.731
N18630 X27.126 Y-7.781
N18635 X27.107 Y-7.79
N18640 X26.994 Y-7.841
N18645 X26.979 Y-7.847
N18650 X26.849 Y-7.9
N18655 X26.838 Y-7.904
N18660 X26.688 Y-7.959
N18665 X26.681 Y-7.961
N18670 X26.511 Y-8.019
N18675 X26.506 Y-8.021
N18680 X26.316 Y-8.083
N18685 X26.312 Y-8.084
N18690 X26.1 Y-8.15
N18695 X26.098
N18700 X25.903 Y-8.21
N18705 X25.72 Y-8.267
N18710 X25.551 Y-8.321
N18715 X25.394 Y-8.373
N18720 X25.25 Y-8.423
N18725 X25.118 Y-8.471
N18730 X24.999 Y-8.516
N18735 X24.894 Y-8.56
N18740 X24.802 Y-8.601
N18745 X24.724 Y-8.64
N18750 X24.66 Y-8.675
N18755 X24.616 Y-8.703
N18760 G0 Z5.
N18765 X31.031 Y22.782
N18770 Z4.
N18775 G1 Z-1.001 F333.33
N18780 X31.234 Y22.748 Z-1.3 F1200.
N18785 X31.574 Y23.12
N18790 X31.775 Y23.316
N18795 X31.835 Y23.373
N18800 X31.866 Y23.569 Z-1.087
N18805 X31.878 Y23.644 Z-1.001
N18810 X31.866 Y23.569 Z-1.087
N18815 X31.835 Y23.373 Z-1.3
N18820 X31.85 Y23.346
N18825 X31.907 Y23.24
N18830 X31.969 Y23.121
N18835 X32.034 Y22.992
N18840 X32.177 Y22.7
N18845 X32.332 Y22.374
N18850 X32.496 Y22.02
N18855 X32.665 Y21.643
N18860 X32.837 Y21.251
N18865 X33.179 Y20.442
N18870 X33.343 Y20.04
N18875 X33.498 Y19.646
N18880 X33.641 Y19.267
N18885 X33.77 Y18.91
N18890 X34.011 Y18.205
N18895 X34.237 Y17.494
N18900 X34.449 Y16.776
N18905 X34.647 Y16.053
N18910 X34.831 Y15.324
N18915 X35.001 Y14.589
N18920 X35.156 Y13.851
N18925 X35.297 Y13.108
N18930 X35.424 Y12.362
N18935 X35.536 Y11.614
N18940 X35.634 Y10.863
N18945 X35.718 Y10.11
N18950 X35.787 Y9.356
N18955 X35.843 Y8.601
N18960 X35.883 Y7.846
N18965 X35.91 Y7.092
N18970 X35.922 Y6.338
N18975 X35.919 Y5.586
N18980 X35.902 Y4.835
N18985 X35.871 Y4.087
N18990 X35.826 Y3.342
N18995 X35.766 Y2.601
N19000 X35.691 Y1.864
N19005 X35.602 Y1.131
N19010 X35.499 Y0.404
N19015 X35.381 Y-0.318
N19020 X35.249 Y-1.034
N19025 X35.103 Y-1.743
N19030 X34.942 Y-2.445
N19035 X34.767 Y-3.139
N19040 X34.577 Y-3.824
N19045 X34.372 Y-4.503
N19050 X34.294 Y-4.752
N19055 X34.219 Y-4.988
N19060 X34.148 Y-5.208
N19065 X34.082 Y-5.414
N19070 X34.019 Y-5.605
N19075 X33.961 Y-5.781
N19080 X33.905 Y-5.944
N19085 X33.853 Y-6.094
N19090 X33.803 Y-6.23
N19095 X33.757 Y-6.352
N19100 X33.713 Y-6.462
N19105 X33.672 Y-6.559
N19110 X33.633 Y-6.644
N19115 X33.6 Y-6.711
N19120 X33.537 Y-6.818
N19125 X33.494 Y-6.873
N19130 X33.487 Y-6.878
N19135 X33.5 Y-6.919 Z-1.231
N19140 X33.501 Y-6.92 Z-1.23
N19145 X33.5 Y-6.919 Z-1.231
N19150 X33.487 Y-6.878 Z-1.3
N19155 X33.48
N19160 X33.421 Y-6.862
N19165 X33.328 Y-6.826
N19170 X33.218 Y-6.778
N19175 X33.112 Y-6.72
N19180 X33.028 Y-6.664
N19185 X32.971 Y-6.616
N19190 X32.939 Y-6.581
N19195 X32.929 Y-6.563
N19200 X32.931 Y-6.55
N19205 X33.211 Y-5.703
N19210 X33.213 Y-5.698
N19215 X33.477 Y-4.855
N19220 X33.479 Y-4.849
N19225 X33.721 Y-4.031
N19230 X33.722 Y-4.024
N19235 X33.942 Y-3.227
N19240 X33.944 Y-3.219
N19245 X34.141 Y-2.439
N19250 X34.143 Y-2.431
N19255 X34.32 Y-1.663
N19260 X34.322 Y-1.654
N19265 X34.478 Y-0.894
N19270 X34.48 Y-0.886
N19275 X34.617 Y-0.13
N19280 X34.618 Y-0.122
N19285 X34.736 Y0.633
N19290 X34.738 Y0.642
N19295 X34.838 Y1.401
N19300 X34.839 Y1.41
N19305 X34.922 Y2.177
N19310 Y2.185
N19315 X34.988 Y2.964
N19320 X34.989 Y2.972
N19325 X35.039 Y3.767
N19330 X35.04 Y3.774
N19335 X35.075 Y4.589
N19340 Y4.596
N19345 X35.095 Y5.435
N19350 Y5.442
N19355 X35.102 Y6.309
N19360 Y6.31
N19365 X35.105 Y6.833
N19370 Y6.836
N19375 X35.104 Y7.325
N19380 Y7.328
N19385 X35.099 Y7.785
N19390 Y7.789
N19395 X35.09 Y8.219
N19400 Y8.223
N19405 X35.077 Y8.629
N19410 Y8.634
N19415 X35.059 Y9.019
N19420 X35.058 Y9.025
N19425 X35.035 Y9.392
N19430 Y9.399
N19435 X35.007 Y9.753
N19440 X35.006 Y9.763
N19445 X34.933 Y10.443
N19450 X34.932 Y10.457
N19455 X34.835 Y11.125
N19460 X34.833 Y11.137
N19465 X34.712 Y11.819
N19470 X34.71 Y11.827
N19475 X34.639 Y12.182
N19480 X34.638 Y12.186
N19485 X34.56 Y12.556
N19490 Y12.557
N19495 X34.44 Y13.11
N19500 X34.439 Y13.115
N19505 X34.309 Y13.678
N19510 X34.308 Y13.683
N19515 X34.169 Y14.254
N19520 X34.167 Y14.258
N19525 X34.019 Y14.835
N19530 X34.017 Y14.841
N19535 X33.698 Y16.001
N19540 X33.695 Y16.009
N19545 X33.351 Y17.162
N19550 X33.349 Y17.168
N19555 X33.169 Y17.735
N19560 X33.168 Y17.739
N19565 X32.985 Y18.297
N19570 X32.983 Y18.301
N19575 X32.797 Y18.847
N19580 X32.796 Y18.851
N19585 X32.607 Y19.383
N19590 X32.606 Y19.388
N19595 X32.417 Y19.903
N19600 X32.415 Y19.908
N19605 X32.225 Y20.404
N19610 X32.223 Y20.408
N19615 X32.034 Y20.883
N19620 X32.032 Y20.888
N19625 X31.844 Y21.338
N19630 X31.842 Y21.343
N19635 X31.234 Y22.748
N19640 G0 Z5.
N19645 X22.898 Y29.511
N19650 Z4.
N19655 G1 Z-1.16 F333.33
N19660 X22.941 Y29.493 Z-1.235 F1200.
N19665 X22.981 Y29.481 Z-1.3
N19670 X22.982 Y29.469
N19675 X22.995 Y29.419
N19680 X23.02 Y29.346
N19685 X23.058 Y29.252
N19690 X23.109 Y29.138
N19695 X23.172 Y29.003
N19700 X23.248 Y28.847
N19705 X23.336 Y28.669
N19710 X23.443 Y28.458
N19715 X23.547 Y28.258
N19720 X23.645 Y28.074
N19725 X23.734 Y27.909
N19730 X23.804 Y27.781
N19735 X23.787 Y27.733 Z-1.233
N19740 X23.726 Y27.577 Z-1.01
N19745 X23.723 Y27.571 Z-1.
N19750 X23.726 Y27.577 Z-1.01
N19755 X23.787 Y27.733 Z-1.233
N19760 X23.804 Y27.781 Z-1.3
N19765 X23.887 Y27.813
N19770 X24.019 Y27.87
N19775 X24.163 Y27.936
N19780 X24.315 Y28.009
N19785 X24.438 Y28.075
N19790 X24.442 Y28.076
N19795 X24.557 Y28.136
N19800 X24.563 Y28.139
N19805 X24.665 Y28.189
N19810 X24.674 Y28.193
N19815 X24.764 Y28.234
N19820 X24.779 Y28.241
N19825 X24.858 Y28.273
N19830 X24.882 Y28.282
N19835 X24.951 Y28.304
N19840 X24.985 Y28.314
N19845 X25.046 Y28.327
N19850 X25.097 Y28.335
N19855 X25.15 Y28.34
N19860 X25.217 Y28.339
N19865 X25.264 Y28.335
N19870 X25.305 Y28.329
N19875 X25.345 Y28.318
N19880 X25.387 Y28.304
N19885 X25.443 Y28.281
N19890 X25.494 Y28.249
N19895 X25.567 Y28.194
N19900 X25.609 Y28.158
N19905 X25.645 Y28.115
N19910 X25.712 Y28.024
N19915 X25.739 Y27.981
N19920 X25.795 Y27.877
N19925 X25.831 Y27.828
N19930 X25.88 Y27.772
N19935 X26.02 Y27.644
N19940 X26.177 Y27.534
N19945 X26.244 Y27.498
N19950 X26.329 Y27.462
N19955 X26.33 Y27.461
N19960 X26.402 Y27.43
N19965 X26.417 Y27.423
N19970 X26.479 Y27.394
N19975 X26.504 Y27.38
N19980 X26.555 Y27.351
N19985 X26.595 Y27.324
N19990 X26.635 Y27.294
N19995 X26.689 Y27.243
N20000 X26.717 Y27.211
N20005 X26.748 Y27.17
N20010 X26.773 Y27.125
N20015 X26.79 Y27.089
N20020 X26.812 Y27.033
N20025 X26.824 Y26.973
N20030 X26.828 Y26.934
N20035 X26.831 Y26.881
N20040 X26.826 Y26.829
N20045 X26.818 Y26.784
N20050 X26.81 Y26.746
N20055 X26.798 Y26.709
N20060 X26.778 Y26.658
N20065 X26.756 Y26.612
N20070 X26.723 Y26.553
N20075 X26.705 Y26.524
